
(Created with svg2gcode_grbl)
(https://github.com/arcadeperfect/svg2gcode_grbl)


(forked from svg2gcode by visphat)
(https://github.com/vishpat/svg2gcode)

G21
G90
F1000
F80000

(shape preamble)

G0 X5.040 Y20.159 Z4.000
G1 X5.040 Y20.159 Z0.000
G1 X5.040 Y21.419 Z0.000
G1 X6.300 Y20.159 Z0.000
G0 X6.300 Y20.159 Z4.000

(shape postamble)


(shape preamble)

G0 X6.300 Y21.419 Z4.000
G1 X6.300 Y21.419 Z0.000
G1 X5.040 Y22.679 Z0.000
G1 X7.560 Y22.679 Z0.000
G0 X7.560 Y22.679 Z4.000

(shape postamble)


(shape preamble)

G0 X6.300 Y23.938 Z4.000
G1 X6.300 Y23.938 Z0.000
G1 X3.780 Y23.939 Z0.000
G1 X6.300 Y26.458 Z0.000
G0 X6.300 Y26.458 Z4.000

(shape postamble)


(shape preamble)

G0 X13.859 Y22.679 Z4.000
G1 X13.859 Y22.679 Z0.000
G1 X15.119 Y21.419 Z0.000
G1 X15.119 Y22.679 Z0.000
G0 X15.119 Y22.679 Z4.000

(shape postamble)


(shape preamble)

G0 X16.379 Y22.679 Z4.000
G1 X16.379 Y22.679 Z0.000
G1 X15.119 Y21.419 Z0.000
G1 X16.379 Y21.419 Z0.000
G0 X16.379 Y21.419 Z4.000

(shape postamble)


(shape preamble)

G0 X16.379 Y21.419 Z4.000
G1 X16.379 Y21.419 Z0.000
G1 X15.119 Y22.679 Z0.000
G1 X17.639 Y22.679 Z0.000
G0 X17.639 Y22.679 Z4.000

(shape postamble)


(shape preamble)

G0 X16.379 Y23.938 Z4.000
G1 X16.379 Y23.938 Z0.000
G1 X13.859 Y23.938 Z0.000
G1 X16.379 Y26.458 Z0.000
G0 X16.379 Y26.458 Z4.000

(shape postamble)


(shape preamble)

G0 X13.859 Y21.419 Z4.000
G1 X13.859 Y21.419 Z0.000
G1 X15.119 Y21.419 Z0.000
G1 X13.859 Y20.159 Z0.000
G0 X13.859 Y20.159 Z4.000

(shape postamble)


(shape preamble)

G0 X15.119 Y20.159 Z4.000
G1 X15.119 Y20.159 Z0.000
G1 X15.119 Y21.419 Z0.000
G1 X16.379 Y20.159 Z0.000
G0 X16.379 Y20.159 Z4.000

(shape postamble)


(shape preamble)

G0 X15.119 Y13.859 Z4.000
G1 X15.119 Y13.859 Z0.000
G1 X16.379 Y13.859 Z0.000
G1 X15.119 Y12.599 Z0.000
G0 X15.119 Y12.599 Z4.000

(shape postamble)


(shape preamble)

G0 X15.119 Y12.599 Z4.000
G1 X15.119 Y12.599 Z0.000
G1 X13.859 Y11.339 Z0.000
G1 X15.119 Y11.339 Z0.000
G0 X15.119 Y11.339 Z4.000

(shape postamble)


(shape preamble)

G0 X15.119 Y12.599 Z4.000
G1 X15.119 Y12.599 Z0.000
G1 X13.859 Y13.859 Z0.000
G1 X13.859 Y12.599 Z0.000
G0 X13.859 Y12.599 Z4.000

(shape postamble)


(shape preamble)

G0 X15.119 Y12.599 Z4.000
G1 X15.119 Y12.599 Z0.000
G1 X16.379 Y11.339 Z0.000
G1 X16.379 Y12.599 Z0.000
G0 X16.379 Y12.599 Z4.000

(shape postamble)


(shape preamble)

G0 X23.938 Y12.599 Z4.000
G1 X23.938 Y12.599 Z0.000
G1 X23.939 Y13.859 Z0.000
G1 X25.198 Y12.599 Z0.000
G0 X25.198 Y12.599 Z4.000

(shape postamble)


(shape preamble)

G0 X25.198 Y12.599 Z4.000
G1 X25.198 Y12.599 Z0.000
G1 X26.458 Y13.859 Z0.000
G1 X25.198 Y13.859 Z0.000
G0 X25.198 Y13.859 Z4.000

(shape postamble)


(shape preamble)

G0 X25.198 Y12.599 Z4.000
G1 X25.198 Y12.599 Z0.000
G1 X23.939 Y11.339 Z0.000
G1 X25.198 Y11.339 Z0.000
G0 X25.198 Y11.339 Z4.000

(shape postamble)


(shape preamble)

G0 X25.198 Y12.599 Z4.000
G1 X25.198 Y12.599 Z0.000
G1 X26.458 Y11.339 Z0.000
G1 X26.458 Y12.599 Z0.000
G0 X26.458 Y12.599 Z4.000

(shape postamble)


(shape preamble)

G0 X34.018 Y11.339 Z4.000
G1 X34.018 Y11.339 Z0.000
G1 X36.538 Y21.419 Z0.000
G1 X44.097 Y8.819 Z0.000
G0 X44.097 Y8.819 Z4.000

(shape postamble)


(shape preamble)

G0 X46.617 Y11.339 Z4.000
G1 X46.617 Y11.339 Z0.000
G1 X36.538 Y8.819 Z0.000
G1 X44.097 Y21.419 Z0.000
G0 X44.097 Y21.419 Z4.000

(shape postamble)


(shape preamble)

G0 X47.877 Y15.119 Z4.000
G1 X47.877 Y15.119 Z0.000
G1 X32.758 Y15.119 Z0.000
G1 X40.317 Y7.560 Z0.000
G0 X40.317 Y7.560 Z4.000

(shape postamble)


(shape preamble)

G0 X54.177 Y11.339 Z4.000
G1 X54.177 Y11.339 Z0.000
G1 X56.696 Y21.419 Z0.000
G1 X64.256 Y8.819 Z0.000
G0 X64.256 Y8.819 Z4.000

(shape postamble)


(shape preamble)

G0 X66.776 Y11.339 Z4.000
G1 X66.776 Y11.339 Z0.000
G1 X56.696 Y8.819 Z0.000
G1 X64.256 Y21.419 Z0.000
G0 X64.256 Y21.419 Z4.000

(shape postamble)


(shape preamble)

G0 X68.036 Y15.119 Z4.000
G1 X68.036 Y15.119 Z0.000
G1 X52.917 Y15.119 Z0.000
G1 X60.476 Y7.560 Z0.000
G0 X60.476 Y7.560 Z4.000

(shape postamble)


(shape preamble)

G0 X80.635 Y-2.520 Z4.000
G1 X80.635 Y-2.520 Z0.000
G1 X66.776 Y1.260 Z0.000
G1 X84.415 Y11.339 Z0.000
G0 X84.415 Y11.339 Z4.000

(shape postamble)


(shape preamble)

G0 X94.494 Y1.260 Z4.000
G1 X94.494 Y1.260 Z0.000
G1 X76.855 Y11.339 Z0.000
G1 X80.635 Y-2.520 Z0.000
G0 X80.635 Y-2.520 Z4.000

(shape postamble)


(shape preamble)

G0 X94.494 Y-5.040 Z4.000
G1 X94.494 Y-5.040 Z0.000
G1 X94.494 Y-2.520 Z0.000
G1 X97.014 Y-5.040 Z0.000
G0 X97.014 Y-5.040 Z4.000

(shape postamble)


(shape preamble)

G0 X97.014 Y-2.520 Z4.000
G1 X97.014 Y-2.520 Z0.000
G1 X96.384 Y0.630 Z0.000
G1 X100.164 Y-1.890 Z0.000
G0 X100.164 Y-1.890 Z4.000

(shape postamble)


(shape preamble)

G0 X99.534 Y1.260 Z4.000
G1 X99.534 Y1.260 Z0.000
G1 X98.274 Y5.040 Z0.000
G1 X103.314 Y2.520 Z0.000
G0 X103.314 Y2.520 Z4.000

(shape postamble)


(shape preamble)

G0 X102.054 Y6.300 Z4.000
G1 X102.054 Y6.300 Z0.000
G1 X99.534 Y10.079 Z0.000
G1 X105.833 Y8.819 Z0.000
G0 X105.833 Y8.819 Z4.000

(shape postamble)


(shape preamble)

G0 X103.314 Y12.599 Z4.000
G1 X103.314 Y12.599 Z0.000
G1 X100.794 Y15.119 Z0.000
G1 X105.833 Y15.119 Z0.000
G0 X105.833 Y15.119 Z4.000

(shape postamble)


(shape preamble)

G0 X103.314 Y17.639 Z4.000
G1 X103.314 Y17.639 Z0.000
G1 X99.534 Y20.159 Z0.000
G1 X105.833 Y21.419 Z0.000
G0 X105.833 Y21.419 Z4.000

(shape postamble)


(shape preamble)

G0 X102.054 Y23.938 Z4.000
G1 X102.054 Y23.938 Z0.000
G1 X98.274 Y25.198 Z0.000
G1 X103.314 Y27.718 Z0.000
G0 X103.314 Y27.718 Z4.000

(shape postamble)


(shape preamble)

G0 X99.534 Y28.978 Z4.000
G1 X99.534 Y28.978 Z0.000
G1 X96.384 Y29.608 Z0.000
G1 X100.164 Y32.128 Z0.000
G0 X100.164 Y32.128 Z4.000

(shape postamble)


(shape preamble)

G0 X97.014 Y32.758 Z4.000
G1 X97.014 Y32.758 Z0.000
G1 X94.494 Y32.758 Z0.000
G1 X97.014 Y35.278 Z0.000
G0 X97.014 Y35.278 Z4.000

(shape postamble)


(shape preamble)

G0 X113.393 Y18.899 Z4.000
G1 X113.393 Y18.899 Z0.000
G1 X124.732 Y30.238 Z0.000
G1 X124.732 Y7.560 Z0.000
G0 X124.732 Y7.560 Z4.000

(shape postamble)


(shape preamble)

G0 X124.732 Y-0.000 Z4.000
G1 X124.732 Y-0.000 Z0.000
G1 X124.732 Y22.679 Z0.000
G1 X113.393 Y11.339 Z0.000
G0 X113.393 Y11.339 Z4.000

(shape postamble)


(shape preamble)

G0 X144.891 Y-5.040 Z4.000
G1 X144.891 Y-5.040 Z0.000
G1 X144.891 Y-2.520 Z0.000
G1 X147.411 Y-5.040 Z0.000
G0 X147.411 Y-5.040 Z4.000

(shape postamble)


(shape preamble)

G0 X147.411 Y-2.520 Z4.000
G1 X147.411 Y-2.520 Z0.000
G1 X146.781 Y0.630 Z0.000
G1 X150.561 Y-1.890 Z0.000
G0 X150.561 Y-1.890 Z4.000

(shape postamble)


(shape preamble)

G0 X149.931 Y1.260 Z4.000
G1 X149.931 Y1.260 Z0.000
G1 X148.671 Y5.040 Z0.000
G1 X153.710 Y2.520 Z0.000
G0 X153.710 Y2.520 Z4.000

(shape postamble)


(shape preamble)

G0 X152.451 Y6.300 Z4.000
G1 X152.451 Y6.300 Z0.000
G1 X149.931 Y10.079 Z0.000
G1 X156.230 Y8.819 Z0.000
G0 X156.230 Y8.819 Z4.000

(shape postamble)


(shape preamble)

G0 X153.710 Y12.599 Z4.000
G1 X153.710 Y12.599 Z0.000
G1 X151.191 Y15.119 Z0.000
G1 X156.230 Y15.119 Z0.000
G0 X156.230 Y15.119 Z4.000

(shape postamble)


(shape preamble)

G0 X153.710 Y17.639 Z4.000
G1 X153.710 Y17.639 Z0.000
G1 X149.931 Y20.159 Z0.000
G1 X156.230 Y21.419 Z0.000
G0 X156.230 Y21.419 Z4.000

(shape postamble)


(shape preamble)

G0 X152.451 Y23.938 Z4.000
G1 X152.451 Y23.938 Z0.000
G1 X148.671 Y25.198 Z0.000
G1 X153.710 Y27.718 Z0.000
G0 X153.710 Y27.718 Z4.000

(shape postamble)


(shape preamble)

G0 X149.931 Y28.978 Z4.000
G1 X149.931 Y28.978 Z0.000
G1 X146.781 Y29.608 Z0.000
G1 X150.561 Y32.128 Z0.000
G0 X150.561 Y32.128 Z4.000

(shape postamble)


(shape preamble)

G0 X147.411 Y32.758 Z4.000
G1 X147.411 Y32.758 Z0.000
G1 X144.891 Y32.758 Z0.000
G1 X147.411 Y35.278 Z0.000
G0 X147.411 Y35.278 Z4.000

(shape postamble)


(shape preamble)

G0 X165.050 Y35.278 Z4.000
G1 X165.050 Y35.278 Z0.000
G1 X162.530 Y32.758 Z0.000
G1 X165.050 Y32.758 Z0.000
G0 X165.050 Y32.758 Z4.000

(shape postamble)


(shape preamble)

G0 X168.199 Y32.128 Z4.000
G1 X168.199 Y32.128 Z0.000
G1 X164.420 Y29.608 Z0.000
G1 X167.570 Y28.978 Z0.000
G0 X167.570 Y28.978 Z4.000

(shape postamble)


(shape preamble)

G0 X171.349 Y27.718 Z4.000
G1 X171.349 Y27.718 Z0.000
G1 X166.310 Y25.198 Z0.000
G1 X170.089 Y23.938 Z0.000
G0 X170.089 Y23.938 Z4.000

(shape postamble)


(shape preamble)

G0 X173.869 Y21.419 Z4.000
G1 X173.869 Y21.419 Z0.000
G1 X167.570 Y20.159 Z0.000
G1 X171.349 Y17.639 Z0.000
G0 X171.349 Y17.639 Z4.000

(shape postamble)


(shape preamble)

G0 X173.869 Y15.119 Z4.000
G1 X173.869 Y15.119 Z0.000
G1 X168.829 Y15.119 Z0.000
G1 X171.349 Y12.599 Z0.000
G0 X171.349 Y12.599 Z4.000

(shape postamble)


(shape preamble)

G0 X173.869 Y8.819 Z4.000
G1 X173.869 Y8.819 Z0.000
G1 X167.570 Y10.079 Z0.000
G1 X170.089 Y6.300 Z0.000
G0 X170.089 Y6.300 Z4.000

(shape postamble)


(shape preamble)

G0 X171.349 Y2.520 Z4.000
G1 X171.349 Y2.520 Z0.000
G1 X166.310 Y5.040 Z0.000
G1 X167.570 Y1.260 Z0.000
G0 X167.570 Y1.260 Z4.000

(shape postamble)


(shape preamble)

G0 X168.200 Y-1.890 Z4.000
G1 X168.200 Y-1.890 Z0.000
G1 X164.420 Y0.630 Z0.000
G1 X165.050 Y-2.520 Z0.000
G0 X165.050 Y-2.520 Z4.000

(shape postamble)


(shape preamble)

G0 X165.050 Y-5.040 Z4.000
G1 X165.050 Y-5.040 Z0.000
G1 X162.530 Y-2.520 Z0.000
G1 X162.530 Y-5.040 Z0.000
G0 X162.530 Y-5.040 Z4.000

(shape postamble)


(shape preamble)

G0 X187.728 Y23.939 Z4.000
G1 X187.728 Y23.939 Z0.000
G1 X187.728 Y46.617 Z0.000
G1 X176.389 Y35.278 Z0.000
G0 X176.389 Y35.278 Z4.000

(shape postamble)


(shape preamble)

G0 X204.107 Y15.119 Z4.000
G1 X204.107 Y15.119 Z0.000
G1 X215.447 Y26.458 Z0.000
G1 X215.447 Y3.780 Z0.000
G0 X215.447 Y3.780 Z4.000

(shape postamble)


(shape preamble)

G0 X238.125 Y6.300 Z4.000
G1 X238.125 Y6.300 Z0.000
G1 X234.345 Y8.819 Z0.000
G1 X240.645 Y10.079 Z0.000
G0 X240.645 Y10.079 Z4.000

(shape postamble)


(shape preamble)

G0 X236.865 Y12.599 Z4.000
G1 X236.865 Y12.599 Z0.000
G1 X234.345 Y15.119 Z0.000
G1 X239.385 Y15.119 Z0.000
G0 X239.385 Y15.119 Z4.000

(shape postamble)


(shape preamble)

G0 X236.865 Y17.639 Z4.000
G1 X236.865 Y17.639 Z0.000
G1 X234.345 Y21.419 Z0.000
G1 X240.645 Y20.159 Z0.000
G0 X240.645 Y20.159 Z4.000

(shape postamble)


(shape preamble)

G0 X238.125 Y23.938 Z4.000
G1 X238.125 Y23.938 Z0.000
G1 X236.865 Y27.718 Z0.000
G1 X241.905 Y25.198 Z0.000
G0 X241.905 Y25.198 Z4.000

(shape postamble)


(shape preamble)

G0 X240.645 Y28.978 Z4.000
G1 X240.645 Y28.978 Z0.000
G1 X240.015 Y32.128 Z0.000
G1 X243.795 Y29.608 Z0.000
G0 X243.795 Y29.608 Z4.000

(shape postamble)


(shape preamble)

G0 X243.165 Y32.758 Z4.000
G1 X243.165 Y32.758 Z0.000
G1 X243.165 Y35.278 Z0.000
G1 X245.685 Y32.758 Z0.000
G0 X245.685 Y32.758 Z4.000

(shape postamble)


(shape preamble)

G0 X255.764 Y7.560 Z4.000
G1 X255.764 Y7.560 Z0.000
G1 X254.504 Y6.300 Z0.000
G1 X255.764 Y6.300 Z0.000
G0 X255.764 Y6.300 Z4.000

(shape postamble)


(shape preamble)

G0 X257.654 Y5.670 Z4.000
G1 X257.654 Y5.670 Z0.000
G1 X255.134 Y4.410 Z0.000
G1 X257.024 Y3.780 Z0.000
G0 X257.024 Y3.780 Z4.000

(shape postamble)


(shape preamble)

G0 X255.764 Y2.520 Z4.000
G1 X255.764 Y2.520 Z0.000
G1 X255.764 Y1.260 Z0.000
G1 X254.504 Y2.520 Z0.000
G0 X254.504 Y2.520 Z4.000

(shape postamble)


(shape preamble)

G0 X254.504 Y1.260 Z4.000
G1 X254.504 Y1.260 Z0.000
G1 X255.764 Y1.260 Z0.000
G1 X254.504 Y0.000 Z0.000
G0 X254.504 Y0.000 Z4.000

(shape postamble)


(shape preamble)

G0 X255.764 Y0.000 Z4.000
G1 X255.764 Y0.000 Z0.000
G1 X255.764 Y1.260 Z0.000
G1 X257.024 Y0.000 Z0.000
G0 X257.024 Y0.000 Z4.000

(shape postamble)


(shape preamble)

G0 X257.024 Y1.260 Z4.000
G1 X257.024 Y1.260 Z0.000
G1 X255.764 Y2.520 Z0.000
G1 X258.284 Y2.520 Z0.000
G0 X258.284 Y2.520 Z4.000

(shape postamble)


(shape preamble)

G0 X267.103 Y0.000 Z4.000
G1 X267.103 Y0.000 Z0.000
G1 X262.694 Y4.410 Z0.000
G1 X271.513 Y4.410 Z0.000
G0 X271.513 Y4.410 Z4.000

(shape postamble)


(shape preamble)

G0 X277.183 Y0.000 Z4.000
G1 X277.183 Y0.000 Z0.000
G1 X272.773 Y4.410 Z0.000
G1 X281.592 Y4.410 Z0.000
G0 X281.592 Y4.410 Z4.000

(shape postamble)


(shape preamble)

G0 X290.412 Y8.190 Z4.000
G1 X290.412 Y8.190 Z0.000
G1 X295.452 Y17.009 Z0.000
G1 X288.522 Y15.119 Z0.000
G0 X288.522 Y15.119 Z4.000

(shape postamble)


(shape preamble)

G0 X287.262 Y15.119 Z4.000
G1 X287.262 Y15.119 Z0.000
G1 X288.522 Y16.379 Z0.000
G1 X287.262 Y16.379 Z0.000
G0 X287.262 Y16.379 Z4.000

(shape postamble)


(shape preamble)

G0 X285.372 Y17.009 Z4.000
G1 X285.372 Y17.009 Z0.000
G1 X287.892 Y18.269 Z0.000
G1 X286.002 Y18.899 Z0.000
G0 X286.002 Y18.899 Z4.000

(shape postamble)


(shape preamble)

G0 X284.742 Y20.159 Z4.000
G1 X284.742 Y20.159 Z0.000
G1 X287.262 Y20.159 Z0.000
G1 X286.002 Y21.419 Z0.000
G0 X286.002 Y21.419 Z4.000

(shape postamble)


(shape preamble)

G0 X285.372 Y23.309 Z4.000
G1 X285.372 Y23.309 Z0.000
G1 X287.892 Y22.049 Z0.000
G1 X287.262 Y23.938 Z0.000
G0 X287.262 Y23.938 Z4.000

(shape postamble)


(shape preamble)

G0 X287.262 Y25.198 Z4.000
G1 X287.262 Y25.198 Z0.000
G1 X288.522 Y23.939 Z0.000
G1 X288.522 Y25.198 Z0.000
G0 X288.522 Y25.198 Z4.000

(shape postamble)


(shape preamble)

G0 X289.152 Y27.088 Z4.000
G1 X289.152 Y27.088 Z0.000
G1 X290.412 Y24.568 Z0.000
G1 X291.042 Y26.458 Z0.000
G0 X291.042 Y26.458 Z4.000

(shape postamble)


(shape preamble)

G0 X293.562 Y28.978 Z4.000
G1 X293.562 Y28.978 Z0.000
G1 X293.562 Y23.939 Z0.000
G1 X296.082 Y26.458 Z0.000
G0 X296.082 Y26.458 Z4.000

(shape postamble)


(shape preamble)

G0 X297.971 Y27.088 Z4.000
G1 X297.971 Y27.088 Z0.000
G1 X296.712 Y24.568 Z0.000
G1 X298.601 Y25.198 Z0.000
G0 X298.601 Y25.198 Z4.000

(shape postamble)


(shape preamble)

G0 X301.121 Y25.198 Z4.000
G1 X301.121 Y25.198 Z0.000
G1 X298.601 Y22.679 Z0.000
G1 X301.121 Y22.679 Z0.000
G0 X301.121 Y22.679 Z4.000

(shape postamble)


(shape preamble)

G0 X302.381 Y22.679 Z4.000
G1 X302.381 Y22.679 Z0.000
G1 X302.381 Y25.198 Z0.000
G1 X304.901 Y22.679 Z0.000
G0 X304.901 Y22.679 Z4.000

(shape postamble)


(shape preamble)

G0 X304.271 Y22.049 Z4.000
G1 X304.271 Y22.049 Z0.000
G1 X300.491 Y19.529 Z0.000
G1 X303.641 Y18.899 Z0.000
G0 X303.641 Y18.899 Z4.000

(shape postamble)


(shape preamble)

G0 X303.641 Y15.119 Z4.000
G1 X303.641 Y15.119 Z0.000
G1 X294.822 Y21.419 Z0.000
G1 X296.082 Y13.859 Z0.000
G0 X296.082 Y13.859 Z4.000

(shape postamble)


(shape preamble)

G0 X296.711 Y10.709 Z4.000
G1 X296.711 Y10.709 Z0.000
G1 X292.932 Y13.229 Z0.000
G1 X293.562 Y10.079 Z0.000
G0 X293.562 Y10.079 Z4.000

(shape postamble)


(shape preamble)

G0 X294.822 Y7.560 Z4.000
G1 X294.822 Y7.560 Z0.000
G1 X291.042 Y8.819 Z0.000
G1 X292.302 Y6.300 Z0.000
G0 X292.302 Y6.300 Z4.000

(shape postamble)


(shape preamble)

G0 X293.562 Y5.040 Z4.000
G1 X293.562 Y5.040 Z0.000
G1 X291.042 Y5.040 Z0.000
G1 X292.302 Y3.780 Z0.000
G0 X292.302 Y3.780 Z4.000

(shape postamble)


(shape preamble)

G0 X294.192 Y3.150 Z4.000
G1 X294.192 Y3.150 Z0.000
G1 X291.672 Y1.890 Z0.000
G1 X293.562 Y1.260 Z0.000
G0 X293.562 Y1.260 Z4.000

(shape postamble)


(shape preamble)

G0 X295.452 Y1.890 Z4.000
G1 X295.452 Y1.890 Z0.000
G1 X294.192 Y-0.630 Z0.000
G1 X296.082 Y0.000 Z0.000
G0 X296.082 Y0.000 Z4.000

(shape postamble)


(shape preamble)

G0 X296.711 Y1.890 Z4.000
G1 X296.711 Y1.890 Z0.000
G1 X297.971 Y-0.630 Z0.000
G1 X298.601 Y1.260 Z0.000
G0 X298.601 Y1.260 Z4.000

(shape postamble)


(shape preamble)

G0 X297.971 Y3.150 Z4.000
G1 X297.971 Y3.150 Z0.000
G1 X300.491 Y1.890 Z0.000
G1 X299.861 Y3.780 Z0.000
G0 X299.861 Y3.780 Z4.000

(shape postamble)


(shape preamble)

G0 X298.601 Y5.040 Z4.000
G1 X298.601 Y5.040 Z0.000
G1 X301.121 Y5.040 Z0.000
G1 X299.861 Y6.300 Z0.000
G0 X299.861 Y6.300 Z4.000

(shape postamble)


(shape preamble)

G0 X297.971 Y6.930 Z4.000
G1 X297.971 Y6.930 Z0.000
G1 X300.491 Y8.189 Z0.000
G1 X298.601 Y8.819 Z0.000
G0 X298.601 Y8.819 Z4.000

(shape postamble)


(shape preamble)

G0 X297.341 Y8.819 Z4.000
G1 X297.341 Y8.819 Z0.000
G1 X298.601 Y10.079 Z0.000
G1 X297.341 Y10.079 Z0.000
G0 X297.341 Y10.079 Z4.000

(shape postamble)


(shape preamble)

G0 X306.161 Y12.599 Z4.000
G1 X306.161 Y12.599 Z0.000
G1 X301.751 Y14.489 Z0.000
G1 X308.051 Y17.009 Z0.000
G0 X308.051 Y17.009 Z4.000

(shape postamble)


(shape preamble)

G0 X308.051 Y11.969 Z4.000
G1 X308.051 Y11.969 Z0.000
G1 X305.531 Y10.709 Z0.000
G1 X307.421 Y10.079 Z0.000
G0 X307.421 Y10.079 Z4.000

(shape postamble)


(shape preamble)

G0 X308.681 Y10.079 Z4.000
G1 X308.681 Y10.079 Z0.000
G1 X307.421 Y8.819 Z0.000
G1 X308.681 Y8.819 Z0.000
G0 X308.681 Y8.819 Z4.000

(shape postamble)


(shape preamble)

G0 X309.311 Y9.449 Z4.000
G1 X309.311 Y9.449 Z0.000
G1 X309.311 Y8.189 Z0.000
G1 X309.941 Y8.819 Z0.000
G0 X309.941 Y8.819 Z4.000

(shape postamble)


(shape preamble)

G0 X309.941 Y10.079 Z4.000
G1 X309.941 Y10.079 Z0.000
G1 X311.201 Y8.819 Z0.000
G1 X311.201 Y10.079 Z0.000
G0 X311.201 Y10.079 Z4.000

(shape postamble)


(shape preamble)

G0 X310.571 Y10.709 Z4.000
G1 X310.571 Y10.709 Z0.000
G1 X311.831 Y10.709 Z0.000
G1 X311.201 Y11.339 Z0.000
G0 X311.201 Y11.339 Z4.000

(shape postamble)


(shape preamble)

G0 X310.571 Y24.568 Z4.000
G1 X310.571 Y24.568 Z0.000
G1 X311.831 Y24.568 Z0.000
G1 X311.201 Y25.198 Z0.000
G0 X311.201 Y25.198 Z4.000

(shape postamble)


(shape preamble)

G0 X309.941 Y25.198 Z4.000
G1 X309.941 Y25.198 Z0.000
G1 X311.201 Y26.458 Z0.000
G1 X309.941 Y26.458 Z0.000
G0 X309.941 Y26.458 Z4.000

(shape postamble)


(shape preamble)

G0 X308.681 Y25.198 Z4.000
G1 X308.681 Y25.198 Z0.000
G1 X308.681 Y27.718 Z0.000
G1 X307.421 Y26.458 Z0.000
G0 X307.421 Y26.458 Z4.000

(shape postamble)


(shape preamble)

G0 X306.791 Y24.568 Z4.000
G1 X306.791 Y24.568 Z0.000
G1 X305.531 Y27.088 Z0.000
G1 X304.901 Y25.198 Z0.000
G0 X304.901 Y25.198 Z4.000

(shape postamble)


(shape preamble)

G0 X324.430 Y4.410 Z4.000
G1 X324.430 Y4.410 Z0.000
G1 X315.610 Y4.410 Z0.000
G1 X320.020 Y0.000 Z0.000
G0 X320.020 Y0.000 Z4.000

(shape postamble)


(shape preamble)

G0 X330.099 Y0.000 Z4.000
G1 X330.099 Y0.000 Z0.000
G1 X325.690 Y4.410 Z0.000
G1 X334.509 Y4.410 Z0.000
G0 X334.509 Y4.410 Z4.000

(shape postamble)


(shape preamble)

G0 X340.179 Y2.520 Z4.000
G1 X340.179 Y2.520 Z0.000
G1 X341.439 Y1.260 Z0.000
G1 X341.439 Y2.520 Z0.000
G0 X341.439 Y2.520 Z4.000

(shape postamble)


(shape preamble)

G0 X340.179 Y1.260 Z4.000
G1 X340.179 Y1.260 Z0.000
G1 X341.439 Y1.260 Z0.000
G1 X340.179 Y0.000 Z0.000
G0 X340.179 Y0.000 Z4.000

(shape postamble)


(shape preamble)

G0 X341.439 Y0.000 Z4.000
G1 X341.439 Y0.000 Z0.000
G1 X341.439 Y1.260 Z0.000
G1 X342.699 Y-0.000 Z0.000
G0 X342.699 Y-0.000 Z4.000

(shape postamble)


(shape preamble)

G0 X342.699 Y1.260 Z4.000
G1 X342.699 Y1.260 Z0.000
G1 X341.439 Y2.520 Z0.000
G1 X343.959 Y2.520 Z0.000
G0 X343.959 Y2.520 Z4.000

(shape postamble)


(shape preamble)

G0 X342.699 Y3.780 Z4.000
G1 X342.699 Y3.780 Z0.000
G1 X340.809 Y4.410 Z0.000
G1 X343.329 Y5.670 Z0.000
G0 X343.329 Y5.670 Z4.000

(shape postamble)


(shape preamble)

G0 X341.439 Y6.300 Z4.000
G1 X341.439 Y6.300 Z0.000
G1 X340.179 Y6.300 Z0.000
G1 X341.439 Y7.560 Z0.000
G0 X341.439 Y7.560 Z4.000

(shape postamble)


(shape preamble)

G0 X352.778 Y12.599 Z4.000
G1 X352.778 Y12.599 Z0.000
G1 X350.258 Y15.119 Z0.000
G1 X355.298 Y15.119 Z0.000
G0 X355.298 Y15.119 Z4.000

(shape postamble)


(shape preamble)

G0 X352.778 Y17.639 Z4.000
G1 X352.778 Y17.639 Z0.000
G1 X350.258 Y21.419 Z0.000
G1 X356.558 Y20.159 Z0.000
G0 X356.558 Y20.159 Z4.000

(shape postamble)


(shape preamble)

G0 X354.038 Y23.938 Z4.000
G1 X354.038 Y23.938 Z0.000
G1 X352.778 Y27.718 Z0.000
G1 X357.818 Y25.198 Z0.000
G0 X357.818 Y25.198 Z4.000

(shape postamble)


(shape preamble)

G0 X356.558 Y28.978 Z4.000
G1 X356.558 Y28.978 Z0.000
G1 X355.928 Y32.128 Z0.000
G1 X359.708 Y29.608 Z0.000
G0 X359.708 Y29.608 Z4.000

(shape postamble)


(shape preamble)

G0 X359.078 Y32.758 Z4.000
G1 X359.078 Y32.758 Z0.000
G1 X359.078 Y35.278 Z0.000
G1 X361.597 Y32.758 Z0.000
G0 X361.597 Y32.758 Z4.000

(shape postamble)


(shape preamble)

G0 X370.417 Y15.119 Z4.000
G1 X370.417 Y15.119 Z0.000
G1 X381.756 Y26.458 Z0.000
G1 X381.756 Y3.780 Z0.000
G0 X381.756 Y3.780 Z4.000

(shape postamble)


(shape preamble)

G0 X361.597 Y-2.520 Z4.000
G1 X361.597 Y-2.520 Z0.000
G1 X359.078 Y-5.040 Z0.000
G1 X361.597 Y-5.040 Z0.000
G0 X361.597 Y-5.040 Z4.000

(shape postamble)


(shape preamble)

G0 X359.078 Y-2.520 Z4.000
G1 X359.078 Y-2.520 Z0.000
G1 X355.928 Y-1.890 Z0.000
G1 X359.708 Y0.630 Z0.000
G0 X359.708 Y0.630 Z4.000

(shape postamble)


(shape preamble)

G0 X356.558 Y1.260 Z4.000
G1 X356.558 Y1.260 Z0.000
G1 X352.778 Y2.520 Z0.000
G1 X357.818 Y5.040 Z0.000
G0 X357.818 Y5.040 Z4.000

(shape postamble)


(shape preamble)

G0 X354.038 Y6.300 Z4.000
G1 X354.038 Y6.300 Z0.000
G1 X350.258 Y8.819 Z0.000
G1 X356.558 Y10.079 Z0.000
G0 X356.558 Y10.079 Z4.000

(shape postamble)


(shape preamble)

G0 X245.685 Y-2.520 Z4.000
G1 X245.685 Y-2.520 Z0.000
G1 X243.165 Y-5.040 Z0.000
G1 X245.685 Y-5.040 Z0.000
G0 X245.685 Y-5.040 Z4.000

(shape postamble)


(shape preamble)

G0 X243.165 Y-2.520 Z4.000
G1 X243.165 Y-2.520 Z0.000
G1 X240.015 Y-1.890 Z0.000
G1 X243.795 Y0.630 Z0.000
G0 X243.795 Y0.630 Z4.000

(shape postamble)


(shape preamble)

G0 X240.645 Y1.260 Z4.000
G1 X240.645 Y1.260 Z0.000
G1 X236.865 Y2.520 Z0.000
G1 X241.905 Y5.040 Z0.000
G0 X241.905 Y5.040 Z4.000

(shape postamble)


(shape preamble)

G0 X26.458 Y21.419 Z4.000
G1 X26.458 Y21.419 Z0.000
G1 X26.458 Y20.159 Z0.000
G1 X25.198 Y21.419 Z0.000
G0 X25.198 Y21.419 Z4.000

(shape postamble)


(shape preamble)

G0 X25.198 Y21.419 Z4.000
G1 X25.198 Y21.419 Z0.000
G1 X26.458 Y22.679 Z0.000
G1 X25.198 Y22.679 Z0.000
G0 X25.198 Y22.679 Z4.000

(shape postamble)


(shape preamble)

G0 X25.198 Y21.419 Z4.000
G1 X25.198 Y21.419 Z0.000
G1 X23.939 Y20.159 Z0.000
G1 X25.198 Y20.159 Z0.000
G0 X25.198 Y20.159 Z4.000

(shape postamble)


(shape preamble)

G0 X25.198 Y21.419 Z4.000
G1 X25.198 Y21.419 Z0.000
G1 X23.939 Y22.679 Z0.000
G1 X23.938 Y21.419 Z0.000
G0 X23.938 Y21.419 Z4.000

(shape postamble)

 
(postamble)

(home)
G0 4
G0 X0 Y0
