; generated by PrusaSlicer 2.9.0 on 2025-03-12 at 10:45:14 UTC

; 

; external perimeters extrusion width = 0.45mm
; perimeters extrusion width = 0.45mm
; infill extrusion width = 0.45mm
; solid infill extrusion width = 0.45mm
; top infill extrusion width = 0.40mm
; first layer extrusion width = 0.42mm

M190 S60 ; set bed temperature and wait for it to be reached
M104 S215 ; set temperature
;TYPE:Custom
G28 ; home all axes
G1 Z5 F5000 ; lift nozzle
M109 S215 ; set temperature and wait for it to be reached
G21 ; set units to millimeters
G90 ; use absolute coordinates
M82 ; use absolute distances for extrusion
G92 E0
; Filament gcode
M107
;LAYER_CHANGE
;Z:0.35
;HEIGHT:0.35
G1 E-2 F2400
G1 Z.35 F7800
G1 X-26.636 Y.011
G1 E.00001 F2400
;TYPE:Skirt/Brim
;WIDTH:0.42
G1 F1800
G1 X-26.62 Y40 E2.00688
G1 X-27.017 Y42.177 E2.11794
G1 X-28.157 Y44.075 E2.22905
G1 X-29.892 Y45.448 E2.34009
G1 X-32.793 Y46.172 E2.49014
G1 X-38.812 Y46.172 E2.79221
G1 X-40.989 Y45.776 E2.90326
G1 X-42.887 Y44.636 E3.01437
G1 X-44.26 Y42.901 E3.12541
G1 X-44.984 Y40 E3.27546
G1 X-44.984 Y-35.02 E7.04041
G1 X-44.904 Y-36.012 E7.09036
G1 X-44.637 Y-37.209 E7.15191
G1 X-44.017 Y-38.65 E7.23064
G1 X-43.475 Y-39.521 E7.28212
G1 X-42.3 Y-40.766 E7.36803
G1 X-41.681 Y-41.229 E7.40682
G1 X-39.395 Y-42.264 E7.53276
G1 X-37.786 Y-42.495 E7.61434
G1 X-33.942 Y-42.5 E7.80725
G1 X-32.287 Y-42.287 E7.89099
G1 X-30.313 Y-41.485 E7.99792
G1 X-29.354 Y-40.795 E8.05721
G1 X-28.416 Y-39.884 E8.12283
G1 X-27.6 Y-38.687 E8.19553
G1 X-26.918 Y-37.035 E8.28522
G1 X-26.651 Y-35.619 E8.35754
G1 X-26.636 Y-.049 E10.14265
G1 E8.14265 F2400
G92 E0
G1 X-26.636 Y-.049 F7800
G92 E0
G1 X-37.192 Y-21.616
G1 E2 F2400
;TYPE:Perimeter
;WIDTH:0.42
G1 F1800
G1 X-37.35 Y-21.873 E2.01514
G1 X-37.357 Y-33.058 E2.57647
G1 X-37.206 Y-33.423 E2.59629
G1 X-36.929 Y-33.567 E2.61196
G1 X-34.669 Y-33.566 E2.72538
G1 X-34.399 Y-33.423 E2.74071
G1 X-34.248 Y-33.058 E2.76053
G1 X-34.255 Y-21.873 E3.32186
G1 X-34.454 Y-21.549 E3.34094
G1 X-34.765 Y-21.445 E3.3574
G1 X-35.803 Y-21.445 E3.40949
G1 X-36.84 Y-21.445 E3.46153
G1 X-37.15 Y-21.549 E3.47794
G1 X-37.16 Y-21.565 E3.47889
G1 X-37.16 Y-21.565 F7800
G1 X-36.956 Y-21.851
;TYPE:External perimeter
G1 F1800
G1 X-37.012 Y-21.962 E3.48513
G1 X-37.012 Y-33.058 E4.04199
G1 X-36.962 Y-33.179 E4.04856
G1 X-36.84 Y-33.23 E4.0552
G1 X-34.765 Y-33.23 E4.15934
G1 X-34.643 Y-33.18 E4.16596
G1 X-34.592 Y-33.058 E4.1726
G1 X-34.592 Y-21.962 E4.72946
G1 X-34.661 Y-21.824 E4.7372
G1 X-34.765 Y-21.79 E4.74269
G1 X-35.803 Y-21.79 E4.79478
G1 X-36.84 Y-21.79 E4.84682
G1 X-36.914 Y-21.815 E4.85074
G1 X-37.005 Y-22.204 F7800
G1 E2.85074 F2400
G92 E0
G1 X-37.807 Y-33.058 F7800
G1 E2 F2400
;TYPE:Perimeter
;WIDTH:0.630003
G1 F1800
G1 X-37.828 Y-33.218 E2.01303
;WIDTH:0.588002
G1 X-37.849 Y-33.378 E2.02507
;WIDTH:0.546001
G1 X-37.87 Y-33.538 E2.03613
;WIDTH:0.504001
G1 X-37.891 Y-33.698 E2.0462
;WIDTH:0.462
G1 X-37.912 Y-33.859 E2.05534
;WIDTH:0.42
G1 X-37.912 Y-34.66 E2.09554
G1 X-37.879 Y-35.073 E2.11633
G1 X-37.754 Y-35.335 E2.1309
G1 X-37.567 Y-35.428 E2.14138
G1 X-34.062 Y-35.427 E2.31728
G1 X-33.902 Y-35.366 E2.32587
G1 X-33.741 Y-35.139 E2.33984
G1 X-33.694 Y-34.861 E2.35399
G1 X-33.694 Y-33.859 E2.40428
;WIDTH:0.461762
G1 X-33.715 Y-33.698 E2.41342
;WIDTH:0.503525
G1 X-33.736 Y-33.538 E2.42348
;WIDTH:0.545287
G1 X-33.756 Y-33.378 E2.43451
;WIDTH:0.58705
G1 X-33.777 Y-33.218 E2.44653
;WIDTH:0.628813
G1 X-33.798 Y-33.058 E2.45953
G1 X-33.87 Y-33.18 E2.47094
;WIDTH:0.58705
G1 X-33.941 Y-33.301 E2.48139
;WIDTH:0.545287
G1 X-34.012 Y-33.423 E2.49105
;WIDTH:0.503525
G1 X-34.084 Y-33.545 E2.49988
;WIDTH:0.461762
G1 X-34.155 Y-33.667 E2.50782
;WIDTH:0.42
G1 X-34.605 Y-33.905 E2.53337
G1 X-34.765 Y-33.92 E2.54143
G1 X-36.84 Y-33.92 E2.64557
G1 X-37.001 Y-33.905 E2.65368
G1 X-37.45 Y-33.667 E2.67918
;WIDTH:0.462
G1 X-37.521 Y-33.545 E2.68713
;WIDTH:0.504001
G1 X-37.593 Y-33.423 E2.69597
;WIDTH:0.546001
G1 X-37.664 Y-33.301 E2.70564
;WIDTH:0.588002
G1 X-37.736 Y-33.179 E2.71621
;WIDTH:0.630003
G1 X-37.777 Y-33.109 E2.72276
G1 E.72276 F2400
G92 E0
G1 X-37.777 Y-33.109 F7800
G1 X-33.693 Y39.1
G1 E2 F2400
;WIDTH:0.42
G1 F1800
G1 X-37.912 Y39.1 E2.21173
G1 X-37.912 Y-20.995 E5.22765
;WIDTH:0.464932
G1 X-37.89 Y-21.155 E5.23681
;WIDTH:0.509864
G1 X-37.867 Y-21.315 E5.24704
;WIDTH:0.554796
G1 X-37.845 Y-21.475 E5.25831
;WIDTH:0.599728
G1 X-37.822 Y-21.634 E5.27057
;WIDTH:0.644661
G1 X-37.8 Y-21.794 E5.28396
G1 X-37.711 Y-21.69 E5.2953
;WIDTH:0.599728
G1 X-37.623 Y-21.586 E5.3057
;WIDTH:0.554796
G1 X-37.534 Y-21.481 E5.31531
;WIDTH:0.509864
G1 X-37.446 Y-21.377 E5.32393
;WIDTH:0.464932
G1 X-37.357 Y-21.273 E5.33169
;WIDTH:0.42
G1 X-36.84 Y-21.1 E5.35905
G1 X-34.765 Y-21.1 E5.46319
G1 X-34.248 Y-21.273 E5.49055
;WIDTH:0.464727
G1 X-34.159 Y-21.377 E5.49831
;WIDTH:0.509455
G1 X-34.071 Y-21.481 E5.50692
;WIDTH:0.554183
G1 X-33.982 Y-21.586 E5.51652
;WIDTH:0.598911
G1 X-33.894 Y-21.69 E5.5269
;WIDTH:0.643639
G1 X-33.805 Y-21.794 E5.53822
G1 X-33.783 Y-21.634 E5.55158
;WIDTH:0.598911
G1 X-33.761 Y-21.475 E5.56381
;WIDTH:0.554183
G1 X-33.738 Y-21.315 E5.57508
;WIDTH:0.509455
G1 X-33.716 Y-21.155 E5.58529
;WIDTH:0.464727
G1 X-33.694 Y-20.996 E5.59439
;WIDTH:0.42
G1 X-33.693 Y39.04 E8.60735
G1 E6.60735 F2400
G92 E0
G1 X-33.693 Y39.04 F7800
G1 X-33.798 Y-33.058
G1 E2 F2400
;WIDTH:0.628993
G1 F1800
G1 X-33.798 Y-21.962 E2.89431
;WIDTH:0.643639
G1 X-33.805 Y-21.794 E2.90822
G1 E.90822 F2400
G92 E0
G1 X-33.805 Y-21.794 F7800
G1 X-37.8 Y-21.794
G1 E2 F2400
;WIDTH:0.644661
G1 F1800
G1 X-37.807 Y-21.962 E2.01394
;WIDTH:0.630003
G1 X-37.807 Y-33.058 E2.90988
G1 E.90988 F2400
G92 E0
G1 X-37.807 Y-33.058 F7800
G1 X-33.348 Y39.445
G1 E2 F2400
;WIDTH:0.42
G1 F1800
G1 X-38.257 Y39.445 E2.24636
G1 X-38.257 Y-34.86 E5.97542
G1 X-38.19 Y-35.263 E5.99592
G1 X-38.017 Y-35.571 E6.01365
G1 X-37.789 Y-35.734 E6.02772
G1 X-37.602 Y-35.773 E6.03731
G1 X-34.26 Y-35.772 E6.20503
G1 X-33.82 Y-35.734 E6.22719
G1 X-33.586 Y-35.561 E6.24179
G1 X-33.416 Y-35.265 E6.25892
G1 X-33.349 Y-34.861 E6.27947
G1 X-33.348 Y39.385 E10.00557
G1 X-33.348 Y39.385 F7800
G1 X-33.003 Y39.79
;TYPE:External perimeter
G1 F1800
G1 X-38.602 Y39.79 E10.28656
G1 X-38.602 Y-34.86 E14.03293
G1 X-38.516 Y-35.387 E14.05973
G1 X-38.28 Y-35.807 E14.08391
G1 X-37.931 Y-36.057 E14.10545
G1 X-37.638 Y-36.118 E14.12047
G1 X-34.169 Y-36.117 E14.29456
G1 X-33.676 Y-36.057 E14.31948
G1 X-33.323 Y-35.796 E14.34151
G1 X-33.09 Y-35.391 E14.36496
G1 X-33.004 Y-34.861 E14.39191
G1 X-33.003 Y39.73 E18.13532
G1 X-33.398 Y39.789 F7800
G1 E16.13532 F2400
G92 E0
G1 X-34.302 Y-21.155 F7800
G1 E2 F2400
;TYPE:Solid infill
;WIDTH:0.420227
G1 F1800
G1 X-33.952 Y-20.805 E2.02486
G1 X-33.952 Y-20.317 E2.04937
G1 X-34.545 Y-20.91 E2.09149
G1 X-34.751 Y-20.842 E2.10238
G1 X-34.965 Y-20.842 E2.11313
G1 X-33.952 Y-19.829 E2.18507
G1 X-33.952 Y-19.341 E2.20958
G1 X-35.453 Y-20.842 E2.31618
G1 X-35.941 Y-20.842 E2.34069
G1 X-33.952 Y-18.853 E2.48195
G1 X-33.952 Y-18.365 E2.50646
G1 X-36.429 Y-20.842 E2.68238
G1 X-36.854 Y-20.842 E2.70372
G1 X-36.949 Y-20.873 E2.70874
G1 X-33.952 Y-17.877 E2.92155
G1 X-33.952 Y-17.389 E2.94606
G1 X-37.654 Y-21.09 E3.20894
G1 X-37.654 Y-20.602 E3.23345
G1 X-33.952 Y-16.9 E3.49637
G1 X-33.952 Y-16.412 E3.52088
G1 X-37.654 Y-20.114 E3.7838
G1 X-37.654 Y-19.626 E3.80831
G1 X-33.952 Y-15.924 E4.07123
G1 X-33.952 Y-15.436 E4.09574
G1 X-37.654 Y-19.138 E4.35866
G1 X-37.654 Y-18.65 E4.38317
G1 X-33.952 Y-14.948 E4.64609
G1 X-33.952 Y-14.46 E4.6706
G1 X-37.654 Y-18.161 E4.93348
G1 X-37.654 Y-17.673 E4.95799
G1 X-33.952 Y-13.972 E5.22087
G1 X-33.952 Y-13.484 E5.24538
G1 X-37.654 Y-17.185 E5.50826
G1 X-37.654 Y-16.697 E5.53277
G1 X-33.952 Y-12.996 E5.79565
G1 X-33.952 Y-12.508 E5.82016
G1 X-37.654 Y-16.209 E6.08304
G1 X-37.654 Y-15.721 E6.10755
G1 X-33.952 Y-12.02 E6.37043
G1 X-33.952 Y-11.532 E6.39494
G1 X-37.654 Y-15.233 E6.65782
G1 X-37.654 Y-14.745 E6.68233
G1 X-33.952 Y-11.044 E6.94521
G1 X-33.952 Y-10.555 E6.96977
G1 X-37.654 Y-14.257 E7.23269
G1 X-37.654 Y-13.769 E7.2572
G1 X-33.952 Y-10.067 E7.52012
G1 X-33.952 Y-9.579 E7.54463
G1 X-37.654 Y-13.281 E7.80755
G1 X-37.654 Y-12.793 E7.83206
G1 X-33.952 Y-9.091 E8.09498
G1 X-33.952 Y-8.603 E8.11949
G1 X-37.654 Y-12.305 E8.38241
G1 X-37.654 Y-11.817 E8.40692
G1 X-33.952 Y-8.115 E8.66984
G1 X-33.952 Y-7.627 E8.69435
G1 X-37.654 Y-11.328 E8.95723
G1 X-37.654 Y-10.84 E8.98174
G1 X-33.952 Y-7.139 E9.24462
G1 X-33.952 Y-6.651 E9.26913
G1 X-37.654 Y-10.352 E9.53201
G1 X-37.654 Y-9.864 E9.55652
G1 X-33.952 Y-6.163 E9.8194
G1 X-33.952 Y-5.675 E9.84391
G1 X-37.654 Y-9.376 E10.10679
G1 X-37.654 Y-8.888 E10.1313
G1 X-33.952 Y-5.187 E10.39418
G1 X-33.952 Y-4.699 E10.41869
G1 X-37.654 Y-8.4 E10.68157
G1 X-37.654 Y-7.912 E10.70608
G1 X-33.952 Y-4.21 E10.969
G1 X-33.952 Y-3.722 E10.99351
G1 X-37.654 Y-7.424 E11.25643
G1 X-37.654 Y-6.936 E11.28094
G1 X-33.952 Y-3.234 E11.54386
G1 X-33.952 Y-2.746 E11.56837
G1 X-37.654 Y-6.448 E11.83129
G1 X-37.654 Y-5.96 E11.8558
G1 X-33.952 Y-2.258 E12.11872
G1 X-33.952 Y-1.77 E12.14323
G1 X-37.654 Y-5.472 E12.40615
G1 X-37.654 Y-4.984 E12.43066
G1 X-33.952 Y-1.282 E12.69358
G1 X-33.952 Y-.794 E12.71809
G1 X-37.654 Y-4.496 E12.98101
G1 X-37.654 Y-4.007 E13.00557
G1 X-33.952 Y-.306 E13.26845
G1 X-33.952 Y.182 E13.29296
G1 X-37.654 Y-3.519 E13.55584
G1 X-37.654 Y-3.031 E13.58035
G1 X-33.952 Y.67 E13.84323
G1 X-33.952 Y1.158 E13.86774
G1 X-37.654 Y-2.543 E14.13062
G1 X-37.654 Y-2.055 E14.15513
G1 X-33.952 Y1.646 E14.41801
G1 X-33.952 Y2.134 E14.44252
G1 X-37.654 Y-1.567 E14.7054
G1 X-37.654 Y-1.079 E14.72991
G1 X-33.952 Y2.623 E14.99283
G1 X-33.952 Y3.111 E15.01734
G1 X-37.654 Y-.591 E15.28026
G1 X-37.654 Y-.103 E15.30477
G1 X-33.952 Y3.599 E15.56769
G1 X-33.952 Y4.087 E15.5922
G1 X-37.654 Y.385 E15.85512
G1 X-37.654 Y.873 E15.87963
G1 X-33.952 Y4.575 E16.14255
G1 X-33.952 Y5.063 E16.16706
G1 X-37.654 Y1.361 E16.42998
G1 X-37.654 Y1.849 E16.45449
G1 X-33.952 Y5.551 E16.71741
G1 X-33.952 Y6.039 E16.74192
G1 X-37.654 Y2.337 E17.00484
G1 X-37.654 Y2.825 E17.02935
G1 X-33.952 Y6.527 E17.29227
G1 X-33.952 Y7.015 E17.31678
G1 X-37.654 Y3.314 E17.57966
G1 X-37.654 Y3.802 E17.60417
G1 X-33.952 Y7.503 E17.86705
G1 X-33.952 Y7.991 E17.89156
G1 X-37.654 Y4.29 E18.15444
G1 X-37.654 Y4.778 E18.17895
G1 X-33.952 Y8.479 E18.44183
G1 X-33.952 Y8.968 E18.46639
G1 X-37.654 Y5.266 E18.72931
G1 X-37.654 Y5.754 E18.75382
G1 X-33.952 Y9.456 E19.01674
G1 X-33.952 Y9.944 E19.04125
G1 X-37.654 Y6.242 E19.30417
G1 X-37.654 Y6.73 E19.32868
G1 X-33.952 Y10.432 E19.5916
G1 X-33.952 Y10.92 E19.61611
G1 X-37.654 Y7.218 E19.87903
G1 X-37.654 Y7.706 E19.90354
G1 X-33.952 Y11.408 E20.16646
G1 X-33.952 Y11.896 E20.19097
G1 X-37.654 Y8.194 E20.45389
G1 X-37.654 Y8.682 E20.4784
G1 X-33.952 Y12.384 E20.74132
G1 X-33.952 Y12.872 E20.76583
G1 X-37.654 Y9.17 E21.02875
G1 X-37.654 Y9.658 E21.05326
G1 X-33.952 Y13.36 E21.31618
G1 X-33.952 Y13.848 E21.34069
G1 X-37.654 Y10.146 E21.60361
G1 X-37.654 Y10.635 E21.62817
G1 X-33.952 Y14.336 E21.89105
G1 X-33.952 Y14.824 E21.91556
G1 X-37.654 Y11.123 E22.17844
G1 X-37.654 Y11.611 E22.20295
G1 X-33.952 Y15.313 E22.46587
G1 X-33.952 Y15.801 E22.49038
G1 X-37.654 Y12.099 E22.7533
G1 X-37.654 Y12.587 E22.77781
G1 X-33.952 Y16.289 E23.04073
G1 X-33.952 Y16.777 E23.06524
G1 X-37.654 Y13.075 E23.32816
G1 X-37.654 Y13.563 E23.35267
G1 X-33.952 Y17.265 E23.61559
G1 X-33.952 Y17.753 E23.6401
G1 X-37.654 Y14.051 E23.90302
G1 X-37.654 Y14.539 E23.92753
G1 X-33.952 Y18.241 E24.19045
G1 X-33.952 Y18.729 E24.21496
G1 X-37.654 Y15.027 E24.47788
G1 X-37.654 Y15.515 E24.50239
G1 X-33.952 Y19.217 E24.76531
G1 X-33.952 Y19.705 E24.78982
G1 X-37.654 Y16.003 E25.05274
G1 X-37.654 Y16.491 E25.07725
G1 X-33.952 Y20.193 E25.34017
G1 X-33.952 Y20.681 E25.36468
G1 X-37.654 Y16.979 E25.6276
G1 X-37.654 Y17.467 E25.65211
G1 X-33.952 Y21.169 E25.91503
G1 X-33.952 Y21.658 E25.93959
G1 X-37.654 Y17.956 E26.20251
G1 X-37.654 Y18.444 E26.22702
G1 X-33.952 Y22.146 E26.48994
G1 X-33.952 Y22.634 E26.51445
G1 X-37.654 Y18.932 E26.77737
G1 X-37.654 Y19.42 E26.80188
G1 X-33.952 Y23.122 E27.0648
G1 X-33.952 Y23.61 E27.08931
G1 X-37.654 Y19.908 E27.35223
G1 X-37.654 Y20.396 E27.37674
G1 X-33.952 Y24.098 E27.63966
G1 X-33.952 Y24.586 E27.66417
G1 X-37.654 Y20.884 E27.92709
G1 X-37.654 Y21.372 E27.9516
G1 X-33.952 Y25.074 E28.21452
G1 X-33.952 Y25.562 E28.23903
G1 X-37.654 Y21.86 E28.50195
G1 X-37.654 Y22.348 E28.52646
G1 X-33.952 Y26.05 E28.78938
G1 X-33.951 Y26.538 E28.81389
G1 X-37.654 Y22.836 E29.07684
G1 X-37.654 Y23.324 E29.10135
G1 X-33.951 Y27.026 E29.3643
G1 X-33.951 Y27.514 E29.38881
G1 X-37.654 Y23.812 E29.65176
G1 X-37.654 Y24.3 E29.67627
G1 X-33.951 Y28.002 E29.93922
G1 X-33.951 Y28.491 E29.96378
G1 X-37.654 Y24.789 E30.22673
G1 X-37.654 Y25.277 E30.25124
G1 X-33.951 Y28.979 E30.51419
G1 X-33.951 Y29.467 E30.5387
G1 X-37.654 Y25.765 E30.80165
G1 X-37.654 Y26.253 E30.82616
G1 X-33.951 Y29.955 E31.08911
G1 X-33.951 Y30.443 E31.11362
G1 X-37.654 Y26.741 E31.37657
G1 X-37.654 Y27.229 E31.40108
G1 X-33.951 Y30.931 E31.66403
G1 X-33.951 Y31.419 E31.68854
G1 X-37.654 Y27.717 E31.95149
G1 X-37.654 Y28.205 E31.976
G1 X-33.951 Y31.907 E32.23895
G1 X-33.951 Y32.395 E32.26346
G1 X-37.654 Y28.693 E32.52641
G1 X-37.654 Y29.181 E32.55092
G1 X-33.951 Y32.883 E32.81387
G1 X-33.951 Y33.371 E32.83838
G1 X-37.654 Y29.669 E33.10133
G1 X-37.654 Y30.157 E33.12584
G1 X-33.951 Y33.859 E33.38879
G1 X-33.951 Y34.347 E33.4133
G1 X-37.654 Y30.645 E33.67625
G1 X-37.654 Y31.133 E33.70076
G1 X-33.951 Y34.836 E33.96375
G1 X-33.951 Y35.324 E33.98826
G1 X-37.654 Y31.621 E34.25125
G1 X-37.654 Y32.11 E34.27581
G1 X-33.951 Y35.812 E34.53876
G1 X-33.951 Y36.3 E34.56327
G1 X-37.654 Y32.598 E34.82622
G1 X-37.654 Y33.086 E34.85073
G1 X-33.951 Y36.788 E35.11368
G1 X-33.951 Y37.276 E35.13819
G1 X-37.654 Y33.574 E35.40114
G1 X-37.654 Y34.062 E35.42565
G1 X-33.951 Y37.764 E35.6886
G1 X-33.951 Y38.252 E35.71311
G1 X-37.654 Y34.55 E35.97606
G1 X-37.654 Y35.038 E36.00057
G1 X-33.951 Y38.74 E36.26352
G1 X-33.951 Y38.842 E36.26864
G1 X-34.338 Y38.842 E36.28807
G1 X-37.654 Y35.526 E36.52357
G1 X-37.654 Y36.014 E36.54808
G1 X-34.826 Y38.842 E36.74893
G1 X-35.314 Y38.842 E36.77344
G1 X-37.654 Y36.502 E36.93963
G1 X-37.654 Y36.99 E36.96414
G1 X-35.802 Y38.842 E37.09567
G1 X-36.29 Y38.842 E37.12018
G1 X-37.654 Y37.478 E37.21705
G1 X-37.654 Y37.966 E37.24156
G1 X-36.778 Y38.842 E37.30377
G1 X-37.266 Y38.842 E37.32828
G1 X-37.809 Y38.299 E37.36684
G1 E35.36684 F2400
G92 E0
G1 X-37.809 Y38.299 F7800
G1 X-33.797 Y-34.895
G1 E2 F2400
;WIDTH:0.436516
G1 F1800
G1 X-34.067 Y-35.165 E2.02008
G1 X-34.579 Y-35.165 E2.04701
G1 X-33.952 Y-34.539 E2.0936
G1 X-33.952 Y-34.028 E2.12047
G1 X-35.091 Y-35.166 E2.20514
G1 X-35.603 Y-35.167 E2.23207
G1 X-34.599 Y-34.163 E2.30674
G1 X-35.125 Y-34.178 E2.33441
G1 X-36.114 Y-35.167 E2.40796
G1 X-36.626 Y-35.168 E2.43489
G1 X-35.636 Y-34.178 E2.50852
G1 X-36.148 Y-34.178 E2.53545
G1 X-37.138 Y-35.169 E2.60912
G1 X-37.521 Y-35.169 E2.62926
G1 X-37.561 Y-35.151 E2.63157
G1 X-37.586 Y-35.106 E2.63428
G1 X-36.659 Y-34.178 E2.70326
G1 X-37.058 Y-34.158 E2.72427
G1 X-37.118 Y-34.127 E2.72782
G1 X-37.654 Y-34.662 E2.76765
G1 X-37.654 Y-34.151 E2.79452
G1 X-37.337 Y-33.835 E2.81806
M106 S127.5
;LAYER_CHANGE
;Z:0.65
;HEIGHT:0.3
G1 Z.65 F7800
M104 S210 ; set temperature
G1 E.81806 F2400
G92 E0
G1 X-37.337 Y-33.835 F7800
G1 X-37.497 Y-21.304
G1 E2 F2400
;TYPE:Perimeter
;WIDTH:0.45
G1 F900
G1 X-37.606 Y-21.389 E2.00665
;WIDTH:0.498765
G1 X-37.689 Y-21.522 E2.01514
;WIDTH:0.54753
G1 X-37.773 Y-21.656 E2.02467
;WIDTH:0.596295
G1 X-37.856 Y-21.789 E2.03507
G1 X-37.867 Y-21.968 E2.04697
;WIDTH:0.586495
G1 X-37.867 Y-33.052 E2.76877
;WIDTH:0.585887
G1 X-37.768 Y-33.26 E2.78375
;WIDTH:0.540591
G1 X-37.669 Y-33.468 E2.79743
;WIDTH:0.495295
G1 X-37.57 Y-33.676 E2.80981
;WIDTH:0.45
G1 X-37.124 Y-33.972 E2.83556
G1 X-36.835 Y-34.016 E2.84962
G1 X-34.77 Y-34.016 E2.94894
G1 X-34.473 Y-33.969 E2.9634
G1 X-34.031 Y-33.671 E2.98904
;WIDTH:0.496685
G1 X-33.933 Y-33.465 E3.00134
;WIDTH:0.543371
G1 X-33.835 Y-33.259 E3.01497
;WIDTH:0.590057
