; generated by PrusaSlicer 2.9.0 on 2025-03-10 at 16:28:57 UTC

; 

; external perimeters extrusion width = 0.45mm
; perimeters extrusion width = 0.45mm
; infill extrusion width = 0.45mm
; solid infill extrusion width = 0.45mm
; top infill extrusion width = 0.40mm
; support material extrusion width = 0.35mm
; first layer extrusion width = 0.42mm

M190 S60 ; set bed temperature and wait for it to be reached
M104 S215 ; set temperature
;TYPE:Custom
G28 ; home all axes
G1 Z5 F5000 ; lift nozzle
M109 S215 ; set temperature and wait for it to be reached
G21 ; set units to millimeters
G90 ; use absolute coordinates
M82 ; use absolute distances for extrusion
G92 E0
; Filament gcode
M107
;LAYER_CHANGE
;Z:0.35
;HEIGHT:0.35
G1 E-2 F2400
G1 Z.35 F7800
G1 X.487 Y24.042
G1 E.00001 F2400
;TYPE:Skirt/Brim
;WIDTH:0.42
G1 F1800
G1 X14.18 Y23.764 E.68734
G1 X20.064 Y23.835 E.98266
G1 X34.356 Y24.022 E1.69998
G1 X36.683 Y24.243 E1.81729
G1 X41.197 Y25.126 E2.04812
G1 X43.003 Y25.669 E2.14276
G1 X44.278 Y26.256 E2.2132
G1 X45.264 Y26.854 E2.27107
G1 X46.374 Y27.713 E2.34151
G1 X47.188 Y28.507 E2.39858
G1 X48.034 Y29.533 E2.46532
G1 X48.742 Y30.636 E2.5311
G1 X49.331 Y31.851 E2.59886
G1 X49.713 Y32.926 E2.65611
G1 X50.03 Y34.293 E2.72653
G1 X50.195 Y36.415 E2.83335
G1 X49.974 Y41.008 E3.06412
G1 X49.843 Y42.154 E3.12201
G1 X49.526 Y43.522 E3.19248
G1 X49.01 Y44.941 E3.26826
G1 X47.564 Y48.365 E3.45479
G1 X46.453 Y50.264 E3.5652
G1 X45.566 Y51.352 E3.63565
G1 X44.741 Y52.157 E3.6935
G1 X43.631 Y53.017 E3.76397
G1 X42.668 Y53.601 E3.82049
G1 X41.506 Y54.15 E3.88499
G1 X40.081 Y54.614 E3.9602
G1 X38.862 Y54.849 E4.0225
G1 X37.75 Y54.948 E4.07853
G1 X-14.129 Y55.199 E6.68216
G1 X-15.628 Y54.973 E6.75824
G1 X-17.033 Y54.569 E6.83161
G1 X-28.088 Y50.783 E7.41805
G1 X-30.019 Y49.703 E7.52909
G1 X-31.445 Y48.01 E7.64018
G1 X-32.261 Y44.944 E7.79941
G1 X-32.261 Y34.944 E8.30127
G1 X-31.864 Y32.766 E8.41238
G1 X-30.725 Y30.869 E8.52343
G1 X-28.256 Y29.165 E8.67398
G1 X-16.697 Y24.828 E9.29357
G1 X-15.382 Y24.494 E9.36166
G1 X-14.283 Y24.341 E9.41735
G1 X.427 Y24.043 E10.15574
G1 E8.15574 F2400
G92 E0
G1 X.427 Y24.043 F7800
G92 E0
G1 X14.826 Y29.966
G1 E2 F2400
;TYPE:Support material
G1 F1800
G1 X15.482 Y30.04 E2.03313
G1 X16.547 Y30.39 E2.08939
G1 X17.356 Y30.881 E2.13688
G1 X17.812 Y30.573 E2.1645
G1 X18.888 Y30.16 E2.22234
G1 X19.987 Y30.007 E2.27803
G1 X21.21 Y30.113 E2.33964
G1 X22.275 Y30.463 E2.3959
G1 X23.261 Y31.061 E2.45377
G1 X23.523 Y31.316 E2.47212
G1 X23.864 Y31.185 E2.49045
G1 X24.963 Y31.032 E2.54614
G1 X25.53 Y31.065 E2.57464
G1 X26.186 Y31.139 E2.60777
G1 X27.43 Y31.598 E2.67432
G1 X28.254 Y31.37 E2.71723
G1 X29.268 Y31.302 E2.76823
G1 X30.409 Y31.395 E2.82568
G1 X30.994 Y31.568 E2.8563
G1 X32.1 Y30.76 E2.92504
G1 X33.177 Y30.347 E2.98293
G1 X34.275 Y30.193 E3.03857
G1 X34.843 Y30.226 E3.06712
G1 X35.498 Y30.3 E3.1002
G1 X36.563 Y30.65 E3.15646
G1 X37.585 Y31.27 E3.21645
G1 X38.789 Y31.077 E3.27765
G1 X39.356 Y31.11 E3.30615
G1 X40.012 Y31.183 E3.33928
G1 X41.077 Y31.533 E3.39554
G1 X42.063 Y32.131 E3.45341
G1 X42.877 Y32.925 E3.51048
G1 X43.179 Y33.384 E3.53805
G1 X43.516 Y33.92 E3.56982
G1 X43.898 Y34.995 E3.62707
G1 X44.029 Y36.139 E3.68486
G1 X43.897 Y37.29 E3.743
G1 X43.46 Y38.455 E3.80544
G1 X43.711 Y39.16 E3.843
G1 X43.842 Y40.306 E3.90089
G1 X43.711 Y41.452 E3.95878
G1 X43.324 Y42.539 E4.01669
G1 X42.702 Y43.51 E4.07456
G1 X42.386 Y43.819 E4.09674
G1 X42.265 Y44.876 E4.15013
G1 X41.878 Y45.963 E4.20804
G1 X41.256 Y46.934 E4.26591
G1 X40.43 Y47.739 E4.32379
G1 X39.467 Y48.323 E4.38031
G1 X38.851 Y48.539 E4.41307
G1 X38.311 Y48.701 E4.44136
G1 X37.199 Y48.8 E4.49739
G1 X36.057 Y48.641 E4.55526
G1 X35.024 Y48.245 E4.61078
G1 X34.092 Y47.618 E4.66715
G1 X33.512 Y47.969 E4.70117
G1 X32.416 Y48.329 E4.75906
G1 X31.267 Y48.432 E4.81695
G1 X30.125 Y48.273 E4.87482
G1 X29.048 Y47.86 E4.93271
G1 X28.369 Y47.401 E4.97384
G1 X27.165 Y47.83 E5.03798
G1 X26.018 Y47.933 E5.09577
G1 X24.918 Y47.78 E5.15151
G1 X24.485 Y47.628 E5.17454
G1 X24.159 Y47.825 E5.19366
G1 X23.063 Y48.185 E5.25155
G1 X21.952 Y48.285 E5.30753
G1 X20.725 Y48.111 E5.36972
G1 X19.845 Y47.773 E5.41703
G1 X18.68 Y48.176 E5.4789
G1 X17.568 Y48.276 E5.53493
G1 X16.344 Y48.103 E5.59697
G1 X15.345 Y47.72 E5.65066
G1 X14.43 Y48.021 E5.699
G1 X13.281 Y48.124 E5.75689
G1 X12.139 Y47.965 E5.81476
G1 X11.14 Y47.582 E5.86845
G1 X9.973 Y47.988 E5.93046
G1 X8.827 Y48.093 E5.98821
G1 X7.724 Y47.942 E6.04408
G1 X6.564 Y47.496 E6.10645
G1 X6.134 Y47.207 E6.13245
G1 X5.335 Y47.69 E6.17931
G1 X4.248 Y48.048 E6.23674
G1 X3.111 Y48.153 E6.29404
G1 X1.982 Y48.002 E6.3512
G1 X.685 Y47.453 E6.42188
G1 X-.105 Y47.933 E6.46827
G1 X-1.199 Y48.294 E6.52609
G1 X-2.345 Y48.399 E6.58384
G1 X-3.486 Y48.243 E6.64163
G1 X-4.561 Y47.833 E6.69937
G1 X-5.468 Y47.224 E6.7542
G1 X-5.986 Y47.539 E6.78463
G1 X-7.08 Y47.899 E6.84243
G1 X-8.227 Y48.004 E6.90023
G1 X-9.368 Y47.847 E6.95803
G1 X-9.888 Y47.648 E6.98597
G1 X-10.628 Y48.286 E7.035
G1 X-11.638 Y48.793 E7.09172
G1 X-12.858 Y49.059 E7.15439
G1 X-13.963 Y49.029 E7.20987
G1 X-15.033 Y48.729 E7.26564
G1 X-16.146 Y48.085 E7.33017
G1 X-16.927 Y47.336 E7.38448
G1 X-17.507 Y46.411 E7.43927
G1 X-17.853 Y45.379 E7.4939
G1 X-15.908 Y45.379 E7.59151
G1 X-15.653 Y45.124 E7.60961
G1 X-15.653 Y34.764 E8.12954
G1 X-15.908 Y34.509 E8.14764
G1 X-18.212 Y34.509 E8.26327
G1 X-17.889 Y33.458 E8.31845
G1 X-17.346 Y32.511 E8.37323
G1 X-16.561 Y31.667 E8.43108
G1 X-15.606 Y31.021 E8.48894
G1 X-14.529 Y30.608 E8.54683
G1 X-13.43 Y30.454 E8.60252
G1 X-12.207 Y30.561 E8.66413
G1 X-11.142 Y30.911 E8.72039
G1 X-10.156 Y31.509 E8.77826
G1 X-9.777 Y31.879 E8.80484
G1 X-8.59 Y31.475 E8.86777
G1 X-7.548 Y31.416 E8.92015
G1 X-6.495 Y31.528 E8.97329
G1 X-5.629 Y31.783 E9.0186
G1 X-4.48 Y31.342 E9.08037
G1 X-3.381 Y31.189 E9.13606
G1 X-2.158 Y31.296 E9.19767
G1 X-1.488 Y31.516 E9.23306
G1 X-.366 Y31.36 E9.28991
G1 X.745 Y31.46 E9.34589
G1 X1.957 Y31.89 E9.41043
G1 X2.884 Y31.595 E9.45925
G1 X3.954 Y31.539 E9.51302
G1 X5.063 Y31.683 E9.56914
G1 X6.115 Y31.986 E9.62408
G1 X6.582 Y32.248 E9.65095
G1 X7.02 Y31.954 E9.67742
G1 X7.667 Y31.667 E9.71294
G1 X8.373 Y31.475 E9.74966
G1 X9.441 Y31.415 E9.80334
G1 X10.698 Y31.59 E9.86703
G1 X11.552 Y30.845 E9.92391
G1 X12.567 Y30.303 E9.98166
G1 X13.677 Y30.005 E10.03934
G1 X14.775 Y29.963 E10.09448
G1 X14.775 Y29.963 F7800
G1 X43.583 Y37.709
G1 F1800
G1 X43.583 Y35.036 E10.22863
G1 X43.2 Y34.001 E10.28401
G1 X43.2 Y41.962 E10.68354
G1 X43.044 Y42.402 E10.70697
G1 X42.817 Y42.756 E10.72807
G1 X42.817 Y33.398 E11.19771
G1 X42.434 Y32.926 E11.22822
G1 X42.434 Y43.339 E11.75081
G1 X42.09 Y43.674 E11.77491
G1 X42.05 Y44.019 E11.79234
G1 X42.05 Y32.552 E12.36782
G1 X41.667 Y32.254 E12.39217
G1 X41.667 Y45.629 E13.06341
G1 X41.284 Y46.315 E13.10284
G1 X41.284 Y32.022 E13.82015
G1 X40.901 Y31.802 E13.84232
G1 X40.901 Y46.847 E14.59737
G1 X40.517 Y47.221 E14.62427
G1 X40.517 Y31.676 E15.40441
G1 X40.134 Y31.55 E15.42464
G1 X40.134 Y47.556 E16.22792
G1 X39.751 Y47.788 E16.25039
G1 X39.751 Y31.466 E17.06952
G1 X39.368 Y31.423 E17.08886
G1 X39.368 Y48.021 E17.92185
G1 X38.985 Y48.163 E17.94235
G1 X38.985 Y31.399 E18.78367
G1 X38.601 Y31.416 E18.80296
G1 X38.601 Y48.29 E19.6498
G1 X38.218 Y48.397 E19.66976
G1 X38.218 Y31.47 E20.51926
G1 X37.835 Y31.523 E20.53866
G1 X37.835 Y48.432 E21.38725
G1 X37.452 Y48.466 E21.40655
G1 X37.452 Y31.552 E22.25539
G1 X37.069 Y31.32 E22.27786
G1 X37.069 Y48.469 E23.1385
G1 X36.685 Y48.415 E23.15796
G1 X36.685 Y31.087 E24.02758
G1 X36.302 Y30.891 E24.04917
G1 X36.302 Y48.362 E24.92597
G1 X35.919 Y48.256 E24.94591
G1 X35.919 Y30.765 E25.82371
G1 X35.536 Y30.639 E25.84394
G1 X35.536 Y48.109 E26.72069
G1 X35.153 Y47.959 E26.74133
G1 X35.153 Y30.574 E27.61381
G1 X34.769 Y30.533 E27.63319
G1 X34.769 Y47.718 E28.49563
G1 X34.386 Y47.45 E28.51909
G1 X34.386 Y30.511 E29.36919
G1 X34.003 Y30.545 E29.38849
G1 X34.003 Y47.309 E30.22981
G1 X33.62 Y47.541 E30.25228
G1 X33.62 Y30.598 E31.10258
G1 X33.236 Y30.656 E31.12207
G1 X33.236 Y47.733 E31.97909
G1 X32.853 Y47.859 E31.99932
G1 X32.853 Y30.803 E32.85529
G1 X32.47 Y30.95 E32.87588
G1 X32.47 Y47.985 E33.7308
G1 X32.087 Y48.047 E33.75027
G1 X32.087 Y31.143 E34.59861
G1 X31.704 Y31.402 E34.62181
G1 X31.704 Y48.082 E35.45891
G1 X31.32 Y48.116 E35.47826
G1 X31.32 Y31.672 E36.30352
G1 X31.091 Y31.92 E36.32046
G1 X30.937 Y31.875 E36.32851
G1 X30.937 Y48.073 E37.14142
G1 X30.554 Y48.019 E37.16083
G1 X30.554 Y31.761 E37.97675
G1 X30.171 Y31.687 E37.99633
G1 X30.171 Y47.958 E38.8129
G1 X29.788 Y47.811 E38.83349
G1 X29.788 Y31.656 E39.64424
G1 X29.404 Y31.625 E39.66357
G1 X29.404 Y47.664 E40.4685
G1 X29.021 Y47.467 E40.49011
G1 X29.021 Y31.63 E41.2849
G1 X28.638 Y31.655 E41.30416
G1 X28.638 Y47.208 E42.0847
G1 X28.382 Y47.035 E42.10021
G1 X28.255 Y47.108 E42.10756
G1 X28.255 Y31.692 E42.88123
G1 X27.872 Y31.798 E42.90117
G1 X27.872 Y47.271 E43.6777
G1 X27.488 Y47.397 E43.69798
G1 X27.488 Y31.904 E44.47551
G1 X27.384 Y31.933 E44.48093
G1 X27.105 Y31.768 E44.4972
G1 X27.105 Y47.523 E45.28788
G1 X26.722 Y47.558 E45.30718
G1 X26.722 Y31.642 E46.10594
G1 X26.339 Y31.516 E46.12617
G1 X26.339 Y47.592 E46.93296
G1 X25.955 Y47.611 E46.95225
G1 X25.955 Y31.426 E47.76451
G1 X25.572 Y31.382 E47.78386
G1 X25.572 Y47.557 E48.59562
G1 X25.189 Y47.504 E48.61502
G1 X25.189 Y31.356 E49.42542
G1 X24.806 Y31.368 E49.44465
G1 X24.806 Y47.412 E50.24983
G1 X24.423 Y47.303 E50.26981
G1 X24.423 Y31.421 E51.06686
G1 X24.039 Y31.474 E51.08631
G1 X24.039 Y47.535 E51.89235
G1 X23.656 Y47.664 E51.91263
G1 X23.656 Y31.598 E52.71892
G1 X23.448 Y31.677 E52.73009
G1 X23.273 Y31.506 E52.74237
G1 X23.273 Y47.79 E53.5596
G1 X22.89 Y47.889 E53.57945
G1 X22.89 Y31.199 E54.41705
G1 X22.507 Y30.967 E54.43952
G1 X22.507 Y47.923 E55.29047
G1 X22.123 Y47.958 E55.30982
G1 X22.123 Y30.74 E56.17392
G1 X21.74 Y30.614 E56.19415
G1 X21.74 Y47.949 E57.06412
G1 X21.357 Y47.905 E57.08347
G1 X21.357 Y30.488 E57.95756
G1 X20.974 Y30.399 E57.97729
G1 X20.974 Y47.839 E58.85253
G1 X20.808 Y47.81 E58.86099
G1 X20.591 Y47.727 E58.87265
G1 X20.591 Y30.356 E59.74443
G1 X20.207 Y30.33 E59.76375
G1 X20.207 Y47.58 E60.62946
G1 X19.824 Y47.432 E60.65007
G1 X19.824 Y30.343 E61.5077
G1 X19.441 Y30.396 E61.5271
G1 X19.441 Y47.599 E62.39045
G1 X19.058 Y47.725 E62.41068
G1 X19.058 Y30.45 E63.27764
G1 X18.674 Y30.574 E63.29789
G1 X18.674 Y47.851 E64.16495
G1 X18.291 Y47.899 E64.18432
G1 X18.291 Y30.721 E65.04641
G1 X17.956 Y30.85 E65.06443
G1 X17.908 Y47.933 E65.92176
G1 X17.525 Y47.959 E65.94103
G1 X17.525 Y31.141 E66.78506
G1 X17.365 Y31.249 E66.79475
G1 X17.142 Y31.114 E66.80783
G1 X17.142 Y47.915 E67.651
G1 X16.758 Y47.86 E67.67047
G1 X16.758 Y30.881 E68.52258
G1 X16.375 Y30.66 E68.54477
G1 X16.375 Y47.782 E69.40405
G1 X15.992 Y47.636 E69.42462
G1 X15.992 Y30.535 E70.28285
G1 X15.609 Y30.409 E70.30308
G1 X15.609 Y47.489 E71.16026
G1 X15.353 Y47.391 E71.17402
G1 X15.226 Y47.433 E71.18073
G1 X15.226 Y30.324 E72.03936
G1 X14.842 Y30.281 E72.05875
G1 X14.842 Y47.559 E72.92586
G1 X14.459 Y47.685 E72.94609
G1 X14.459 Y30.256 E73.82078
G1 X14.076 Y30.273 E73.84002
G1 X14.076 Y47.741 E74.71667
G1 X13.693 Y47.775 E74.73597
G1 X13.693 Y30.318 E75.61207
G1 X13.31 Y30.385 E75.63158
G1 X13.31 Y47.81 E76.50607
G1 X12.926 Y47.761 E76.5255
G1 X12.926 Y30.506 E77.39146
G1 X12.543 Y30.651 E77.41201
G1 X12.543 Y47.708 E78.26803
G1 X12.16 Y47.64 E78.28755
G1 X12.16 Y30.829 E79.13123
G1 X11.777 Y31.07 E79.15394
G1 X11.777 Y47.493 E79.97814
G1 X11.393 Y47.346 E79.99878
G1 X11.393 Y31.35 E80.80155
G1 X11.01 Y31.716 E80.82814
G1 X11.01 Y47.297 E81.61009
G1 X10.627 Y47.445 E81.6307
G1 X10.627 Y31.893 E82.41119
G1 X10.244 Y31.817 E82.43079
G1 X10.244 Y47.571 E83.22142
G1 X9.91 Y47.682 E83.23908
G1 X9.861 Y31.78 E84.03714
G1 X9.477 Y31.733 E84.05656
G1 X9.477 Y47.722 E84.85898
G1 X9.094 Y47.757 E84.87828
G1 X9.094 Y31.746 E85.68181
G1 X8.711 Y31.767 E85.70106
G1 X8.711 Y47.764 E86.50388
G1 X8.328 Y47.711 E86.52328
G1 X8.328 Y31.809 E87.32134
G1 X7.945 Y31.913 E87.34126
G1 X7.945 Y47.659 E88.13149
G1 X7.797 Y47.639 E88.13899
G1 X7.561 Y47.556 E88.15155
G1 X7.561 Y32.053 E88.92958
G1 X7.178 Y32.223 E88.95061
G1 X7.178 Y47.421 E89.71334
G1 X6.795 Y47.257 E89.73425
G1 X6.795 Y32.479 E90.4759
G1 X6.597 Y32.613 E90.4879
G1 X6.412 Y32.509 E90.49855
G1 X6.412 Y47.02 E91.2268
G1 X6.142 Y46.839 E91.24311
G1 X6.029 Y46.908 E91.24975
G1 X6.029 Y32.294 E91.98317
G1 X5.645 Y32.174 E92.00336
G1 X5.645 Y47.14 E92.75444
G1 X5.262 Y47.372 E92.77691
G1 X5.262 Y32.063 E93.54521
G1 X4.879 Y31.972 E93.56497
G1 X4.879 Y47.514 E94.34496
G1 X4.496 Y47.64 E94.36519
G1 X4.496 Y31.922 E95.15401
G1 X4.113 Y31.873 E95.17339
G1 X4.113 Y47.749 E95.97014
G1 X3.729 Y47.784 E95.98949
G1 X3.729 Y31.862 E96.78855
G1 X3.346 Y31.882 E96.8078
G1 X3.346 Y47.82 E97.60766
G1 X2.963 Y47.82 E97.62688
G1 X2.933 Y31.903 E98.42569
G1 X2.58 Y31.997 E98.44402
G1 X2.58 Y47.769 E99.23555
G1 X2.196 Y47.718 E99.25499
G1 X2.196 Y32.12 E100.03779
G1 X1.939 Y32.242 E100.05207
G1 X1.813 Y32.166 E100.05945
G1 X1.813 Y47.608 E100.83442
G1 X1.43 Y47.465 E100.85494
G1 X1.43 Y32.011 E101.63051
G1 X1.047 Y31.885 E101.65074
G1 X1.047 Y47.319 E102.42531
G1 X.664 Y47.103 E102.44738
G1 X.664 Y31.764 E103.21718
G1 X.28 Y31.73 E103.23653
G1 X.28 Y47.336 E104.01973
G1 X-.103 Y47.569 E104.04223
G1 X-.103 Y31.695 E104.83888
G1 X-.486 Y31.686 E104.85811
G1 X-.486 Y47.732 E105.66339
G1 X-.869 Y47.859 E105.68364
G1 X-.869 Y31.729 E106.49314
G1 X-1.252 Y31.789 E106.5126
G1 X-1.252 Y47.985 E107.32541
G1 X-1.636 Y48.023 E107.34478
G1 X-1.636 Y31.794 E108.15925
G1 X-2.019 Y31.668 E108.17948
G1 X-2.019 Y48.058 E109.00203
G1 X-2.338 Y48.087 E109.01811
G1 X-2.402 Y48.078 E109.02135
G1 X-2.402 Y31.58 E109.84932
G1 X-2.785 Y31.537 E109.86866
G1 X-2.785 Y48.025 E110.69613
G1 X-3.168 Y47.973 E110.71553
G1 X-3.168 Y31.512 E111.54164
G1 X-3.552 Y31.526 E111.56092
G1 X-3.552 Y47.885 E112.38191
G1 X-3.935 Y47.739 E112.40248
G1 X-3.935 Y31.579 E113.21348
G1 X-4.318 Y31.633 E113.23289
G1 X-4.318 Y47.593 E114.03386
G1 X-4.701 Y47.365 E114.05623
G1 X-4.701 Y31.759 E114.83943
G1 X-5.085 Y31.906 E114.86007
G1 X-5.085 Y47.108 E115.623
G1 X-5.468 Y46.86 E115.6459
G1 X-5.468 Y32.053 E116.389
G1 X-5.62 Y32.112 E116.39718
G1 X-5.851 Y32.037 E116.40937
G1 X-5.851 Y47.093 E117.16497
G1 X-6.234 Y47.293 E117.18665
G1 X-6.234 Y31.92 E117.95816
G1 X-6.617 Y31.828 E117.97793
G1 X-6.617 Y47.42 E118.76043
G1 X-7.001 Y47.546 E118.78071
G1 X-7.001 Y31.787 E119.57159
G1 X-7.384 Y31.746 E119.59092
G1 X-7.384 Y47.615 E120.38732
G1 X-7.767 Y47.65 E120.40662
G1 X-7.767 Y31.739 E121.20513
G1 X-8.15 Y31.761 E121.22438
G1 X-8.15 Y47.685 E122.02354
G1 X-8.22 Y47.691 E122.02707
G1 X-8.533 Y47.648 E122.04293
G1 X-8.533 Y31.782 E122.83918
G1 X-8.917 Y31.885 E122.85913
G1 X-8.917 Y47.596 E123.6476
G1 X-9.3 Y47.54 E123.66703
G1 X-9.3 Y32.007 E124.44657
G1 X-9.683 Y32.177 E124.4676
G1 X-9.683 Y47.394 E125.23128
G1 X-9.95 Y47.292 E125.24562
G1 X-10.066 Y47.393 E125.25334
G1 X-10.066 Y32.03 E126.02435
G1 X-10.449 Y31.694 E126.04992
G1 X-10.449 Y47.723 E126.85435
G1 X-10.833 Y48.042 E126.8794
G1 X-10.833 Y31.462 E127.71148
G1 X-11.216 Y31.229 E127.73398
G1 X-11.216 Y48.234 E128.58739
G1 X-11.599 Y48.427 E128.60891
G1 X-11.599 Y31.088 E129.47908
G1 X-11.982 Y30.962 E129.49931
G1 X-11.982 Y48.559 E130.38243
G1 X-12.366 Y48.653 E130.40227
G1 X-12.366 Y30.856 E131.29543
G1 X-12.749 Y30.813 E131.31477
G1 X-12.749 Y48.724 E132.21365
G1 X-13.132 Y48.741 E132.23289
G1 X-13.132 Y30.783 E133.13413
G1 X-13.515 Y30.78 E133.15335
G1 X-13.515 Y48.731 E134.05424
G1 X-13.898 Y48.72 E134.07347
G1 X-13.898 Y30.833 E134.97115
G1 X-14.282 Y30.886 E134.9906
G1 X-14.282 Y48.618 E135.8805
G1 X-14.665 Y48.51 E135.90047
G1 X-14.665 Y30.992 E136.77963
G1 X-15.048 Y31.139 E136.80022
G1 X-15.048 Y48.371 E137.66502
G1 X-15.431 Y48.17 E137.68673
G1 X-15.431 Y31.286 E138.53407
G1 X-15.814 Y31.536 E138.55702
G1 X-15.814 Y34.198 E138.69061
G1 X-16.198 Y34.198 E138.70988
G1 X-16.198 Y31.796 E138.83043
G1 X-16.581 Y32.144 E138.8564
G1 X-16.581 Y34.198 E138.95948
G1 X-16.964 Y34.198 E138.9787
G1 X-16.964 Y32.556 E139.06111
