; generated by PrusaSlicer 2.9.0 on 2025-03-11 at 09:51:59 UTC

; 

; external perimeters extrusion width = 0.45mm
; perimeters extrusion width = 0.45mm
; infill extrusion width = 0.45mm
; solid infill extrusion width = 0.45mm
; top infill extrusion width = 0.40mm
; first layer extrusion width = 0.42mm

M190 S60 ; set bed temperature and wait for it to be reached
M104 S215 ; set temperature
;TYPE:Custom
G28 ; home all axes
G1 Z5 F5000 ; lift nozzle
M109 S215 ; set temperature and wait for it to be reached
G21 ; set units to millimeters
G90 ; use absolute coordinates
M82 ; use absolute distances for extrusion
G92 E0
; Filament gcode
M107
;LAYER_CHANGE
;Z:0.35
;HEIGHT:0.35
G1 E-2 F2400
G1 Z.35 F7800
G1 X20.475 Y0
G1 E.00001 F2400
;TYPE:Skirt/Brim
;WIDTH:0.42
G1 F1800
G1 X20.475 Y-50 E2.5093
G1 X20.872 Y-52.177 E2.62036
G1 X22.011 Y-54.075 E2.73145
G1 X23.746 Y-55.448 E2.84249
G1 X26.647 Y-56.172 E2.99254
G1 X34.281 Y-56.172 E3.37566
G1 X36.458 Y-55.776 E3.48671
G1 X38.355 Y-54.636 E3.59778
G1 X39.729 Y-52.901 E3.70885
G1 X40.453 Y-50 E3.8589
G1 X40.453 Y50 E8.87749
G1 X40.056 Y52.177 E8.98855
G1 X38.917 Y54.075 E9.09964
G1 X37.182 Y55.448 E9.21068
G1 X34.281 Y56.172 E9.36073
G1 X26.647 Y56.172 E9.74385
G1 X24.47 Y55.776 E9.8549
G1 X22.573 Y54.636 E9.96597
G1 X21.199 Y52.901 E10.07704
G1 X20.475 Y50 E10.22709
G1 X20.475 Y.06 E12.73337
G1 E10.73337 F2400
G92 E0
G92 E0
G1 X27.547 Y-49.1 F7800
G1 E2 F2400
;TYPE:Perimeter
;WIDTH:0.42
G1 F1800
G1 X33.381 Y-49.1 E2.29278
G1 X33.381 Y-46.183 E2.43917
G1 X33.381 Y49.1 E7.22103
G1 X27.547 Y49.1 E7.51381
G1 X27.547 Y-49.04 E12.43905
G1 X27.547 Y-49.04 F7800
G1 X27.202 Y-49.445
G1 F1800
G1 X33.726 Y-49.445 E12.76646
G1 X33.726 Y-46.183 E12.93017
G1 X33.726 Y49.445 E17.72934
G1 X27.202 Y49.445 E18.05675
G1 X27.202 Y-49.385 E23.01662
G1 X27.202 Y-49.385 F7800
G1 X26.857 Y-49.79
;TYPE:External perimeter
G1 F1800
G1 X34.071 Y-49.79 E23.37866
G1 X34.071 Y-46.183 E23.55968
G1 X34.071 Y49.79 E28.37617
G1 X26.857 Y49.79 E28.73821
G1 X26.857 Y-49.73 E33.73271
G1 X27.253 Y-49.789 F7800
G1 E31.73271 F2400
G92 E0
G1 X32.578 Y-48.997 F7800
G1 E2 F2400
;TYPE:Solid infill
;WIDTH:0.420957
G1 F1800
G1 X33.122 Y-48.453 E2.03872
G1 X33.122 Y-47.964 E2.06333
G1 X32.244 Y-48.842 E2.12582
G1 X31.755 Y-48.842 E2.15043
G1 X33.122 Y-47.475 E2.24772
G1 X33.122 Y-46.985 E2.27238
G1 X31.266 Y-48.842 E2.40451
G1 X30.777 Y-48.842 E2.42912
G1 X33.122 Y-46.496 E2.59605
G1 X33.122 Y-46.007 E2.62066
G1 X30.288 Y-48.842 E2.82239
G1 X29.799 Y-48.842 E2.847
G1 X33.122 Y-45.518 E3.08354
G1 X33.122 Y-45.029 E3.10815
G1 X29.31 Y-48.842 E3.37949
G1 X28.821 Y-48.842 E3.4041
G1 X33.122 Y-44.54 E3.71024
G1 X33.122 Y-44.051 E3.73485
G1 X28.332 Y-48.842 E4.07579
G1 X27.843 Y-48.842 E4.1004
G1 X33.122 Y-43.562 E4.47614
G1 X33.122 Y-43.073 E4.50075
G1 X27.806 Y-48.389 E4.87909
G1 X27.806 Y-47.9 E4.9037
G1 X33.122 Y-42.584 E5.28204
G1 X33.122 Y-42.094 E5.3067
G1 X27.806 Y-47.411 E5.68508
G1 X27.806 Y-46.922 E5.70969
G1 X33.122 Y-41.605 E6.08807
G1 X33.122 Y-41.116 E6.11268
G1 X27.806 Y-46.433 E6.49106
G1 X27.806 Y-45.944 E6.51567
G1 X33.122 Y-40.627 E6.89405
G1 X33.122 Y-40.138 E6.91866
G1 X27.806 Y-45.455 E7.29704
G1 X27.806 Y-44.965 E7.3217
G1 X33.122 Y-39.649 E7.70004
G1 X33.122 Y-39.16 E7.72465
G1 X27.806 Y-44.476 E8.10299
G1 X27.806 Y-43.987 E8.1276
G1 X33.122 Y-38.671 E8.50594
G1 X33.122 Y-38.182 E8.53055
G1 X27.806 Y-43.498 E8.90889
G1 X27.806 Y-43.009 E8.9335
G1 X33.122 Y-37.693 E9.31184
G1 X33.122 Y-37.203 E9.3365
G1 X27.806 Y-42.52 E9.71488
G1 X27.806 Y-42.031 E9.73949
G1 X33.122 Y-36.714 E10.11787
G1 X33.122 Y-36.225 E10.14248
G1 X27.806 Y-41.542 E10.52086
G1 X27.806 Y-41.053 E10.54547
G1 X33.122 Y-35.736 E10.92385
G1 X33.122 Y-35.247 E10.94846
G1 X27.806 Y-40.564 E11.32684
G1 X27.806 Y-40.074 E11.3515
G1 X33.122 Y-34.758 E11.72984
G1 X33.122 Y-34.269 E11.75445
G1 X27.806 Y-39.585 E12.13279
G1 X27.806 Y-39.096 E12.1574
G1 X33.122 Y-33.78 E12.53574
G1 X33.122 Y-33.291 E12.56035
G1 X27.806 Y-38.607 E12.93869
G1 X27.806 Y-38.118 E12.9633
G1 X33.122 Y-32.802 E13.34164
G1 X33.122 Y-32.312 E13.3663
G1 X27.806 Y-37.629 E13.74468
G1 X27.806 Y-37.14 E13.76929
G1 X33.122 Y-31.823 E14.14767
G1 X33.122 Y-31.334 E14.17228
G1 X27.806 Y-36.651 E14.55066
G1 X27.806 Y-36.162 E14.57527
G1 X33.122 Y-30.845 E14.95365
G1 X33.122 Y-30.356 E14.97826
G1 X27.806 Y-35.673 E15.35664
G1 X27.806 Y-35.183 E15.3813
G1 X33.122 Y-29.867 E15.75964
G1 X33.122 Y-29.378 E15.78425
G1 X27.806 Y-34.694 E16.16259
G1 X27.806 Y-34.205 E16.1872
G1 X33.122 Y-28.889 E16.56554
G1 X33.122 Y-28.4 E16.59015
G1 X27.806 Y-33.716 E16.96849
G1 X27.806 Y-33.227 E16.9931
G1 X33.122 Y-27.911 E17.37144
G1 X33.122 Y-27.421 E17.3961
G1 X27.806 Y-32.738 E17.77448
G1 X27.806 Y-32.249 E17.79909
G1 X33.122 Y-26.932 E18.17747
G1 X33.122 Y-26.443 E18.20208
G1 X27.806 Y-31.76 E18.58046
G1 X27.806 Y-31.271 E18.60507
G1 X33.122 Y-25.954 E18.98345
G1 X33.122 Y-25.465 E19.00806
G1 X27.806 Y-30.782 E19.38644
G1 X27.806 Y-30.292 E19.4111
G1 X33.122 Y-24.976 E19.78944
G1 X33.122 Y-24.487 E19.81405
G1 X27.806 Y-29.803 E20.19239
G1 X27.806 Y-29.314 E20.217
G1 X33.122 Y-23.998 E20.59534
G1 X33.122 Y-23.509 E20.61995
G1 X27.806 Y-28.825 E20.99829
G1 X27.806 Y-28.336 E21.0229
G1 X33.122 Y-23.02 E21.40124
G1 X33.122 Y-22.53 E21.4259
G1 X27.806 Y-27.847 E21.80428
G1 X27.806 Y-27.358 E21.82889
G1 X33.122 Y-22.041 E22.20727
G1 X33.122 Y-21.552 E22.23188
G1 X27.806 Y-26.869 E22.61026
G1 X27.806 Y-26.38 E22.63487
G1 X33.122 Y-21.063 E23.01325
G1 X33.122 Y-20.574 E23.03786
G1 X27.806 Y-25.891 E23.41624
G1 X27.806 Y-25.401 E23.4409
G1 X33.122 Y-20.085 E23.81924
G1 X33.122 Y-19.596 E23.84385
G1 X27.806 Y-24.912 E24.22219
G1 X27.806 Y-24.423 E24.2468
G1 X33.122 Y-19.107 E24.62514
G1 X33.122 Y-18.618 E24.64975
G1 X27.806 Y-23.934 E25.02809
G1 X27.806 Y-23.445 E25.0527
G1 X33.122 Y-18.129 E25.43104
G1 X33.122 Y-17.639 E25.4557
G1 X27.806 Y-22.956 E25.83408
G1 X27.806 Y-22.467 E25.85869
G1 X33.122 Y-17.15 E26.23707
G1 X33.122 Y-16.661 E26.26168
G1 X27.806 Y-21.978 E26.64006
G1 X27.806 Y-21.489 E26.66467
G1 X33.122 Y-16.172 E27.04305
G1 X33.122 Y-15.683 E27.06766
G1 X27.806 Y-21 E27.44604
G1 X27.806 Y-20.51 E27.4707
G1 X33.122 Y-15.194 E27.84904
G1 X33.122 Y-14.705 E27.87365
G1 X27.806 Y-20.021 E28.25199
G1 X27.806 Y-19.532 E28.2766
G1 X33.122 Y-14.216 E28.65494
G1 X33.122 Y-13.727 E28.67955
G1 X27.806 Y-19.043 E29.05789
G1 X27.806 Y-18.554 E29.0825
G1 X33.122 Y-13.238 E29.46084
G1 X33.122 Y-12.748 E29.4855
G1 X27.806 Y-18.065 E29.86388
G1 X27.806 Y-17.576 E29.88849
G1 X33.122 Y-12.259 E30.26687
G1 X33.122 Y-11.77 E30.29148
G1 X27.806 Y-17.087 E30.66986
G1 X27.806 Y-16.598 E30.69447
G1 X33.122 Y-11.281 E31.07285
G1 X33.122 Y-10.792 E31.09746
G1 X27.806 Y-16.109 E31.47584
G1 X27.806 Y-15.619 E31.5005
G1 X33.122 Y-10.303 E31.87884
G1 X33.122 Y-9.814 E31.90345
G1 X27.806 Y-15.13 E32.28179
G1 X27.806 Y-14.641 E32.3064
G1 X33.122 Y-9.325 E32.68474
G1 X33.122 Y-8.836 E32.70935
G1 X27.806 Y-14.152 E33.08769
G1 X27.806 Y-13.663 E33.1123
G1 X33.122 Y-8.347 E33.49064
G1 X33.122 Y-7.857 E33.5153
G1 X27.806 Y-13.174 E33.89368
G1 X27.806 Y-12.685 E33.91829
G1 X33.122 Y-7.368 E34.29667
G1 X33.122 Y-6.879 E34.32128
G1 X27.806 Y-12.196 E34.69966
G1 X27.806 Y-11.707 E34.72427
G1 X33.122 Y-6.39 E35.10265
G1 X33.122 Y-5.901 E35.12726
G1 X27.806 Y-11.218 E35.50564
G1 X27.806 Y-10.728 E35.5303
G1 X33.122 Y-5.412 E35.90864
G1 X33.122 Y-4.923 E35.93325
G1 X27.806 Y-10.239 E36.31159
G1 X27.806 Y-9.75 E36.3362
G1 X33.122 Y-4.434 E36.71454
G1 X33.122 Y-3.945 E36.73915
G1 X27.806 Y-9.261 E37.11749
G1 X27.806 Y-8.772 E37.1421
G1 X33.122 Y-3.456 E37.52044
G1 X33.122 Y-2.966 E37.5451
G1 X27.806 Y-8.283 E37.92348
G1 X27.806 Y-7.794 E37.94809
G1 X33.122 Y-2.477 E38.32647
G1 X33.122 Y-1.988 E38.35108
G1 X27.806 Y-7.305 E38.72946
G1 X27.806 Y-6.816 E38.75407
G1 X33.122 Y-1.499 E39.13245
G1 X33.122 Y-1.01 E39.15706
G1 X27.806 Y-6.327 E39.53544
G1 X27.806 Y-5.837 E39.5601
G1 X33.122 Y-.521 E39.93844
G1 X33.122 Y-.032 E39.96305
G1 X27.806 Y-5.348 E40.34139
G1 X27.806 Y-4.859 E40.366
G1 X33.122 Y.457 E40.74434
G1 X33.122 Y.946 E40.76895
G1 X27.806 Y-4.37 E41.14729
G1 X27.806 Y-3.881 E41.1719
G1 X33.122 Y1.435 E41.55024
G1 X33.122 Y1.925 E41.5749
G1 X27.806 Y-3.392 E41.95328
G1 X27.806 Y-2.903 E41.97789
G1 X33.122 Y2.414 E42.35627
G1 X33.122 Y2.903 E42.38088
G1 X27.806 Y-2.414 E42.75926
G1 X27.806 Y-1.925 E42.78387
G1 X33.122 Y3.392 E43.16225
G1 X33.122 Y3.881 E43.18686
G1 X27.806 Y-1.436 E43.56524
G1 X27.806 Y-.946 E43.5899
G1 X33.122 Y4.37 E43.96824
G1 X33.122 Y4.859 E43.99285
G1 X27.806 Y-.457 E44.37119
G1 X27.806 Y.032 E44.3958
G1 X33.122 Y5.348 E44.77414
G1 X33.122 Y5.837 E44.79875
G1 X27.806 Y.521 E45.17709
G1 X27.806 Y1.01 E45.2017
G1 X33.122 Y6.326 E45.58004
G1 X33.122 Y6.816 E45.6047
G1 X27.806 Y1.499 E45.98308
G1 X27.806 Y1.988 E46.00769
G1 X33.122 Y7.305 E46.38607
G1 X33.122 Y7.794 E46.41068
G1 X27.806 Y2.477 E46.78906
G1 X27.806 Y2.966 E46.81367
G1 X33.122 Y8.283 E47.19205
G1 X33.122 Y8.772 E47.21666
G1 X27.806 Y3.455 E47.59504
G1 X27.806 Y3.945 E47.6197
G1 X33.122 Y9.261 E47.99804
G1 X33.122 Y9.75 E48.02265
G1 X27.806 Y4.434 E48.40099
G1 X27.806 Y4.923 E48.4256
G1 X33.122 Y10.239 E48.80394
G1 X33.122 Y10.728 E48.82855
G1 X27.806 Y5.412 E49.20689
G1 X27.806 Y5.901 E49.2315
G1 X33.122 Y11.217 E49.60984
G1 X33.122 Y11.707 E49.6345
G1 X27.806 Y6.39 E50.01288
G1 X27.806 Y6.879 E50.03749
G1 X33.122 Y12.196 E50.41587
G1 X33.122 Y12.685 E50.44048
G1 X27.806 Y7.368 E50.81886
G1 X27.806 Y7.857 E50.84347
G1 X33.122 Y13.174 E51.22185
G1 X33.122 Y13.663 E51.24646
G1 X27.806 Y8.346 E51.62484
G1 X27.806 Y8.836 E51.6495
G1 X33.122 Y14.152 E52.02784
G1 X33.122 Y14.641 E52.05245
G1 X27.806 Y9.325 E52.43079
G1 X27.806 Y9.814 E52.4554
G1 X33.122 Y15.13 E52.83374
G1 X33.122 Y15.619 E52.85835
G1 X27.806 Y10.303 E53.23669
G1 X27.806 Y10.792 E53.2613
G1 X33.122 Y16.108 E53.63964
G1 X33.122 Y16.598 E53.6643
G1 X27.806 Y11.281 E54.04268
G1 X27.806 Y11.77 E54.06729
G1 X33.122 Y17.087 E54.44567
G1 X33.122 Y17.576 E54.47028
G1 X27.806 Y12.259 E54.84866
G1 X27.806 Y12.748 E54.87327
G1 X33.122 Y18.065 E55.25165
G1 X33.122 Y18.554 E55.27626
G1 X27.806 Y13.237 E55.65464
G1 X27.806 Y13.727 E55.6793
G1 X33.122 Y19.043 E56.05764
G1 X33.122 Y19.532 E56.08225
G1 X27.806 Y14.216 E56.46059
G1 X27.806 Y14.705 E56.4852
G1 X33.122 Y20.021 E56.86354
G1 X33.122 Y20.51 E56.88815
G1 X27.806 Y15.194 E57.26649
G1 X27.806 Y15.683 E57.2911
G1 X33.122 Y20.999 E57.66944
G1 X33.122 Y21.489 E57.6941
G1 X27.806 Y16.172 E58.07248
G1 X27.806 Y16.661 E58.09709
G1 X33.122 Y21.978 E58.47547
G1 X33.122 Y22.467 E58.50008
G1 X27.806 Y17.15 E58.87846
G1 X27.806 Y17.639 E58.90307
G1 X33.122 Y22.956 E59.28145
G1 X33.122 Y23.445 E59.30606
G1 X27.806 Y18.128 E59.68444
G1 X27.806 Y18.618 E59.7091
G1 X33.122 Y23.934 E60.08744
G1 X33.122 Y24.423 E60.11205
G1 X27.806 Y19.107 E60.49039
G1 X27.806 Y19.596 E60.515
G1 X33.122 Y24.912 E60.89334
G1 X33.122 Y25.401 E60.91795
G1 X27.806 Y20.085 E61.29629
G1 X27.806 Y20.574 E61.3209
G1 X33.122 Y25.89 E61.69924
G1 X33.122 Y26.38 E61.7239
G1 X27.806 Y21.063 E62.10228
G1 X27.806 Y21.552 E62.12689
G1 X33.122 Y26.869 E62.50527
G1 X33.122 Y27.358 E62.52988
G1 X27.806 Y22.041 E62.90826
G1 X27.806 Y22.53 E62.93287
G1 X33.122 Y27.847 E63.31125
G1 X33.122 Y28.336 E63.33586
G1 X27.806 Y23.019 E63.71424
G1 X27.806 Y23.509 E63.7389
G1 X33.122 Y28.825 E64.11724
G1 X33.122 Y29.314 E64.14185
G1 X27.806 Y23.998 E64.52019
G1 X27.806 Y24.487 E64.5448
G1 X33.122 Y29.803 E64.92314
G1 X33.122 Y30.292 E64.94775
G1 X27.806 Y24.976 E65.32609
G1 X27.806 Y25.465 E65.3507
G1 X33.122 Y30.781 E65.72904
G1 X33.122 Y31.271 E65.7537
G1 X27.806 Y25.954 E66.13208
G1 X27.806 Y26.443 E66.15669
G1 X33.122 Y31.76 E66.53507
G1 X33.122 Y32.249 E66.55968
G1 X27.806 Y26.932 E66.93806
G1 X27.806 Y27.421 E66.96267
G1 X33.122 Y32.738 E67.34105
G1 X33.122 Y33.227 E67.36566
G1 X27.806 Y27.91 E67.74404
G1 X27.806 Y28.4 E67.7687
G1 X33.122 Y33.716 E68.14704
G1 X33.122 Y34.205 E68.17165
G1 X27.806 Y28.889 E68.54999
G1 X27.806 Y29.378 E68.5746
G1 X33.122 Y34.694 E68.95294
G1 X33.122 Y35.183 E68.97755
G1 X27.806 Y29.867 E69.35589
G1 X27.806 Y30.356 E69.3805
G1 X33.122 Y35.672 E69.75884
G1 X33.122 Y36.162 E69.7835
G1 X27.806 Y30.845 E70.16188
G1 X27.806 Y31.334 E70.18649
G1 X33.122 Y36.651 E70.56487
G1 X33.122 Y37.14 E70.58948
G1 X27.806 Y31.823 E70.96786
G1 X27.806 Y32.312 E70.99247
G1 X33.122 Y37.629 E71.37085
G1 X33.122 Y38.118 E71.39546
G1 X27.806 Y32.801 E71.77384
G1 X27.806 Y33.291 E71.7985
G1 X33.122 Y38.607 E72.17684
G1 X33.122 Y39.096 E72.20145
G1 X27.806 Y33.78 E72.57979
G1 X27.806 Y34.269 E72.6044
G1 X33.122 Y39.585 E72.98274
G1 X33.122 Y40.074 E73.00735
G1 X27.806 Y34.758 E73.38569
G1 X27.806 Y35.247 E73.4103
G1 X33.122 Y40.563 E73.78864
G1 X33.122 Y41.053 E73.8133
G1 X27.806 Y35.736 E74.19168
G1 X27.806 Y36.225 E74.21629
G1 X33.122 Y41.542 E74.59467
G1 X33.122 Y42.031 E74.61928
G1 X27.806 Y36.714 E74.99766
G1 X27.806 Y37.203 E75.02227
G1 X33.122 Y42.52 E75.40065
G1 X33.122 Y43.009 E75.42526
G1 X27.806 Y37.692 E75.80364
G1 X27.806 Y38.182 E75.8283
G1 X33.122 Y43.498 E76.20664
G1 X33.122 Y43.987 E76.23125
G1 X27.806 Y38.671 E76.60959
G1 X27.806 Y39.16 E76.6342
G1 X33.122 Y44.476 E77.01254
G1 X33.122 Y44.965 E77.03715
G1 X27.806 Y39.649 E77.41549
G1 X27.806 Y40.138 E77.4401
G1 X33.122 Y45.454 E77.81844
G1 X33.122 Y45.944 E77.8431
G1 X27.806 Y40.627 E78.22148
G1 X27.806 Y41.116 E78.24609
G1 X33.122 Y46.433 E78.62447
G1 X33.122 Y46.922 E78.64908
G1 X27.806 Y41.605 E79.02746
G1 X27.806 Y42.094 E79.05207
G1 X33.122 Y47.411 E79.43045
G1 X33.122 Y47.9 E79.45506
G1 X27.806 Y42.583 E79.83344
G1 X27.806 Y43.073 E79.8581
G1 X33.122 Y48.389 E80.23644
G1 X33.122 Y48.842 E80.25924
G1 X33.086 Y48.842 E80.26105
G1 X27.806 Y43.562 E80.63683
G1 X27.806 Y44.051 E80.66144
G1 X32.597 Y48.842 E81.00242
G1 X32.108 Y48.842 E81.02703
G1 X27.806 Y44.54 E81.33321
G1 X27.806 Y45.029 E81.35782
G1 X31.618 Y48.842 E81.62916
G1 X31.129 Y48.842 E81.65377
G1 X27.806 Y45.518 E81.89031
G1 X27.806 Y46.007 E81.91492
G1 X30.64 Y48.842 E82.11665
G1 X30.151 Y48.842 E82.14126
G1 X27.806 Y46.496 E82.30819
G1 X27.806 Y46.985 E82.3328
G1 X29.662 Y48.842 E82.46493
G1 X29.173 Y48.842 E82.48954
G1 X27.806 Y47.474 E82.58687
G1 X27.806 Y47.964 E82.61153
G1 X28.684 Y48.842 E82.67402
G1 X28.195 Y48.842 E82.69863
G1 X27.651 Y48.297 E82.73738
M106 S127.5
;LAYER_CHANGE
;Z:0.65
;HEIGHT:0.3
G1 Z.65 F7800
M104 S210 ; set temperature
G1 E80.73738 F2400
G92 E0
G1 X27.651 Y48.297 F7800
G1 X27.138 Y-49.004
G1 E2 F2400
;TYPE:Perimeter
;WIDTH:0.45
G1 F3600
G1 X33.79 Y-49.004 E2.31994
G1 X33.79 Y-45.678 E2.47991
G1 X33.79 Y49.004 E7.03379
G1 X27.138 Y49.004 E7.35373
G1 X27.138 Y-48.944 E12.06469
G1 X27.138 Y-48.944 F7800
G1 X26.753 Y-49.389
G1 F3600
G1 X34.176 Y-49.389 E12.42171
G1 X34.176 Y-45.678 E12.6002
G1 X34.176 Y49.389 E17.17259
G1 X26.753 Y49.389 E17.52961
G1 X26.753 Y-49.329 E22.2776
G1 X26.753 Y-49.329 F7800
G1 X26.367 Y-49.775
;TYPE:Overhang perimeter
;WIDTH:0.4
;HEIGHT:0.4
G1 F3600
G1 X26.447 Y-49.775 E22.28178
;TYPE:External perimeter
;WIDTH:0.45
;HEIGHT:0.3
G1 F1800
G1 X34.481 Y-49.775 E22.66819
;TYPE:Overhang perimeter
;WIDTH:0.4
;HEIGHT:0.4
G1 F3600
G1 X34.561 Y-49.775 E22.67237
G1 X34.561 Y-45.678 E22.88642
G1 X34.561 Y49.775 E27.87335
G1 X34.481 Y49.775 E27.87753
;TYPE:External perimeter
;WIDTH:0.45
;HEIGHT:0.3
G1 F1800
G1 X26.447 Y49.775 E28.26394
;TYPE:Overhang perimeter
;WIDTH:0.4
;HEIGHT:0.4
G1 F3600
G1 X26.367 Y49.775 E28.26812
G1 X26.367 Y-49.715 E33.46597
G1 X26.763 Y-49.774 F7800
G1 X27.532 Y-48.683
;TYPE:Solid infill
;WIDTH:0.543559
;HEIGHT:0.3
G1 F1200
G1 X27.49 Y-48.726 E33.46956
G1 X27.432 Y-48.71 E33.47316
G1 X27.416 Y-48.652 E33.47676
G1 X27.459 Y-48.61 E33.48035
G1 X27.517 Y-48.625 E33.48393
;WIDTH:0.45
G1 X28.132 Y-48.715 E33.51382
G1 X27.304 Y-47.872 E33.57065
;WIDTH:0.404381
G1 X27.233 Y-47.891 E33.57377
G1 X27.252 Y-47.82 E33.57689
G1 X27.293 Y-47.831 E33.57869
;WIDTH:0.45
G1 X27.427 Y-47.464 E33.59748
G1 X28.678 Y-48.715 E33.68257
G1 X29.223 Y-48.715 E33.70878
G1 X27.427 Y-46.919 E33.83094
