; generated by PrusaSlicer 2.9.0 on 2025-03-11 at 09:01:05 UTC

; 

; external perimeters extrusion width = 0.45mm
; perimeters extrusion width = 0.45mm
; infill extrusion width = 0.45mm
; solid infill extrusion width = 0.45mm
; top infill extrusion width = 0.40mm
; support material extrusion width = 0.35mm
; first layer extrusion width = 0.42mm

M190 S60 ; set bed temperature and wait for it to be reached
M104 S215 ; set temperature
;TYPE:Custom
G28 ; home all axes
G1 Z5 F5000 ; lift nozzle
M109 S215 ; set temperature and wait for it to be reached
G21 ; set units to millimeters
G90 ; use absolute coordinates
M82 ; use absolute distances for extrusion
G92 E0
; Filament gcode
M107
;LAYER_CHANGE
;Z:0.35
;HEIGHT:0.35
G1 E-2 F2400
G1 Z.35 F7800
G1 X-.253 Y-19.453
G1 E.00001 F2400
;TYPE:Skirt/Brim
;WIDTH:0.42
G1 F1800
G1 X-29.8 Y-19.07 E1.48297
G1 X-30.731 Y-19.128 E1.52978
G1 X-31.873 Y-19.288 E1.58765
G1 X-33.232 Y-19.638 E1.65808
G1 X-34.309 Y-20.051 E1.71597
G1 X-35.554 Y-20.7 E1.78643
G1 X-36.466 Y-21.317 E1.84169
G1 X-37.374 Y-22.066 E1.90076
G1 X-38.223 Y-22.948 E1.9622
G1 X-39.227 Y-24.296 E2.04655
G1 X-40.178 Y-26.134 E2.15041
G1 X-42.2 Y-31.701 E2.44765
G1 X-42.607 Y-33.385 E2.5346
G1 X-43.185 Y-37.439 E2.74011
G1 X-43.317 Y-38.929 E2.81518
G1 X-43.208 Y-40.77 E2.90773
G1 X-42.958 Y-42.019 E2.97166
G1 X-42.573 Y-43.221 E3.035
G1 X-42.024 Y-44.427 E3.1015
G1 X-41.366 Y-45.528 E3.16587
G1 X-40.662 Y-46.445 E3.22389
G1 X-39.916 Y-47.248 E3.2789
G1 X-38.85 Y-48.161 E3.34934
G1 X-37.895 Y-48.807 E3.4072
G1 X-36.65 Y-49.456 E3.47766
G1 X-35.573 Y-49.869 E3.53555
G1 X-34.214 Y-50.219 E3.60598
G1 X-33.115 Y-50.373 E3.66167
G1 X-28.064 Y-50.646 E3.91553
G1 X20.156 Y-50.336 E6.33554
G1 X21.327 Y-50.216 E6.39462
G1 X23.408 Y-49.698 E6.50224
G1 X34.606 Y-45.634 E7.10009
G1 X36.517 Y-44.518 E7.21115
G1 X37.912 Y-42.8 E7.32221
G1 X38.672 Y-39.832 E7.47597
G1 X38.672 Y-29.832 E7.97783
G1 X38.276 Y-27.655 E8.08888
G1 X37.136 Y-25.757 E8.19999
G1 X34.423 Y-23.967 E8.36311
G1 X22.429 Y-20.051 E8.99631
G1 X21.211 Y-19.817 E9.05855
G1 X20.106 Y-19.717 E9.11423
G1 X-.193 Y-19.454 E10.13304
G1 E8.13304 F2400
G92 E0
G1 X-.193 Y-19.454 F7800
G92 E0
G1 X-27.536 Y-44.44
G1 E2 F2400
;TYPE:Support material
G1 F1800
G1 X-26.881 Y-44.366 E2.03308
G1 X-25.815 Y-44.017 E2.08937
G1 X-24.716 Y-43.308 E2.15501
G1 X-23.952 Y-43.595 E2.19597
G1 X-22.858 Y-43.739 E2.25135
G1 X-21.639 Y-43.626 E2.31279
G1 X-20.575 Y-43.269 E2.36911
G1 X-19.594 Y-42.667 E2.42687
G1 X-19.38 Y-42.456 E2.44195
G1 X-18.666 Y-42.706 E2.47992
G1 X-17.354 Y-42.838 E2.5461
G1 X-17.107 Y-43.103 E2.56428
G1 X-16.064 Y-43.813 E2.6276
G1 X-15.031 Y-44.21 E2.68314
G1 X-13.933 Y-44.363 E2.73878
G1 X-12.71 Y-44.256 E2.80039
G1 X-11.644 Y-43.906 E2.8567
G1 X-10.554 Y-43.206 E2.92171
G1 X-9.355 Y-43.666 E2.98616
G1 X-8.213 Y-43.825 E3.04403
G1 X-7.064 Y-43.722 E3.10192
G1 X-5.968 Y-43.363 E3.1598
G1 X-5.355 Y-42.991 E3.19579
G1 X-4.157 Y-43.488 E3.26088
G1 X-2.934 Y-43.654 E3.32282
G1 X-1.821 Y-43.546 E3.37894
G1 X-.732 Y-43.181 E3.43658
G1 X-.202 Y-42.856 E3.46778
G1 X.25 Y-43.029 E3.49207
G1 X1.392 Y-43.189 E3.54994
G1 X2.517 Y-43.088 E3.60663
G1 X2.961 Y-43.258 E3.63049
G1 X4.103 Y-43.417 E3.68836
G1 X5.215 Y-43.318 E3.74439
G1 X5.985 Y-43.075 E3.78491
G1 X7.042 Y-43.219 E3.83845
G1 X8.154 Y-43.12 E3.89448
G1 X8.543 Y-42.992 E3.91503
G1 X8.881 Y-43.233 E3.93586
G1 X9.984 Y-43.561 E3.99361
G1 X11.138 Y-43.759 E4.05237
G1 X12.399 Y-43.691 E4.11575
G1 X13.59 Y-43.272 E4.17911
G1 X14.545 Y-42.642 E4.23653
G1 X14.861 Y-42.322 E4.2591
G1 X16.084 Y-42.534 E4.32139
G1 X16.875 Y-43.276 E4.37582
G1 X17.884 Y-43.84 E4.43383
G1 X18.999 Y-44.142 E4.4918
G1 X20.116 Y-44.164 E4.54787
G1 X21.302 Y-43.896 E4.60889
G1 X22.312 Y-43.384 E4.66572
G1 X23.185 Y-42.627 E4.72371
G1 X23.849 Y-41.681 E4.78171
G1 X24.264 Y-40.602 E4.83973
G1 X24.306 Y-40.267 E4.85667
G1 X22.32 Y-40.267 E4.95634
G1 X22.065 Y-40.012 E4.97444
G1 X22.065 Y-29.652 E5.49437
G1 X22.32 Y-29.397 E5.51247
G1 X24.459 Y-29.397 E5.61982
G1 X24.212 Y-28.701 E5.65688
G1 X23.576 Y-27.711 E5.71593
G1 X22.767 Y-26.921 E5.77268
G1 X21.809 Y-26.34 E5.82891
G1 X21.194 Y-26.125 E5.86161
G1 X20.659 Y-25.964 E5.88965
G1 X19.553 Y-25.865 E5.94538
G1 X18.417 Y-26.023 E6.00294
G1 X17.674 Y-26.308 E6.04288
G1 X16.538 Y-25.935 E6.10289
G1 X15.389 Y-25.833 E6.16078
G1 X14.289 Y-25.986 E6.21652
G1 X13.385 Y-26.324 E6.26496
G1 X12.811 Y-26.136 E6.29527
G1 X11.699 Y-26.036 E6.3513
G1 X10.514 Y-26.203 E6.41136
G1 X9.646 Y-26.529 E6.45789
G1 X7.649 Y-26.042 E6.56105
G1 X6.894 Y-26.048 E6.59894
G1 X5.983 Y-26.24 E6.64566
G1 X4.921 Y-26.725 E6.70425
G1 X4.128 Y-26.465 E6.74613
G1 X3.017 Y-26.365 E6.80211
G1 X1.79 Y-26.539 E6.8643
G1 X.955 Y-26.86 E6.9092
G1 X-.134 Y-26.499 E6.96678
G1 X-1.234 Y-26.395 E7.02223
G1 X-2.445 Y-26.556 E7.08354
G1 X-3.468 Y-26.935 E7.13829
G1 X-3.925 Y-27.234 E7.1657
G1 X-4.877 Y-26.687 E7.2208
G1 X-5.958 Y-26.355 E7.27755
G1 X-7.031 Y-26.283 E7.33152
G1 X-8.175 Y-26.384 E7.38916
G1 X-9.496 Y-26.8 E7.45867
G1 X-9.772 Y-27.018 E7.47632
G1 X-10.63 Y-26.528 E7.52591
G1 X-11.694 Y-26.2 E7.58179
G1 X-12.814 Y-26.11 E7.63818
G1 X-13.824 Y-26.17 E7.68896
G1 X-14.547 Y-26.37 E7.72661
G1 X-15.17 Y-26.643 E7.76075
G1 X-15.85 Y-27.102 E7.80192
G1 X-16.346 Y-26.818 E7.8306
G1 X-17.453 Y-26.488 E7.88857
G1 X-18.582 Y-26.394 E7.94543
G1 X-19.596 Y-26.458 E7.99642
G1 X-20.374 Y-26.673 E8.03693
G1 X-20.962 Y-26.935 E8.06924
G1 X-21.383 Y-27.225 E8.0949
G1 X-22.088 Y-26.82 E8.1357
G1 X-23.189 Y-26.49 E8.19338
G1 X-24.305 Y-26.392 E8.2496
G1 X-25.194 Y-26.442 E8.29429
G1 X-26.215 Y-26.717 E8.34736
G1 X-26.668 Y-26.29 E8.3786
G1 X-27.634 Y-25.704 E8.4353
G1 X-28.729 Y-25.344 E8.49315
G1 X-29.878 Y-25.242 E8.55104
G1 X-31.02 Y-25.401 E8.60891
G1 X-32.097 Y-25.814 E8.6668
G1 X-33.009 Y-26.431 E8.72206
G1 X-33.872 Y-27.366 E8.78592
G1 X-34.38 Y-28.251 E8.83713
G1 X-34.733 Y-29.428 E8.8988
G1 X-34.803 Y-30.578 E8.95662
G1 X-34.733 Y-31.2 E8.98803
G1 X-35.6 Y-32.133 E9.05195
G1 X-36.143 Y-33.08 E9.10673
G1 X-36.496 Y-34.257 E9.1684
G1 X-36.566 Y-35.406 E9.22617
G1 X-36.376 Y-36.532 E9.28348
G1 X-36.721 Y-37.134 E9.3183
G1 X-37.075 Y-38.311 E9.37998
G1 X-37.144 Y-38.929 E9.41119
G1 X-37.075 Y-40.079 E9.46901
G1 X-36.747 Y-41.183 E9.52681
G1 X-36.14 Y-42.244 E9.58816
G1 X-35.394 Y-43.047 E9.64317
G1 X-34.438 Y-43.693 E9.70107
G1 X-33.362 Y-44.106 E9.75891
G1 X-32.263 Y-44.259 E9.8146
G1 X-31.04 Y-44.152 E9.87621
G1 X-30.285 Y-43.905 E9.91608
G1 X-29.202 Y-44.32 E9.97429
G1 X-28.104 Y-44.473 E10.02993
G1 X-27.588 Y-44.443 E10.05587
G1 X-27.588 Y-44.443 F7800
G1 X23.759 Y-28.272
G1 F1800
G1 X23.759 Y-29.087 E10.09677
G1 X23.376 Y-29.087 E10.11599
G1 X23.376 Y-27.971 E10.172
G1 X22.993 Y-27.575 E10.19965
G1 X22.993 Y-29.087 E10.27553
G1 X22.609 Y-29.087 E10.2948
G1 X22.609 Y-27.201 E10.38945
G1 X22.226 Y-26.956 E10.41227
G1 X22.226 Y-29.271 E10.52845
G1 E8.52845 F2400
G92 E0
G1 X22.226 Y-29.271 F7800
G1 X23.759 Y-40.422
G1 E2 F2400
G1 F1800
G1 X23.759 Y-41.051 E2.03157
G1 X23.573 Y-41.533 E2.0575
G1 X23.376 Y-41.815 E2.07476
G1 X23.376 Y-40.578 E2.13684
G1 X22.993 Y-40.578 E2.15606
G1 X22.993 Y-42.361 E2.24554
G1 X22.609 Y-42.715 E2.27175
G1 X22.609 Y-40.578 E2.379
G1 X22.226 Y-40.578 E2.39822
G1 X22.226 Y-43.047 E2.52213
G1 X21.843 Y-43.274 E2.54447
G1 X21.843 Y-26.723 E3.3751
G1 X21.46 Y-26.547 E3.39625
G1 X21.46 Y-43.468 E4.24545
G1 X21.077 Y-43.632 E4.26636
G1 X21.077 Y-26.414 E5.13046
G1 X20.693 Y-26.299 E5.15058
G1 X20.693 Y-43.727 E6.02522
G1 X20.31 Y-43.809 E6.04488
G1 X20.31 Y-26.245 E6.92635
G1 X19.927 Y-26.21 E6.94565
G1 X19.927 Y-43.85 E7.83093
G1 X19.544 Y-43.842 E7.85016
G1 X19.544 Y-26.18 E8.73654
G1 X19.16 Y-26.233 E8.75599
G1 X19.161 Y-43.835 E9.63936
G1 X18.777 Y-43.76 E9.659
G1 X18.777 Y-26.287 E10.5359
G1 X18.495 Y-26.326 E10.55019
G1 X18.394 Y-26.364 E10.55561
G1 X18.394 Y-43.656 E11.42342
G1 X18.011 Y-43.553 E11.44332
G1 X18.011 Y-26.511 E12.29859
G1 X17.628 Y-26.62 E12.31857
G1 X17.628 Y-43.341 E13.15773
G1 X17.244 Y-43.127 E13.17979
G1 X17.244 Y-26.494 E14.01453
G1 X16.861 Y-26.368 E14.03476
G1 X16.861 Y-42.838 E14.86132
G1 X16.478 Y-42.478 E14.8877
G1 X16.478 Y-26.242 E15.70252
G1 X16.095 Y-26.207 E15.72182
G1 X16.095 Y-42.222 E16.52555
G1 X15.712 Y-42.175 E16.54492
G1 X15.712 Y-26.173 E17.34799
G1 X15.328 Y-26.154 E17.36728
G1 X15.328 Y-42.128 E18.16895
G1 X14.945 Y-42.022 E18.18889
G1 X14.945 Y-26.208 E18.98253
G1 X14.562 Y-26.261 E19.00193
G1 X14.562 Y-42.183 E19.80099
G1 X14.179 Y-42.512 E19.82633
G1 X14.179 Y-26.353 E20.63728
G1 X13.796 Y-26.487 E20.65764
G1 X13.796 Y-42.765 E21.47457
G1 X13.412 Y-43.005 E21.4973
G1 X13.412 Y-26.65 E22.31809
G1 X13.029 Y-26.534 E22.33817
G1 X13.029 Y-43.14 E23.17156
G1 X12.646 Y-43.275 E23.19194
G1 X12.646 Y-26.432 E24.03722
G1 X12.263 Y-26.398 E24.05652
G1 X12.263 Y-43.387 E24.90913
G1 X11.88 Y-43.408 E24.92838
G1 X11.88 Y-26.364 E25.78375
G1 X11.496 Y-26.371 E25.80302
G1 X11.496 Y-43.429 E26.65909
G1 X11.113 Y-43.44 E26.67832
G1 X11.081 Y-26.418 E27.53259
G1 X10.73 Y-26.48 E27.55048
G1 X10.73 Y-43.374 E28.39832
G1 X10.347 Y-43.309 E28.41782
G1 X10.347 Y-26.59 E29.25688
G1 X9.963 Y-26.73 E29.27739
G1 X9.963 Y-43.231 E30.10551
G1 X9.58 Y-43.117 E30.12556
G1 X9.58 Y-26.834 E30.94274
G1 X9.197 Y-26.725 E30.96272
G1 X9.197 Y-43.003 E31.77965
G1 X8.814 Y-42.803 E31.80133
G1 X8.814 Y-26.616 E32.61369
G1 X8.431 Y-26.513 E32.63359
G1 X8.431 Y-42.702 E33.44605
G1 X8.047 Y-42.818 E33.46618
G1 X8.047 Y-26.437 E34.28828
G1 X7.664 Y-26.361 E34.30788
G1 X7.664 Y-42.852 E35.1355
G1 X7.281 Y-42.886 E35.1548
G1 X7.281 Y-26.355 E35.98442
G1 X6.928 Y-26.358 E36.00214
G1 X6.898 Y-42.891 E36.83187
G1 X6.515 Y-42.848 E36.85121
G1 X6.515 Y-26.446 E37.67436
G1 X6.131 Y-26.526 E37.69405
G1 X6.131 Y-42.786 E38.51007
G1 X5.748 Y-42.829 E38.52941
G1 X5.748 Y-26.67 E39.34036
G1 X5.365 Y-26.837 E39.36133
G1 X5.365 Y-42.949 E40.16993
G1 X4.982 Y-43.027 E40.18955
G1 X4.982 Y-27.045 E40.99162
G1 X4.599 Y-26.946 E41.01147
G1 X4.599 Y-43.061 E41.82022
G1 X4.215 Y-43.095 E41.83957
G1 X4.215 Y-26.82 E42.65635
G1 X3.832 Y-26.75 E42.67589
G1 X3.832 Y-43.066 E43.49472
G1 X3.449 Y-43.013 E43.51412
G1 X3.449 Y-26.715 E44.33205
G1 X3.066 Y-26.681 E44.35135
G1 X3.066 Y-42.959 E45.16828
G1 X2.682 Y-42.819 E45.18879
G1 X2.682 Y-26.715 E45.99698
G1 X2.299 Y-26.764 E46.01636
G1 X2.299 Y-42.796 E46.82094
G1 X1.916 Y-42.83 E46.84024
G1 X1.916 Y-26.832 E47.64311
G1 X1.533 Y-26.97 E47.66354
G1 X1.533 Y-42.864 E48.46119
G1 X1.15 Y-42.841 E48.48045
G1 X1.15 Y-27.117 E49.26957
G1 X.962 Y-27.189 E49.27967
G1 X.766 Y-27.124 E49.29003
G1 X.766 Y-42.788 E50.07614
G1 X.383 Y-42.734 E50.09555
G1 X.383 Y-26.997 E50.88533
G1 X0 Y-26.871 E50.90556
G1 X0 Y-42.601 E51.69498
G1 X-.233 Y-42.511 E51.70752
G1 X-.383 Y-42.603 E51.71635
G1 X-.383 Y-26.787 E52.51009
G1 X-.766 Y-26.751 E52.5294
G1 X-.766 Y-42.838 E53.33674
G1 X-1.15 Y-42.994 E53.35754
G1 X-1.15 Y-26.715 E54.17452
G1 X-1.232 Y-26.707 E54.17865
G1 X-1.533 Y-26.738 E54.19384
G1 X-1.533 Y-43.122 E55.01609
G1 X-1.916 Y-43.244 E55.03626
G1 X-1.916 Y-26.783 E55.86237
G1 X-2.299 Y-26.847 E55.88186
G1 X-2.299 Y-43.281 E56.70662
G1 X-2.682 Y-43.318 E56.72593
G1 X-2.682 Y-26.975 E57.54612
G1 X-3.066 Y-27.117 E57.56667
G1 X-3.066 Y-43.328 E58.38023
G1 X-3.449 Y-43.286 E58.39957
G1 X-3.449 Y-27.294 E59.20214
G1 X-3.832 Y-27.544 E59.22509
G1 X-3.832 Y-43.229 E60.01226
G1 X-4.215 Y-43.135 E60.03205
G1 X-4.215 Y-27.422 E60.82062
G1 X-4.599 Y-27.193 E60.84306
G1 X-4.599 Y-42.992 E61.63595
G1 X-4.982 Y-42.849 E61.65647
G1 X-4.982 Y-26.984 E62.45267
G1 X-5.365 Y-26.862 E62.47284
G1 X-5.365 Y-42.634 E63.26437
G1 X-5.748 Y-42.866 E63.28684
G1 X-5.748 Y-26.744 E64.09594
G1 X-6.131 Y-26.654 E64.11568
G1 X-6.131 Y-43.089 E64.94049
G1 X-6.515 Y-43.215 E64.96077
G1 X-6.515 Y-26.628 E65.7932
G1 X-6.898 Y-26.603 E65.81246
G1 X-6.898 Y-43.341 E66.65247
G1 X-7.281 Y-43.43 E66.6722
G1 X-7.281 Y-26.616 E67.51603
G1 X-7.664 Y-26.65 E67.53533
G1 X-7.664 Y-43.465 E68.37921
G1 X-8.047 Y-43.499 E68.39851
G1 X-8.047 Y-26.684 E69.24239
G1 X-8.431 Y-26.79 E69.26238
G1 X-8.431 Y-43.482 E70.10008
G1 X-8.814 Y-43.428 E70.11949
G1 X-8.814 Y-26.911 E70.94841
G1 X-9.197 Y-27.032 E70.96857
G1 X-9.197 Y-43.375 E71.78876
G1 X-9.58 Y-43.247 E71.80903
G1 X-9.58 Y-27.262 E72.61125
G1 X-9.748 Y-27.394 E72.62197
G1 X-9.963 Y-27.265 E72.63455
G1 X-9.963 Y-43.1 E73.42924
G1 X-10.347 Y-42.953 E73.44988
G1 X-10.347 Y-27.037 E74.24864
G1 X-10.73 Y-26.827 E74.27056
G1 X-10.73 Y-42.944 E75.07941
G1 X-11.113 Y-43.221 E75.10313
G1 X-11.113 Y-26.704 E75.93205
G1 X-11.496 Y-26.586 E75.95216
G1 X-11.496 Y-43.453 E76.79865
G1 X-11.88 Y-43.657 E76.82047
G1 X-11.88 Y-26.496 E77.68171
G1 X-12.263 Y-26.466 E77.70099
G1 X-12.263 Y-43.782 E78.57001
G1 X-12.646 Y-43.908 E78.59024
G1 X-12.646 Y-26.435 E79.46714
G1 X-13.029 Y-26.434 E79.48636
G1 X-13.029 Y-43.979 E80.36687
G1 X-13.412 Y-44.022 E80.38621
G1 X-13.412 Y-26.457 E81.26773
G1 X-13.773 Y-26.478 E81.28588
G1 X-13.796 Y-44.044 E82.16745
G1 X-14.179 Y-44.015 E82.18673
G1 X-14.179 Y-26.59 E83.06122
G1 X-14.562 Y-26.715 E83.08144
G1 X-14.562 Y-43.962 E83.947
G1 X-14.945 Y-43.908 E83.96641
G1 X-14.945 Y-26.884 E84.82077
G1 X-15.328 Y-27.125 E84.84348
G1 X-15.328 Y-43.763 E85.67847
G1 X-15.712 Y-43.616 E85.69911
G1 X-15.712 Y-27.383 E86.51378
G1 X-15.837 Y-27.468 E86.52137
G1 X-16.095 Y-27.32 E86.5363
G1 X-16.095 Y-43.427 E87.34464
G1 X-16.478 Y-43.185 E87.36738
G1 X-16.478 Y-27.103 E88.17447
G1 X-16.861 Y-26.989 E88.19452
G1 X-16.861 Y-42.899 E88.99298
G1 X-17.244 Y-42.516 E89.02016
G1 X-17.244 Y-26.874 E89.80517
G1 X-17.511 Y-26.795 E89.81914
G1 X-17.628 Y-26.785 E89.82503
G1 X-17.628 Y-42.535 E90.61546
G1 X-18.011 Y-42.482 E90.63486
G1 X-18.011 Y-26.753 E91.42423
G1 X-18.394 Y-26.721 E91.44352
G1 X-18.394 Y-42.43 E92.23189
G1 X-18.777 Y-42.338 E92.25166
G1 X-18.777 Y-26.717 E93.03561
G1 X-19.161 Y-26.741 E93.05492
G1 X-19.16 Y-42.204 E93.83094
G1 X-19.46 Y-42.099 E93.84689
G1 X-19.544 Y-42.181 E93.85278
G1 X-19.544 Y-26.766 E94.6264
G1 X-19.927 Y-26.872 E94.64634
G1 X-19.927 Y-42.507 E95.431
G1 X-20.31 Y-42.742 E95.45355
G1 X-20.31 Y-26.985 E96.24433
G1 X-20.693 Y-27.155 E96.26536
G1 X-20.693 Y-42.978 E97.05945
G1 X-21.077 Y-43.11 E97.07983
G1 X-21.077 Y-27.391 E97.8687
G1 X-21.369 Y-27.592 E97.88649
G1 X-21.46 Y-27.539 E97.89178
G1 X-21.46 Y-43.239 E98.6797
G1 X-21.843 Y-43.337 E98.69954
G1 X-21.843 Y-27.319 E99.50342
G1 X-22.226 Y-27.102 E99.52551
G1 X-22.226 Y-43.382 E100.34254
G1 X-22.609 Y-43.413 E100.36182
G1 X-22.609 Y-26.988 E101.18612
G1 X-22.993 Y-26.873 E101.20624
G1 X-22.993 Y-43.408 E102.03606
G1 X-23.376 Y-43.358 E102.05544
G1 X-23.376 Y-26.785 E102.88717
G1 X-23.759 Y-26.752 E102.90646
G1 X-23.759 Y-43.307 E103.73729
G1 X-23.876 Y-43.292 E103.74321
G1 X-24.142 Y-43.192 E103.75747
G1 X-24.142 Y-26.718 E104.58423
G1 X-24.31 Y-26.703 E104.59269
G1 X-24.525 Y-26.716 E104.6035
G1 X-24.525 Y-43.048 E105.42314
G1 X-24.792 Y-42.949 E105.43743
G1 X-24.909 Y-43.062 E105.44559
G1 X-24.909 Y-26.737 E106.26488
G1 X-25.148 Y-26.751 E106.27689
G1 X-25.292 Y-26.785 E106.28432
G1 X-25.292 Y-43.336 E107.11495
G1 X-25.675 Y-43.569 E107.13745
G1 X-25.675 Y-26.877 E107.97515
G1 X-26.058 Y-26.987 E107.99515
G1 X-26.058 Y-43.77 E108.83742
G1 X-26.441 Y-43.896 E108.85765
G1 X-26.441 Y-26.93 E109.7091
G1 X-26.825 Y-26.569 E109.73555
G1 X-26.825 Y-44.021 E110.61139
G1 X-27.208 Y-44.091 E110.63093
G1 X-27.208 Y-26.325 E111.52253
G1 X-27.591 Y-26.093 E111.545
G1 X-27.591 Y-44.133 E112.45035
G1 X-27.974 Y-44.155 E112.4696
G1 X-27.974 Y-25.919 E113.38479
G1 X-28.358 Y-25.793 E113.40507
G1 X-28.358 Y-44.125 E114.32508
G1 X-28.741 Y-44.071 E114.34449
G1 X-28.741 Y-25.667 E115.26811
G1 X-29.124 Y-25.621 E115.28747
G1 X-29.124 Y-44.018 E116.21074
G1 X-29.507 Y-43.871 E116.23133
G1 X-29.507 Y-25.586 E117.14898
G1 X-29.87 Y-25.554 E117.16727
G1 X-29.89 Y-43.724 E118.07915
G1 X-30.274 Y-43.576 E118.0998
G1 X-30.274 Y-25.61 E119.00144
G1 X-30.657 Y-25.664 E119.02085
G1 X-30.657 Y-43.7 E119.926
G1 X-31.04 Y-43.826 E119.94623
G1 X-31.04 Y-25.741 E120.85384
G1 X-31.423 Y-25.888 E120.87443
G1 X-31.423 Y-43.883 E121.77753
