; generated by PrusaSlicer 2.9.0 on 2025-03-12 at 10:51:53 UTC

; 

; external perimeters extrusion width = 0.45mm
; perimeters extrusion width = 0.45mm
; infill extrusion width = 0.45mm
; solid infill extrusion width = 0.45mm
; top infill extrusion width = 0.40mm
; support material extrusion width = 0.35mm
; first layer extrusion width = 0.42mm

M190 S60 ; set bed temperature and wait for it to be reached
M104 S215 ; set temperature
;TYPE:Custom
G28 ; home all axes
G1 Z5 F5000 ; lift nozzle
M109 S215 ; set temperature and wait for it to be reached
G21 ; set units to millimeters
G90 ; use absolute coordinates
M82 ; use absolute distances for extrusion
G92 E0
; Filament gcode
M107
;LAYER_CHANGE
;Z:0.35
;HEIGHT:0.35
G1 E-2 F2400
G1 Z.35 F7800
G1 X0 Y-23.977
G1 E.00001 F2400
;TYPE:Skirt/Brim
;WIDTH:0.42
G1 F1800
G1 X-7 Y-23.977 E.3513
G1 X-9.177 Y-24.374 E.46236
G1 X-11.075 Y-25.513 E.57345
G1 X-12.448 Y-27.249 E.68453
G1 X-13.172 Y-30.15 E.83458
G1 X-13.172 Y-45.15 E1.58737
G1 X-12.776 Y-47.327 E1.69842
G1 X-11.636 Y-49.225 E1.80953
G1 X-9.901 Y-50.598 E1.92057
G1 X-7 Y-51.322 E2.07062
G1 X7 Y-51.322 E2.77322
G1 X9.177 Y-50.926 E2.88427
G1 X11.075 Y-49.786 E2.99538
G1 X12.448 Y-48.051 E3.10642
G1 X13.172 Y-45.15 E3.25647
G1 X13.172 Y-30.15 E4.00926
G1 X12.776 Y-27.973 E4.12031
G1 X11.636 Y-26.075 E4.23142
G1 X9.901 Y-24.702 E4.34246
G1 X7 Y-23.977 E4.49253
G1 X.06 Y-23.977 E4.84082
G1 E2.84082 F2400
G92 E0
G1 X.06 Y-23.977 F7800
G92 E0
G1 X6.1 Y-44.217
G1 E2 F2400
;TYPE:Perimeter
;WIDTH:0.42
G1 F1800
G1 X6.1 Y-38.15 E2.30448
G1 X6.1 Y-31.05 E2.6608
G1 X-6.1 Y-31.05 E3.27307
G1 X-6.1 Y-44.25 E3.93552
G1 X6.073 Y-44.25 E4.54643
G1 X6.073 Y-44.25 F7800
G1 X6.445 Y-44.561
G1 F1800
G1 X6.445 Y-38.15 E4.86817
G1 X6.445 Y-30.705 E5.2418
G1 X-6.445 Y-30.705 E5.8887
G1 X-6.445 Y-44.595 E6.58578
G1 X6.419 Y-44.595 E7.23137
G1 X6.419 Y-44.595 F7800
G1 X6.79 Y-44.903
;TYPE:External perimeter
G1 F1800
G1 X6.79 Y-38.15 E7.57028
G1 X6.79 Y-30.36 E7.96123
G1 X-6.79 Y-30.36 E8.64275
G1 X-6.79 Y-44.94 E9.37446
G1 X6.767 Y-44.94 E10.05483
G1 X6.788 Y-44.54 F7800
G1 X5.997 Y-43.444
;TYPE:Solid infill
;WIDTH:0.422508
G1 F1800
G1 X5.449 Y-43.991 E10.09397
G1 X4.958 Y-43.991 E10.11879
G1 X5.842 Y-43.108 E10.18195
G1 X5.842 Y-42.617 E10.20677
G1 X4.467 Y-43.991 E10.30503
G1 X3.976 Y-43.991 E10.32985
G1 X5.842 Y-42.125 E10.46325
G1 X5.842 Y-41.634 E10.48807
G1 X3.484 Y-43.991 E10.65661
G1 X2.993 Y-43.991 E10.68143
G1 X5.842 Y-41.143 E10.88507
G1 X5.842 Y-40.652 E10.90989
G1 X2.502 Y-43.991 E11.14863
G1 X2.01 Y-43.991 E11.1735
G1 X5.842 Y-40.16 E11.44741
G1 X5.842 Y-39.669 E11.47223
G1 X1.519 Y-43.991 E11.78124
G1 X1.028 Y-43.991 E11.80606
G1 X5.842 Y-39.178 E12.15018
G1 X5.842 Y-38.686 E12.17505
G1 X.537 Y-43.991 E12.5543
G1 X.045 Y-43.991 E12.57917
G1 X5.842 Y-38.195 E12.99356
G1 X5.842 Y-37.704 E13.01838
G1 X-.446 Y-43.991 E13.46787
G1 X-.937 Y-43.991 E13.49269
G1 X5.842 Y-37.212 E13.97732
G1 X5.842 Y-36.721 E14.00214
G1 X-1.429 Y-43.991 E14.52191
G1 X-1.92 Y-43.991 E14.54673
G1 X5.842 Y-36.23 E15.1016
G1 X5.842 Y-35.739 E15.12642
G1 X-2.411 Y-43.991 E15.71639
G1 X-2.903 Y-43.991 E15.74126
G1 X5.842 Y-35.247 E16.3664
G1 X5.842 Y-34.756 E16.39122
G1 X-3.394 Y-43.991 E17.05146
G1 X-3.885 Y-43.991 E17.07628
G1 X5.842 Y-34.265 E17.77162
G1 X5.842 Y-33.773 E17.79649
G1 X-4.376 Y-43.991 E18.52697
G1 X-4.868 Y-43.991 E18.55184
G1 X5.842 Y-33.282 E19.31746
G1 X5.842 Y-32.791 E19.34228
G1 X-5.359 Y-43.991 E20.143
G1 X-5.842 Y-43.991 E20.16742
G1 X5.842 Y-32.3 E21.00296
G1 X5.842 Y-31.808 E21.02783
G1 X-5.842 Y-43.491 E21.86308
G1 X-5.842 Y-43 E21.8879
G1 X5.842 Y-31.308 E22.72347
G1 X5.359 Y-31.308 E22.74789
G1 X-5.842 Y-42.509 E23.54865
G1 X-5.842 Y-42.017 E23.57352
G1 X4.868 Y-31.308 E24.33914
G1 X4.376 Y-31.308 E24.36401
G1 X-5.842 Y-41.526 E25.09449
G1 X-5.842 Y-41.035 E25.11931
G1 X3.885 Y-31.308 E25.81469
G1 X3.394 Y-31.308 E25.83951
G1 X-5.842 Y-40.544 E26.49979
G1 X-5.842 Y-40.052 E26.52466
G1 X2.902 Y-31.308 E27.14977
G1 X2.411 Y-31.308 E27.17459
G1 X-5.842 Y-39.561 E27.76459
G1 X-5.842 Y-39.07 E27.78941
G1 X1.92 Y-31.308 E28.34431
G1 X1.429 Y-31.308 E28.36913
G1 X-5.842 Y-38.578 E28.8889
G1 X-5.842 Y-38.087 E28.91372
G1 X.937 Y-31.308 E29.39835
G1 X.446 Y-31.308 E29.42317
G1 X-5.842 Y-37.596 E29.8727
G1 X-5.842 Y-37.105 E29.89752
G1 X-.045 Y-31.308 E30.31195
G1 X-.537 Y-31.308 E30.33682
G1 X-5.842 Y-36.613 E30.71607
G1 X-5.842 Y-36.122 E30.74089
G1 X-1.028 Y-31.308 E31.08504
G1 X-1.519 Y-31.308 E31.10986
G1 X-5.842 Y-35.631 E31.41891
G1 X-5.842 Y-35.139 E31.44378
G1 X-2.01 Y-31.308 E31.71769
G1 X-2.502 Y-31.308 E31.74256
G1 X-5.842 Y-34.648 E31.98134
G1 X-5.842 Y-34.157 E32.00616
G1 X-2.993 Y-31.308 E32.20983
G1 X-3.484 Y-31.308 E32.23465
G1 X-5.842 Y-33.665 E32.40319
G1 X-5.842 Y-33.174 E32.42801
G1 X-3.976 Y-31.308 E32.56141
G1 X-4.467 Y-31.308 E32.58623
G1 X-5.842 Y-32.683 E32.68453
G1 X-5.842 Y-32.192 E32.70935
G1 X-4.958 Y-31.308 E32.77255
G1 X-5.45 Y-31.308 E32.79742
G1 X-5.997 Y-31.856 E32.83656
M106 S127.5
;LAYER_CHANGE
;Z:0.65
;HEIGHT:0.3
G1 Z.65 F7800
M104 S210 ; set temperature
G1 E30.83656 F2400
G92 E0
G1 X-5.997 Y-31.856 F7800
G1 X6.004 Y-44.154
G1 E2 F2400
;TYPE:Perimeter
;WIDTH:0.45
G1 F3600
G1 X6.004 Y-38.15 E2.28877
G1 X6.004 Y-31.146 E2.62564
G1 X-6.004 Y-31.146 E3.20318
G1 X-6.004 Y-44.154 E3.82882
G1 X5.944 Y-44.154 E4.40348
G1 X5.944 Y-44.154 F7800
G1 X6.389 Y-44.539
G1 F3600
G1 X6.389 Y-38.15 E4.71077
G1 X6.389 Y-30.76 E5.0662
G1 X-6.389 Y-30.76 E5.68078
G1 X-6.389 Y-44.539 E6.3435
G1 X6.329 Y-44.539 E6.95519
G1 X6.329 Y-44.539 F7800
G1 X6.775 Y-44.925
;TYPE:External perimeter
G1 F1800
G1 X6.775 Y-38.15 E7.28104
G1 X6.775 Y-30.375 E7.65499
G1 X-6.775 Y-30.375 E8.3067
G1 X-6.775 Y-44.925 E9.0065
G1 X6.715 Y-44.925 E9.65532
G1 X6.774 Y-44.529 F7800
G1 E7.65532 F2400
G92 E0
G1 X-5.61 Y-43.833 F7800
G1 E2 F2400
;TYPE:Solid infill
;WIDTH:0.543559
G1 F1200
G1 X-5.652 Y-43.875 E2.00355
G1 X-5.71 Y-43.86 E2.00713
G1 X-5.726 Y-43.802 E2.01073
G1 X-5.683 Y-43.76 E2.01432
G1 X-5.625 Y-43.775 E2.0179
;WIDTH:0.45
G1 X-5.715 Y-43.159 E2.04784
G1 X-5.009 Y-43.864 E2.09583
G1 X-4.464 Y-43.864 E2.12204
G1 X-5.715 Y-42.614 E2.2071
G1 X-5.715 Y-42.069 E2.23331
G1 X-3.919 Y-43.864 E2.35544
G1 X-3.373 Y-43.864 E2.3817
G1 X-5.715 Y-41.523 E2.54097
G1 X-5.715 Y-40.978 E2.56718
G1 X-2.828 Y-43.864 E2.76352
G1 X-2.283 Y-43.864 E2.78973
G1 X-5.715 Y-40.433 E3.02314
G1 X-5.715 Y-39.887 E3.0494
G1 X-1.737 Y-43.864 E3.31994
G1 X-1.192 Y-43.864 E3.34615
G1 X-5.715 Y-39.342 E3.65376
G1 X-5.715 Y-38.797 E3.67997
G1 X-.647 Y-43.864 E4.02466
G1 X-.101 Y-43.864 E4.05092
G1 X-5.715 Y-38.251 E4.43274
G1 X-5.715 Y-37.706 E4.45895
G1 X.444 Y-43.864 E4.87784
G1 X.989 Y-43.864 E4.90405
G1 X-5.715 Y-37.161 E5.36001
G1 X-5.715 Y-36.615 E5.38627
G1 X1.535 Y-43.864 E5.87937
G1 X2.08 Y-43.864 E5.90558
G1 X-5.715 Y-36.07 E6.43575
G1 X-5.715 Y-35.524 E6.46201
G1 X2.625 Y-43.864 E7.02929
G1 X3.171 Y-43.864 E7.05555
G1 X-5.715 Y-34.979 E7.65993
G1 X-5.715 Y-34.434 E7.68614
G1 X3.716 Y-43.864 E8.32759
G1 X4.261 Y-43.864 E8.3538
G1 X-5.715 Y-33.888 E9.03236
G1 X-5.715 Y-33.343 E9.05857
G1 X4.807 Y-43.864 E9.77423
G1 X5.352 Y-43.864 E9.80044
G1 X-5.715 Y-32.798 E10.55317
G1 X-5.715 Y-32.252 E10.57943
G1 X5.715 Y-43.681 E11.35685
G1 X5.835 Y-43.925 E11.36993
;WIDTH:0.404381
G1 X5.794 Y-43.914 E11.37173
G1 X5.775 Y-43.985 E11.37485
G1 X5.846 Y-43.966 E11.37797
G1 X5.846 Y-43.966 F7800
G1 X5.715 Y-43.136
;WIDTH:0.45
G1 F1200
G1 X-5.715 Y-31.707 E12.15539
G1 X-5.764 Y-31.325 E12.17391
;WIDTH:0.404381
G1 X-5.805 Y-31.314 E12.17571
G1 X-5.824 Y-31.385 E12.17883
G1 X-5.753 Y-31.366 E12.18195
;WIDTH:0.45
G1 X-5.441 Y-31.435 E12.19732
G1 X5.715 Y-42.591 E12.95614
G1 X5.715 Y-42.045 E12.9824
G1 X-4.896 Y-31.435 E13.70411
G1 X-4.35 Y-31.435 E13.73037
G1 X5.715 Y-41.5 E14.41498
G1 X5.715 Y-40.955 E14.44119
G1 X-3.805 Y-31.435 E15.08873
G1 X-3.26 Y-31.435 E15.11494
G1 X5.715 Y-40.409 E15.72537
G1 X5.715 Y-39.864 E15.75158
G1 X-2.714 Y-31.435 E16.32491
G1 X-2.169 Y-31.435 E16.35112
G1 X5.715 Y-39.319 E16.88738
G1 X5.715 Y-38.773 E16.91364
G1 X-1.623 Y-31.435 E17.41276
G1 X-1.078 Y-31.435 E17.43897
G1 X5.715 Y-38.228 E17.90102
G1 X5.715 Y-37.683 E17.92723
G1 X-.533 Y-31.435 E18.35221
G1 X.013 Y-31.435 E18.37847
G1 X5.715 Y-37.137 E18.76631
G1 X5.715 Y-36.592 E18.79252
G1 X.558 Y-31.435 E19.14329
G1 X1.103 Y-31.435 E19.1695
G1 X5.715 Y-36.047 E19.4832
G1 X5.715 Y-35.501 E19.50946
G1 X1.649 Y-31.435 E19.78602
G1 X2.194 Y-31.435 E19.81223
G1 X5.715 Y-34.956 E20.05172
G1 X5.715 Y-34.411 E20.07793
G1 X2.739 Y-31.435 E20.28035
G1 X3.285 Y-31.435 E20.30661
G1 X5.715 Y-33.865 E20.4719
G1 X5.715 Y-33.32 E20.49811
G1 X3.83 Y-31.435 E20.62633
G1 X3.723 Y-31.282 E20.63531
;WIDTH:0.404381
G1 X3.652 Y-31.301 E20.63843
G1 X3.671 Y-31.23 E20.64155
G1 X3.712 Y-31.241 E20.64335
G1 E18.64335 F2400
G92 E0
G1 X3.712 Y-31.241 F7800
G1 X5.578 Y-32.638
G1 E2 F2400
;WIDTH:0.45
G1 F1200
G1 X4.375 Y-31.435 E2.08183
G1 X5.715 Y-31.435 E2.14628
G1 X5.715 Y-32.775 E2.21073
G1 X5.715 Y-32.775 F7800
G1 X5.37 Y-31.84
;WIDTH:0.463245
G1 F1200
G1 X5.287 Y-31.863 E2.21501
G1 X5.309 Y-31.779 E2.21933
G1 X5.358 Y-31.792 E2.22185
M106 S255
;LAYER_CHANGE
;Z:0.95
;HEIGHT:0.3
G1 Z.95 F7800
G1 E.22185 F2400
G92 E0
G1 X5.358 Y-31.792 F7800
G1 X6.004 Y-44.154
G1 E2 F2400
;TYPE:Perimeter
;WIDTH:0.45
G1 F3600
G1 X6.004 Y-38.15 E2.28877
G1 X6.004 Y-31.146 E2.62564
G1 X-6.004 Y-31.146 E3.20318
G1 X-6.004 Y-44.154 E3.82882
G1 X5.944 Y-44.154 E4.40348
G1 X5.944 Y-44.154 F7800
G1 X6.389 Y-44.539
G1 F3600
G1 X6.389 Y-38.15 E4.71077
G1 X6.389 Y-30.76 E5.0662
G1 X-6.389 Y-30.76 E5.68078
G1 X-6.389 Y-44.539 E6.3435
G1 X6.329 Y-44.539 E6.95519
G1 X6.329 Y-44.539 F7800
G1 X6.775 Y-44.925
;TYPE:External perimeter
G1 F1800
G1 X6.775 Y-38.15 E7.28104
G1 X6.775 Y-30.375 E7.65499
G1 X-6.775 Y-30.375 E8.3067
G1 X-6.775 Y-44.925 E9.0065
G1 X6.715 Y-44.925 E9.65532
G1 X6.774 Y-44.529 F7800
G1 E7.65532 F2400
G92 E0
G1 X-5.683 Y-31.54 F7800
G1 E2 F2400
;TYPE:Solid infill
;WIDTH:0.543559
G1 F1200
G1 X-5.726 Y-31.498 E2.00359
G1 X-5.71 Y-31.44 E2.00719
G1 X-5.652 Y-31.424 E2.01079
G1 X-5.61 Y-31.467 E2.01438
G1 X-5.625 Y-31.524 E2.0179
;WIDTH:0.45
G1 X-5.715 Y-32.14 E2.04784
G1 X-5.009 Y-31.435 E2.09583
G1 X-4.464 Y-31.435 E2.12204
G1 X-5.715 Y-32.686 E2.20713
G1 X-5.715 Y-33.231 E2.23334
G1 X-3.919 Y-31.435 E2.3555
G1 X-3.373 Y-31.435 E2.38176
G1 X-5.715 Y-33.776 E2.54103
G1 X-5.715 Y-34.322 E2.56729
G1 X-2.828 Y-31.435 E2.76366
G1 X-2.283 Y-31.435 E2.78987
G1 X-5.715 Y-34.867 E3.02331
G1 X-5.715 Y-35.412 E3.04952
G1 X-1.737 Y-31.435 E3.32006
G1 X-1.192 Y-31.435 E3.34627
G1 X-5.715 Y-35.958 E3.65392
G1 X-5.715 Y-36.503 E3.68013
G1 X-.647 Y-31.435 E4.02485
G1 X-.101 Y-31.435 E4.05111
G1 X-5.715 Y-37.049 E4.43297
G1 X-5.715 Y-37.594 E4.45918
G1 X.444 Y-31.435 E4.87811
G1 X.989 Y-31.435 E4.90432
G1 X-5.715 Y-38.139 E5.36032
G1 X-5.715 Y-38.685 E5.38658
G1 X1.535 Y-31.435 E5.87972
G1 X2.08 Y-31.435 E5.90593
G1 X-5.715 Y-39.23 E6.43614
G1 X-5.715 Y-39.775 E6.46235
G1 X2.625 Y-31.435 E7.02963
G1 X3.171 Y-31.435 E7.05589
G1 X-5.715 Y-40.321 E7.6603
G1 X-5.715 Y-40.866 E7.68651
G1 X3.716 Y-31.435 E8.32799
G1 X4.261 Y-31.435 E8.3542
G1 X-5.715 Y-41.411 E9.03276
G1 X-5.715 Y-41.957 E9.05902
G1 X4.807 Y-31.435 E9.77471
G1 X5.352 Y-31.435 E9.80092
G1 X-5.715 Y-42.502 E10.55368
G1 X-5.715 Y-43.047 E10.57989
G1 X5.715 Y-31.618 E11.35731
G1 X5.794 Y-31.386 E11.3691
;WIDTH:0.404381
G1 X5.775 Y-31.315 E11.37222
G1 X5.846 Y-31.334 E11.37534
G1 X5.835 Y-31.375 E11.37714
G1 X5.835 Y-31.375 F7800
G1 X5.715 Y-32.164
;WIDTH:0.45
G1 F1200
G1 X-5.715 Y-43.593 E12.15456
G1 X-5.764 Y-43.974 E12.17304
;WIDTH:0.404381
G1 X-5.753 Y-43.933 E12.17484
G1 X-5.824 Y-43.914 E12.17796
G1 X-5.805 Y-43.985 E12.18108
;WIDTH:0.45
G1 X-5.441 Y-43.864 E12.19953
G1 X5.715 Y-32.709 E12.95831
G1 X5.715 Y-33.254 E12.98452
G1 X-4.896 Y-43.864 E13.70623
G1 X-4.35 Y-43.864 E13.73249
G1 X5.715 Y-33.8 E14.41706
G1 X5.715 Y-34.345 E14.44327
G1 X-3.805 Y-43.864 E15.09077
G1 X-3.26 Y-43.864 E15.11698
G1 X5.715 Y-34.89 E15.72741
G1 X5.715 Y-35.436 E15.75367
G1 X-2.714 Y-43.864 E16.32697
G1 X-2.169 Y-43.864 E16.35318
G1 X5.715 Y-35.981 E16.88941
G1 X5.715 Y-36.526 E16.91562
G1 X-1.623 Y-43.864 E17.41474
G1 X-1.078 Y-43.864 E17.44095
G1 X5.715 Y-37.072 E17.90297
G1 X5.715 Y-37.617 E17.92918
G1 X-.533 Y-43.864 E18.35413
G1 X.013 Y-43.864 E18.38039
G1 X5.715 Y-38.162 E18.76823
G1 X5.715 Y-38.708 E18.79449
G1 X.558 Y-43.864 E19.14523
G1 X1.103 Y-43.864 E19.17144
G1 X5.715 Y-39.253 E19.48511
G1 X5.715 Y-39.798 E19.51132
G1 X1.649 Y-43.864 E19.78788
G1 X2.194 Y-43.864 E19.81409
G1 X5.715 Y-40.344 E20.05355
G1 X5.715 Y-40.889 E20.07976
G1 X2.739 Y-43.864 E20.28215
G1 X3.285 Y-43.864 E20.30841
G1 X5.715 Y-41.434 E20.4737
G1 X5.715 Y-41.98 E20.49996
G1 X3.83 Y-43.864 E20.62814
G1 X3.712 Y-44.059 E20.6391
;WIDTH:0.404381
G1 X3.723 Y-44.018 E20.6409
G1 X3.652 Y-43.999 E20.64402
G1 X3.671 Y-44.07 E20.64714
;WIDTH:0.45
G1 X4.375 Y-43.864 E20.68242
G1 X5.715 Y-43.864 E20.74687
G1 X5.715 Y-42.525 E20.81127
G1 X4.512 Y-43.728 E20.8931
G1 X4.512 Y-43.728 F7800
G1 X5.309 Y-43.52
;WIDTH:0.463245
G1 F1200
G1 X5.287 Y-43.437 E20.89737
G1 X5.37 Y-43.459 E20.90164
G1 X5.358 Y-43.507 E20.9041
;LAYER_CHANGE
;Z:1.25
;HEIGHT:0.3
G1 Z1.25 F7800
G1 X6.004 Y-44.154
;TYPE:Perimeter
;WIDTH:0.45
G1 F1883
G1 X6.004 Y-38.15 E21.19287
G1 X6.004 Y-31.146 E21.52974
G1 X-6.004 Y-31.146 E22.10728
G1 X-6.004 Y-44.154 E22.73292
G1 X5.944 Y-44.154 E23.30758
G1 X5.944 Y-44.154 F7800
G1 X6.389 Y-44.539
G1 F1883
G1 X6.389 Y-38.15 E23.61487
G1 X6.389 Y-30.76 E23.9703
G1 X-6.389 Y-30.76 E24.58488
G1 X-6.389 Y-44.539 E25.2476
G1 X6.329 Y-44.539 E25.85929
G1 X6.329 Y-44.539 F7800
G1 X6.775 Y-44.925
;TYPE:External perimeter
G1 F1800
G1 X6.775 Y-38.15 E26.18514
G1 X6.775 Y-30.375 E26.55909
G1 X-6.775 Y-30.375 E27.2108
G1 X-6.775 Y-44.925 E27.9106
G1 X6.715 Y-44.925 E28.55942
G1 X6.774 Y-44.529 F7800
G1 X5.522 Y-43.864
;TYPE:Solid infill
;WIDTH:0.483091
G1 F1200
G1 X5.602 Y-43.848 E28.56368
;WIDTH:0.516173
G1 X5.681 Y-43.831 E28.56823
G1 X5.698 Y-43.751 E28.57284
;WIDTH:0.483092
G1 X5.715 Y-43.672 E28.57706
;WIDTH:0.450011
G1 X5.715 Y-31.628 E29.15635
;WIDTH:0.483093
G1 X5.698 Y-31.548 E29.16062
;WIDTH:0.516175
G1 X5.681 Y-31.468 E29.16523
G1 X5.618 Y-31.453 E29.16888
;WIDTH:0.484554
G1 X5.555 Y-31.437 E29.17229
;WIDTH:0.452933
G1 X5.522 Y-31.435 E29.17389
;WIDTH:0.450011
G1 X-5.522 Y-31.435 E29.70508
;WIDTH:0.483088
G1 X-5.602 Y-31.452 E29.70935
;WIDTH:0.516171
G1 X-5.681 Y-31.468 E29.71389
G1 X-5.698 Y-31.548 E29.7185
;WIDTH:0.483091
G1 X-5.715 Y-31.628 E29.72277
;WIDTH:0.450011
G1 X-5.715 Y-43.672 E30.30206
;WIDTH:0.483093
G1 X-5.698 Y-43.751 E30.30628
;WIDTH:0.516175
G1 X-5.681 Y-43.831 E30.31089
G1 X-5.602 Y-43.848 E30.31544
;WIDTH:0.483093
G1 X-5.522 Y-43.864 E30.3197
;WIDTH:0.450011
G1 X5.329 Y-43.864 E30.84161
G1 X5.329 Y-43.864 F7800
G1 X4.422 Y-43.479
;TYPE:Internal infill
;WIDTH:0.45
G1 F1883
G1 X5.329 Y-43.479 E30.88523
G1 X5.329 Y-42.072 E30.9529
G1 X-5.329 Y-39.216 E31.4836
G1 X-5.329 Y-40.111 E31.52665
G1 X-4.426 Y-43.479 E31.69436
G1 X-5.329 Y-43.479 E31.73779
G1 X-5.329 Y-42.979 E31.76184
G1 X5.329 Y-32.321 E32.48678
G1 X5.329 Y-31.821 E32.51083
G1 X4.426 Y-31.821 E32.55426
G1 X5.329 Y-35.189 E32.72197
G1 X5.329 Y-36.084 E32.76502
G1 X-5.329 Y-33.228 E33.29572
G1 X-5.329 Y-34.799 E33.37128
G1 X-2.351 Y-31.821 E33.57384
G1 X-1.562 Y-31.821 E33.61179
G1 X1.562 Y-43.479 E34.19228
G1 X2.351 Y-43.479 E34.23023
G1 X5.329 Y-40.501 E34.43279
G1 X5.329 Y-38.187 E34.54409
;LAYER_CHANGE
;Z:1.55
;HEIGHT:0.3
G1 Z1.55 F7800
G1 E32.54409 F2400
G92 E0
G1 X5.329 Y-38.187 F7800
G1 X6.004 Y-44.154
G1 E2 F2400
;TYPE:Perimeter
;WIDTH:0.45
G1 F2714
G1 X6.004 Y-38.15 E2.28877
G1 X6.004 Y-31.146 E2.62564
G1 X-6.004 Y-31.146 E3.20318
G1 X-6.004 Y-44.154 E3.82882
G1 X5.944 Y-44.154 E4.40348
G1 X5.944 Y-44.154 F7800
G1 X6.389 Y-44.539
G1 F2714
G1 X6.389 Y-38.15 E4.71077
G1 X6.389 Y-30.76 E5.0662
G1 X-6.389 Y-30.76 E5.68078
G1 X-6.389 Y-44.539 E6.3435
G1 X6.329 Y-44.539 E6.95519
G1 X6.329 Y-44.539 F7800
G1 X6.775 Y-44.925
