; generated by PrusaSlicer 2.9.0 on 2025-03-11 at 18:37:40 UTC

; 

; external perimeters extrusion width = 0.45mm
; perimeters extrusion width = 0.45mm
; infill extrusion width = 0.45mm
; solid infill extrusion width = 0.45mm
; top infill extrusion width = 0.40mm
; support material extrusion width = 0.35mm
; first layer extrusion width = 0.42mm

M190 S60 ; set bed temperature and wait for it to be reached
M104 S215 ; set temperature
;TYPE:Custom
G28 ; home all axes
G1 Z5 F5000 ; lift nozzle
M109 S215 ; set temperature and wait for it to be reached
G21 ; set units to millimeters
G90 ; use absolute coordinates
M82 ; use absolute distances for extrusion
G92 E0
; Filament gcode
M107
;LAYER_CHANGE
;Z:0.35
;HEIGHT:0.35
G1 E-2 F2400
G1 Z.35 F7800
G1 X27.501 Y.654
G1 E.00001 F2400
;TYPE:Skirt/Brim
;WIDTH:0.42
G1 F1800
G1 X27.848 Y-13.933 E.73227
G1 X27.954 Y-15.095 E.79083
G1 X28.205 Y-16.344 E.85477
G1 X28.616 Y-17.62 E.92205
G1 X29.087 Y-18.651 E.97894
G1 X29.63 Y-19.598 E1.03372
G1 X30.462 Y-20.728 E1.10414
G1 X31.246 Y-21.573 E1.16199
G1 X32.312 Y-22.487 E1.23246
G1 X33.268 Y-23.132 E1.29034
G1 X34.513 Y-23.781 E1.3608
G1 X35.589 Y-24.194 E1.41864
G1 X40.526 Y-25.675 E1.67732
G1 X42.523 Y-26.022 E1.77904
G1 X44.302 Y-26.038 E1.86832
G1 X45.813 Y-25.854 E1.94471
G1 X50.352 Y-24.943 E2.17705
G1 X52.129 Y-24.406 E2.27021
G1 X53.404 Y-23.819 E2.34065
G1 X54.391 Y-23.221 E2.39857
G1 X55.5 Y-22.361 E2.469
G1 X56.326 Y-21.556 E2.52688
G1 X57.213 Y-20.468 E2.59733
G1 X57.829 Y-19.505 E2.6547
G1 X58.432 Y-18.286 E2.72295
G1 X58.851 Y-17.111 E2.78556
G1 X59.158 Y-15.774 E2.8544
G1 X59.288 Y-14.636 E2.91188
G1 X59.147 Y-2.569 E3.51751
G1 X58.974 Y-.799 E3.60676
G1 X57.615 Y5.175 E3.91423
G1 X53.924 Y16.86 E4.52921
G1 X52.889 Y18.816 E4.64027
G1 X51.232 Y20.282 E4.7513
G1 X49.163 Y21.069 E4.86239
G1 X48.038 Y21.172 E4.91909
G1 X38.038 Y21.172 E5.42095
G1 X35.861 Y20.776 E5.532
G1 X33.963 Y19.636 E5.64311
G1 X32.24 Y17.118 E5.79623
G1 X27.881 Y5.096 E6.438
G1 X27.578 Y3.625 E6.51337
G1 X27.472 Y1.89 E6.6006
G1 X27.5 Y.714 E6.65964
G1 E4.65964 F2400
G92 E0
G1 X27.5 Y.714 F7800
G92 E0
G1 X43.943 Y-19.876
G1 E2 F2400
;TYPE:Support material
G1 F1800
G1 X44.599 Y-19.802 E2.03313
G1 X45.664 Y-19.452 E2.08939
G1 X46.724 Y-18.81 E2.15158
G1 X47.915 Y-18.998 E2.21209
G1 X48.483 Y-18.965 E2.24064
G1 X49.138 Y-18.891 E2.27372
G1 X50.204 Y-18.542 E2.33001
G1 X51.19 Y-17.944 E2.38788
G1 X52.015 Y-17.138 E2.44576
G1 X52.632 Y-16.175 E2.50316
G1 X53.025 Y-15.072 E2.56192
G1 X53.156 Y-13.934 E2.61941
G1 X53.024 Y-12.788 E2.6773
G1 X52.638 Y-11.701 E2.73519
G1 X52.025 Y-10.744 E2.79223
G1 X51.743 Y-10.463 E2.81221
G1 X51.946 Y-9.893 E2.84258
G1 X52.077 Y-8.749 E2.90037
G1 X51.945 Y-7.597 E2.95856
G1 X51.559 Y-6.514 E3.01626
G1 X51.412 Y-6.283 E3.03
G1 X51.835 Y-5.869 E3.0597
G1 X52.458 Y-4.898 E3.1176
G1 X52.844 Y-3.811 E3.17549
G1 X52.975 Y-2.668 E3.23323
G1 X52.843 Y-1.516 E3.29142
G1 X52.458 Y-.432 E3.34915
G1 X51.835 Y.539 E3.40705
G1 X51.624 Y.745 E3.42185
G1 X51.73 Y1.035 E3.43735
G1 X51.865 Y2.175 E3.49496
G1 X51.73 Y3.315 E3.55257
G1 X51.321 Y4.417 E3.61156
G1 X50.684 Y5.367 E3.66896
G1 X49.834 Y6.15 E3.72696
G1 X48.473 Y6.907 E3.80512
G1 X48.473 Y4.82 E3.90986
G1 X48.218 Y4.565 E3.92796
G1 X37.858 Y4.565 E4.44789
G1 X37.603 Y4.82 E4.46599
G1 X37.603 Y6.833 E4.56701
G1 X36.601 Y6.556 E4.61918
G1 X35.999 Y6.24 E4.6533
G1 X35.511 Y5.936 E4.68215
G1 X34.719 Y5.187 E4.73686
G1 X34.098 Y4.216 E4.7947
G1 X33.731 Y3.125 E4.85247
G1 X33.642 Y2.037 E4.90725
G1 X33.734 Y1.284 E4.94532
G1 X34.089 Y.177 E5.00366
G1 X34.757 Y-.885 E5.06662
G1 X35.032 Y-1.144 E5.08558
G1 X34.875 Y-2.093 E5.13385
G1 X34.942 Y-3.245 E5.19176
G1 X35.268 Y-4.352 E5.24967
G1 X35.708 Y-5.152 E5.29549
G1 X35.264 Y-6.351 E5.35966
G1 X35.12 Y-7.761 E5.43079
G1 X35.174 Y-8.655 E5.47574
G1 X35.349 Y-9.34 E5.51122
G1 X35.586 Y-9.865 E5.54013
G1 X34.949 Y-10.574 E5.58796
G1 X34.442 Y-11.459 E5.63915
G1 X34.211 Y-12.12 E5.67429
G1 X34.018 Y-13.255 E5.73207
G1 X34.088 Y-14.404 E5.78984
G1 X34.442 Y-15.581 E5.85152
G1 X34.984 Y-16.528 E5.90628
G1 X35.769 Y-17.373 E5.96416
G1 X36.724 Y-18.018 E6.02199
G1 X37.801 Y-18.432 E6.0799
G1 X38.9 Y-18.585 E6.13559
G1 X40.049 Y-18.486 E6.19347
G1 X41.201 Y-19.343 E6.26553
G1 X42.277 Y-19.756 E6.32337
G1 X43.376 Y-19.909 E6.37906
G1 X43.892 Y-19.879 E6.405
G1 X43.892 Y-19.879 F7800
G1 X52.618 Y-1.346
G1 F1800
G1 X52.618 Y-3.057 E6.49087
G1 X52.54 Y-3.741 E6.52542
G1 X52.235 Y-4.598 E6.57107
G1 X52.235 Y-.732 E6.76509
G1 X51.852 Y-.062 E6.80382
G1 X51.852 Y-5.268 E7.06509
G1 X51.469 Y-5.793 E7.0977
G1 X51.469 Y.463 E7.41166
G1 X51.264 Y.663 E7.42603
G1 X51.469 Y1.469 E7.46777
G1 X51.469 Y2.881 E7.53863
G1 X51.426 Y3.243 E7.55693
G1 X51.085 Y4.163 E7.60617
G1 X51.085 Y-17.612 E8.69897
G1 X50.702 Y-17.876 E8.72232
G1 X50.702 Y4.783 E9.85948
G1 X50.319 Y5.281 E9.89101
G1 X50.319 Y-18.109 E11.06486
G1 X49.936 Y-18.303 E11.08641
G1 X49.936 Y5.634 E12.28771
G1 X49.553 Y5.951 E12.31266
G1 X49.553 Y-18.429 E13.53619
G1 X49.169 Y-18.555 E13.55647
G1 X49.169 Y6.164 E14.79702
G1 X48.786 Y6.378 E14.81904
G1 X48.786 Y-18.619 E16.07354
G1 X48.403 Y-18.659 E16.09287
G1 X48.403 Y4.311 E17.24564
G1 X48.02 Y4.255 E17.26507
G1 X48.02 Y-18.681 E18.41613
G1 X47.928 Y-18.687 E18.42076
G1 X47.637 Y-18.646 E18.43551
G1 X47.637 Y4.255 E19.58482
G1 X47.253 Y4.255 E19.60409
G1 X47.253 Y-18.593 E20.75074
G1 X46.87 Y-18.533 E20.7702
G1 X46.87 Y4.255 E21.91384
G1 X46.487 Y4.255 E21.93306
G1 X46.487 Y-18.59 E23.07956
G1 X46.104 Y-18.823 E23.10206
G1 X46.104 Y4.255 E24.26025
G1 X45.721 Y4.255 E24.27947
G1 X45.721 Y-19.055 E25.4493
G1 X45.337 Y-19.233 E25.47054
G1 X45.337 Y4.255 E26.64931
G1 X44.954 Y4.255 E26.66853
G1 X44.954 Y-19.359 E27.85362
G1 X44.571 Y-19.485 E27.87385
G1 X44.571 Y4.255 E29.06526
G1 X44.188 Y4.255 E29.08448
G1 X44.188 Y-19.536 E30.27845
G1 X43.805 Y-19.573 E30.29776
G1 X43.804 Y4.255 E31.49359
G1 X43.421 Y4.255 E31.51281
G1 X43.388 Y-19.597 E32.70985
G1 X43.038 Y-19.549 E32.72758
G1 X43.038 Y4.255 E33.92221
G1 X42.655 Y4.255 E33.94143
G1 X42.655 Y-19.495 E35.13335
G1 X42.272 Y-19.421 E35.15293
G1 X42.272 Y4.255 E36.34113
G1 X41.888 Y4.255 E36.3604
G1 X41.888 Y-19.274 E37.54122
G1 X41.505 Y-19.127 E37.56181
G1 X41.505 Y4.255 E38.73526
G1 X41.122 Y4.255 E38.75448
G1 X41.122 Y-18.915 E39.91729
G1 X40.739 Y-18.656 E39.94049
G1 X40.739 Y4.255 E41.0903
G1 X40.356 Y4.255 E41.10952
G1 X40.356 Y-18.354 E42.24417
G1 X40.162 Y-18.161 E42.2579
G1 X39.972 Y-18.183 E42.2675
G1 X39.972 Y4.255 E43.39357
G1 X39.589 Y4.255 E43.41279
G1 X39.589 Y-18.226 E44.54102
G1 X39.206 Y-18.256 E44.5603
G1 X39.206 Y4.255 E45.69004
G1 X38.823 Y4.255 E45.70926
G1 X38.823 Y-18.261 E46.83925
G1 X38.44 Y-18.207 E46.85866
G1 X38.44 Y4.255 E47.98594
G1 X38.056 Y4.255 E48.00521
G1 X38.056 Y-18.154 E49.12983
G1 X37.673 Y-18.05 E49.14975
G1 X37.673 Y4.311 E50.27196
G1 X37.293 Y4.691 E50.29893
G1 X37.293 Y6.426 E50.386
G1 X37.29 Y-17.903 E51.60697
G1 X36.907 Y-17.756 E51.62756
G1 X36.907 Y6.319 E52.83579
G1 X36.524 Y6.165 E52.85651
G1 X36.524 Y-17.508 E54.04456
G1 X36.14 Y-17.249 E54.06781
G1 X36.14 Y5.963 E55.23273
G1 X35.757 Y5.723 E55.25541
G1 X35.757 Y-4.64 E55.77549
G1 X35.374 Y-3.716 E55.82569
G1 X35.374 Y5.379 E56.28213
G1 X34.991 Y5.016 E56.30861
G1 X34.991 Y-.677 E56.59432
G1 X34.607 Y-.121 E56.62823
G1 X34.607 Y4.436 E56.85693
G1 X34.38 Y4.081 E56.87808
G1 X34.224 Y3.618 E56.9026
G1 X34.224 Y.259 E57.07117
G1 X34.224 Y.259 F7800
G1 X52.618 Y-12.11
G1 F1800
G1 X52.618 Y-15.296 E57.23106
G1 X52.235 Y-16.22 E57.28126
G1 X52.235 Y-11.648 E57.51071
G1 X51.852 Y-11.05 E57.54635
G1 X51.852 Y-16.818 E57.83582
G1 X51.469 Y-17.238 E57.86435
G1 X51.469 Y-6.722 E58.39211
G1 X51.469 Y-6.722 F7800
G1 X35.757 Y-5.379
G1 F1800
G1 X35.757 Y-9.49 E58.59842
G1 X35.957 Y-9.933 E58.62281
G1 X35.757 Y-10.133 E58.637
G1 X35.757 Y-16.904 E58.97681
G1 X35.374 Y-16.491 E59.00508
G1 X35.374 Y-10.551 E59.30318
G1 X34.991 Y-11.126 E59.33785
G1 X34.991 Y-15.915 E59.57819
G1 X34.607 Y-15.115 E59.62272
G1 X34.607 Y-11.482 E59.80505
G1 E57.80505 F2400
G92 E0
G1 X34.607 Y-11.482 F7800
G1 X38.938 Y5.9
G1 E2 F2400
;TYPE:Perimeter
;WIDTH:0.42
G1 F1800
G1 X47.138 Y5.9 E2.41152
G1 X47.138 Y10 E2.61728
G1 X47.138 Y14.1 E2.82304
G1 X38.938 Y14.1 E3.23456
G1 X38.938 Y5.96 E3.64307
G1 X38.938 Y5.96 F7800
G1 X38.593 Y5.555
G1 F1800
G1 X47.483 Y5.555 E4.08922
G1 X47.483 Y10 E4.3123
G1 X47.483 Y14.445 E4.53538
G1 X38.593 Y14.445 E4.98153
G1 X38.593 Y5.615 E5.42467
G1 X38.593 Y5.615 F7800
G1 X38.248 Y5.21
;TYPE:External perimeter
G1 F1800
G1 X47.828 Y5.21 E5.90545
G1 X47.828 Y10 E6.14584
G1 X47.828 Y14.79 E6.38623
G1 X38.248 Y14.79 E6.86701
G1 X38.248 Y5.27 E7.34478
G1 X38.644 Y5.211 F7800
G1 E5.34478 F2400
G92 E0
G1 X46.317 Y6.003 F7800
G1 E2 F2400
;TYPE:Solid infill
;WIDTH:0.429901
G1 F1800
G1 X46.88 Y6.566 E2.04111
G1 X46.88 Y7.068 E2.06703
G1 X45.97 Y6.158 E2.13347
G1 X45.468 Y6.158 E2.15939
G1 X46.88 Y7.57 E2.26248
G1 X46.88 Y8.071 E2.28834
G1 X44.967 Y6.158 E2.42801
G1 X44.465 Y6.158 E2.45393
G1 X46.88 Y8.573 E2.63025
G1 X46.88 Y9.075 E2.65617
G1 X43.963 Y6.158 E2.86914
G1 X43.461 Y6.158 E2.89506
G1 X46.88 Y9.577 E3.14468
G1 X46.88 Y10.078 E3.17054
G1 X42.96 Y6.158 E3.45674
G1 X42.458 Y6.158 E3.48266
G1 X46.88 Y10.58 E3.80551
G1 X46.88 Y11.082 E3.83143
G1 X41.956 Y6.158 E4.19094
G1 X41.454 Y6.158 E4.21686
G1 X46.88 Y11.584 E4.61302
G1 X46.88 Y12.085 E4.63888
G1 X40.953 Y6.158 E5.07162
G1 X40.451 Y6.158 E5.09754
G1 X46.88 Y12.587 E5.56693
G1 X46.88 Y13.089 E5.59285
G1 X39.949 Y6.158 E6.09889
G1 X39.447 Y6.158 E6.12481
G1 X46.88 Y13.591 E6.6675
G1 X46.88 Y13.842 E6.68046
G1 X46.629 Y13.842 E6.69342
G1 X39.197 Y6.409 E7.23607
G1 X39.197 Y6.911 E7.26199
G1 X46.127 Y13.842 E7.76799
G1 X45.625 Y13.842 E7.79391
G1 X39.197 Y7.413 E8.26326
G1 X39.197 Y7.915 E8.28918
G1 X45.123 Y13.842 E8.72188
G1 X44.622 Y13.842 E8.74774
G1 X39.197 Y8.416 E9.14386
G1 X39.197 Y8.918 E9.16978
G1 X44.12 Y13.842 E9.52925
G1 X43.618 Y13.842 E9.55517
G1 X39.197 Y9.42 E9.87799
G1 X39.197 Y9.922 E9.90391
G1 X43.116 Y13.842 E10.19008
G1 X42.615 Y13.842 E10.21594
G1 X39.197 Y10.423 E10.46553
G1 X39.197 Y10.925 E10.49145
G1 X42.113 Y13.842 E10.70439
G1 X41.611 Y13.842 E10.73031
G1 X39.197 Y11.427 E10.9066
G1 X39.197 Y11.929 E10.93252
G1 X41.109 Y13.842 E11.07215
G1 X40.608 Y13.842 E11.09801
G1 X39.197 Y12.43 E11.20107
G1 X39.197 Y12.932 E11.22699
G1 X40.106 Y13.842 E11.29339
G1 X39.604 Y13.842 E11.31931
G1 X39.041 Y13.279 E11.36042
M106 S127.5
;LAYER_CHANGE
;Z:0.65
;HEIGHT:0.3
G1 Z.65 F7800
M104 S210 ; set temperature
G1 E9.36042 F2400
G92 E0
G1 X39.041 Y13.279 F7800
G1 X38.763 Y-3.026
G1 E2 F2400
;TYPE:Support material
;WIDTH:0.35
G1 F3600
G1 X38.992 Y-3.343 E2.01393
G1 X39.272 Y-3.546 E2.02625
G1 X39.874 Y-3.714 E2.04852
G1 X39.895 Y-4.064 E2.06101
G1 X40.61 Y-3.921 E2.08699
G1 X40.946 Y-3.723 E2.10088
G1 X41.227 Y-3.453 E2.11476
G1 X41.57 Y-2.759 E2.14234
G1 X41.567 Y-1.981 E2.17006
G1 X41.316 Y-1.265 E2.19709
G1 X42.503 Y-1.24 E2.23939
G1 X43.281 Y-1.348 E2.26737
G1 X44.049 Y-1.206 E2.29519
G1 X44.668 Y-.74 E2.32279
G1 X45.013 Y-.046 E2.3504
G1 X45.077 Y.493 E2.36974
G1 X45.45 Y.827 E2.38758
G1 X46.115 Y.909 E2.41145
G1 X46.754 Y.671 E2.43574
G1 X47.159 Y.671 E2.45017
G1 X47.824 Y.927 E2.47555
G1 X48.101 Y1.175 E2.48879
G1 X48.434 Y1.812 E2.5144
G1 X48.434 Y2.538 E2.54026
G1 X48.101 Y3.175 E2.56587
G1 X47.474 Y3.602 E2.59289
G1 X46.796 Y3.683 E2.61721
G1 X46.442 Y3.601 E2.63015
G1 X45.821 Y3.182 E2.65684
G1 X45.596 Y2.837 E2.67151
G1 X45.39 Y1.841 E2.70774
G1 X44.5 Y1.628 E2.74034
G1 X43.677 Y2.003 E2.77256
G1 X43.288 Y2.029 E2.78645
G1 X42.546 Y1.818 E2.81393
G1 X41.976 Y1.298 E2.84142
G1 X41.766 Y.876 E2.85821
G1 X41.685 Y.184 E2.88303
G1 X41.784 Y-.309 E2.90094
G1 X41.471 Y-.746 E2.92009
G1 X40.797 Y-.893 E2.94467
G1 X40.226 Y-.717 E2.96596
G1 X39.789 Y-.697 E2.98154
G1 X39.092 Y-.908 E3.00748
G1 X38.782 Y-1.134 E3.02115
G1 X38.495 Y-1.478 E3.03711
G1 X38.251 Y-2.141 E3.06228
G1 X38.25 Y-2.606 E3.07885
G1 X38.345 Y-2.981 E3.09263
G1 X38.734 Y-3.579 E3.11804
G1 X39.101 Y-3.854 E3.13438
G1 X39.852 Y-4.066 E3.16218
G1 X39.852 Y-4.066 F7800
G1 X40.193 Y-4.397
G1 F3600
G1 X40.753 Y-4.243 E3.18287
G1 X41.159 Y-4.004 E3.19965
G1 X41.499 Y-3.677 E3.21645
G1 X41.755 Y-3.282 E3.23322
G1 X41.914 Y-2.839 E3.24999
G1 X41.966 Y-2.37 E3.2668
G1 X41.806 Y-1.604 E3.29468
G1 X42.482 Y-1.59 E3.31877
G1 X43.269 Y-1.7 E3.34708
G1 X43.741 Y-1.668 E3.36393
G1 X44.191 Y-1.529 E3.38071
G1 X44.598 Y-1.291 E3.39751
G1 X44.939 Y-.965 E3.41432
G1 X45.196 Y-.571 E3.43108
G1 X45.356 Y-.127 E3.44789
G1 X45.409 Y.321 E3.46396
G1 X45.601 Y.493 E3.47314
G1 X46.055 Y.549 E3.48944
G1 X46.681 Y.329 E3.51308
G1 X47.205 Y.321 E3.53175
G1 X47.968 Y.605 E3.56075
G1 X48.366 Y.942 E3.57933
G1 X48.751 Y1.661 E3.60838
G1 X48.83 Y2.175 E3.62691
G1 X48.751 Y2.689 E3.64544
G1 X48.366 Y3.408 E3.67449
G1 X48.033 Y3.706 E3.69041
G1 X47.566 Y3.94 E3.70902
G1 X46.758 Y4.034 E3.738
G1 X46.322 Y3.932 E3.75395
G1 X45.923 Y3.73 E3.76988
G1 X45.533 Y3.381 E3.78852
G1 X45.156 Y2.662 E3.81744
G1 X45.078 Y2.126 E3.83674
G1 X44.555 Y2.001 E3.8559
G1 X43.741 Y2.349 E3.88744
G1 X43.271 Y2.381 E3.90422
G1 X42.733 Y2.28 E3.92372
G1 X41.989 Y1.848 E3.95437
G1 X41.682 Y1.494 E3.97106
G1 X41.433 Y.992 E3.99102
G1 X41.335 Y.531 E4.00781
G1 X41.411 Y-.229 E4.03502
G1 X41.265 Y-.433 E4.04396
G1 X40.812 Y-.532 E4.06048
G1 X40.287 Y-.37 E4.08005
G1 X39.766 Y-.346 E4.09863
G1 X38.919 Y-.601 E4.13014
G1 X38.541 Y-.876 E4.14679
G1 X38.2 Y-1.285 E4.16576
G1 X37.901 Y-2.096 E4.19655
G1 X37.9 Y-2.649 E4.21625
G1 X38.016 Y-3.107 E4.23308
G1 X38.475 Y-3.816 E4.26317
G1 X38.929 Y-4.162 E4.2835
G1 X39.366 Y-4.342 E4.30034
G1 X40.15 Y-4.399 E4.32834
G1 E2.32834 F2400
G92 E0
G1 X40.15 Y-4.399 F7800
G1 X43.635 Y-4.876
G1 E2 F2400
G1 F3600
G1 X44.15 Y-5.399 E2.02615
G1 X44.747 Y-5.568 E2.04825
G1 X44.768 Y-5.918 E2.06074
G1 X45.1 Y-5.897 E2.07259
G1 X45.484 Y-5.778 E2.08691
G1 X46.102 Y-5.312 E2.11448
G1 X46.316 Y-4.985 E2.1284
G1 X46.491 Y-4.502 E2.1467
G1 X47.166 Y-4.229 E2.17264
G1 X47.829 Y-4.353 E2.19667
G1 X48.214 Y-4.327 E2.21042
G1 X48.921 Y-4.015 E2.23795
G1 X49.416 Y-3.419 E2.26555
G1 X49.594 Y-2.664 E2.29318
G1 X49.416 Y-1.911 E2.32074
G1 X49.203 Y-1.584 E2.33464
G1 X48.585 Y-1.118 E2.36221
G1 X48.212 Y-1.003 E2.37611
G1 X47.438 Y-1.04 E2.40371
G1 X46.762 Y-1.418 E2.4313
G1 X46.511 Y-1.708 E2.44496
G1 X46.224 Y-2.282 E2.46782
G1 X45.917 Y-2.521 E2.48168
G1 X45.323 Y-2.632 E2.50321
G1 X44.722 Y-2.542 E2.52486
G1 X44.338 Y-2.606 E2.53873
G1 X43.664 Y-2.981 E2.56621
G1 X43.228 Y-3.618 E2.59371
G1 X43.121 Y-4.077 E2.6105
G1 X43.227 Y-4.843 E2.63805
G1 X43.667 Y-5.482 E2.66569
G1 X43.978 Y-5.707 E2.67936
G1 X44.725 Y-5.92 E2.70703
G1 X44.725 Y-5.92 F7800
G1 X45.1 Y-6.249
G1 F3600
G1 X45.626 Y-6.101 E2.7265
G1 X46.032 Y-5.862 E2.74328
G1 X46.373 Y-5.537 E2.76006
G1 X46.767 Y-4.768 E2.79084
G1 X47.203 Y-4.592 E2.80759
G1 X47.808 Y-4.706 E2.82952
G1 X48.277 Y-4.674 E2.84627
G1 X48.724 Y-4.536 E2.86294
G1 X49.133 Y-4.296 E2.87983
G1 X49.474 Y-3.971 E2.89661
G1 X49.732 Y-3.576 E2.91342
G1 X49.892 Y-3.133 E2.9302
G1 X49.938 Y-2.592 E2.94954
G1 X49.732 Y-1.754 E2.98028
G1 X49.474 Y-1.359 E2.99709
G1 X49.133 Y-1.034 E3.01387
G1 X48.727 Y-.795 E3.03065
G1 X48.276 Y-.656 E3.04746
G1 X47.806 Y-.624 E3.06424
G1 X47.341 Y-.701 E3.08103
G1 X46.906 Y-.882 E3.09781
G1 X46.525 Y-1.158 E3.11457
G1 X46.217 Y-1.512 E3.13129
G1 X45.946 Y-2.055 E3.15291
G1 X45.769 Y-2.192 E3.16088
G1 X45.342 Y-2.272 E3.17636
G1 X44.705 Y-2.19 E3.19924
G1 X44.241 Y-2.267 E3.216
G1 X43.739 Y-2.489 E3.23555
G1 X43.115 Y-3.08 E3.26617
G1 X42.898 Y-3.495 E3.28285
G1 X42.77 Y-4.04 E3.30279
G1 X42.779 Y-4.509 E3.3195
G1 X43.067 Y-5.306 E3.34969
G1 X43.425 Y-5.74 E3.36973
G1 X43.806 Y-6.014 E3.38645
G1 X44.241 Y-6.195 E3.40323
G1 X45.057 Y-6.251 E3.43237
G1 E1.43237 F2400
G92 E0
G1 X45.057 Y-6.251 F7800
G1 X46.92 Y-14.577
G1 E2 F2400
G1 F3600
G1 X47.18 Y-14.921 E2.01536
G1 X47.43 Y-15.102 E2.02636
G1 X48.028 Y-15.271 E2.0485
G1 X48.048 Y-15.62 E2.06095
G1 X48.764 Y-15.481 E2.08693
G1 X49.101 Y-15.284 E2.10084
G1 X49.596 Y-14.687 E2.12847
