; generated by PrusaSlicer 2.9.0 on 2025-03-12 at 10:25:14 UTC

; 

; external perimeters extrusion width = 0.45mm
; perimeters extrusion width = 0.45mm
; infill extrusion width = 0.45mm
; solid infill extrusion width = 0.45mm
; top infill extrusion width = 0.40mm
; first layer extrusion width = 0.42mm

M190 S60 ; set bed temperature and wait for it to be reached
M104 S215 ; set temperature
;TYPE:Custom
G28 ; home all axes
G1 Z5 F5000 ; lift nozzle
M109 S215 ; set temperature and wait for it to be reached
G21 ; set units to millimeters
G90 ; use absolute coordinates
M82 ; use absolute distances for extrusion
G92 E0
; Filament gcode
M107
;LAYER_CHANGE
;Z:0.35
;HEIGHT:0.35
G1 E-2 F2400
G1 Z.35 F7800
G1 X8.974 Y1.708
G1 E.00001 F2400
;TYPE:Skirt/Brim
;WIDTH:0.42
G1 F1800
G1 X9.094 Y1.075 E.03233
G1 X15.385 Y-12.542 E.78512
G1 X16.658 Y-14.353 E.89621
G1 X18.488 Y-15.597 E1.00726
G1 X20.639 Y-16.116 E1.11831
G1 X23.577 Y-15.557 E1.2684
G1 X37.194 Y-9.267 E2.02117
G1 X39.004 Y-7.994 E2.13222
G1 X40.249 Y-6.164 E2.2433
G1 X40.768 Y-4.012 E2.3544
G1 X40.209 Y-1.075 E2.50444
G1 X33.918 Y12.542 E3.25723
G1 X32.645 Y14.353 E3.36832
G1 X30.815 Y15.597 E3.47937
G1 X28.664 Y16.116 E3.59042
G1 X25.726 Y15.557 E3.74051
G1 X12.109 Y9.267 E4.49328
G1 X10.299 Y7.994 E4.60433
G1 X9.054 Y6.164 E4.71541
G1 X8.535 Y4.012 E4.82651
G1 X8.962 Y1.767 E4.9412
G1 E2.9412 F2400
G92 E0
G1 X8.962 Y1.767 F7800
G92 E0
G1 X28.72 Y6.7
G1 E2 F2400
;TYPE:Perimeter
;WIDTH:0.443269
G1 F1800
G1 X28.676 Y6.761 E2.00403
;WIDTH:0.4273
G1 X28.266 Y7.083 E2.03075
;WIDTH:0.42
G1 X28.082 Y7.166 E2.04088
G1 X27.566 Y7.281 E2.06741
G1 X26.972 Y7.177 E2.09767
G1 X26.863 Y7.141 E2.10343
G1 X17.781 Y2.945 E2.60551
G1 X17.414 Y2.7 E2.62766
G1 X17.081 Y2.288 E2.65425
G1 X16.898 Y1.725 E2.68396
G1 X16.888 Y1.511 E2.69471
;WIDTH:0.448673
G1 X16.958 Y1.011 E2.72215
G1 X16.992 Y.926 E2.72713
;WIDTH:0.443271
G1 X20.369 Y-6.387 E3.15866
;WIDTH:0.468771
G1 X20.561 Y-6.715 E3.18043
G1 X20.98 Y-7.052 E3.21123
;WIDTH:0.42
G1 X21.386 Y-7.227 E3.23342
G1 X21.763 Y-7.28 E3.25253
G1 X22.141 Y-7.24 E3.27161
G1 X22.44 Y-7.141 E3.28742
G1 X31.522 Y-2.945 E3.7895
G1 X31.89 Y-2.7 E3.81169
G1 X32.223 Y-2.287 E3.83831
G1 X32.306 Y-2.103 E3.84844
G1 X32.41 Y-1.661 E3.87123
G1 X32.412 Y-1.435 E3.88257
;WIDTH:0.442667
G1 X32.291 Y-.879 E3.913
;WIDTH:0.443269
G1 X28.912 Y6.432 E4.34447
G1 X28.755 Y6.651 E4.35891
G1 X28.755 Y6.651 F7800
G1 X28.443 Y6.477
;TYPE:External perimeter
;WIDTH:0.42
G1 F1800
G1 X28.355 Y6.595 E4.3663
G1 X28.004 Y6.83 E4.3875
G1 X27.486 Y6.934 E4.41402
G1 X27.008 Y6.828 E4.43859
G1 X17.926 Y2.632 E4.94067
G1 X17.568 Y2.375 E4.96279
G1 X17.334 Y2.03 E4.98371
G1 X17.229 Y1.567 E5.00754
G1 X17.316 Y1.075 E5.03261
G1 X20.693 Y-6.238 E5.43686
G1 X20.9 Y-6.547 E5.45553
G1 X21.131 Y-6.741 E5.47067
G1 X21.448 Y-6.888 E5.48821
G1 X21.741 Y-6.936 E5.50311
G1 X22.036 Y-6.912 E5.51796
G1 X22.295 Y-6.828 E5.53162
G1 X31.377 Y-2.632 E6.0337
G1 X31.736 Y-2.375 E6.05586
G1 X31.97 Y-2.025 E6.07699
G1 X32.074 Y-1.583 E6.09978
G1 X31.967 Y-1.029 E6.1281
G1 X28.588 Y6.283 E6.53235
G1 X28.479 Y6.429 E6.54149
G1 X28.184 Y6.7 F7800
G1 E4.54149 F2400
G92 E0
G1 X32.739 Y-1.768 F7800
G1 E2 F2400
;TYPE:Perimeter
G1 F1800
G1 X32.642 Y-2.182 E2.02134
G1 X32.503 Y-2.488 E2.03821
G1 X32.355 Y-2.695 E2.05098
G1 X32.086 Y-2.984 E2.07079
G1 X31.666 Y-3.258 E2.09596
G1 X22.584 Y-7.454 E2.59804
G1 X22.039 Y-7.608 E2.62646
G1 X21.574 Y-7.612 E2.6498
G1 X21.103 Y-7.494 E2.67417
G1 X20.761 Y-7.316 E2.69352
G1 X21.428 Y-8.76 E2.77335
G1 X33.411 Y-3.224 E3.4358
G1 X32.764 Y-1.823 E3.51325
G1 E1.51325 F2400
G92 E0
G1 X32.764 Y-1.823 F7800
G1 X28.547 Y7.306
G1 E2 F2400
G1 F1800
G1 X27.875 Y8.76 E2.08039
G1 X15.892 Y3.224 E2.74284
G1 X16.545 Y1.81 E2.821
G1 X16.666 Y2.204 E2.84168
G1 X16.801 Y2.49 E2.85755
G1 X16.948 Y2.695 E2.87021
G1 X17.217 Y2.984 E2.89002
G1 X17.637 Y3.258 E2.91519
G1 X26.719 Y7.454 E3.41727
G1 X26.899 Y7.514 E3.42679
G1 X27.596 Y7.625 E3.46221
G1 X28.161 Y7.502 E3.49123
G1 X28.494 Y7.333 E3.50997
G1 E1.50997 F2400
G92 E0
G1 X28.494 Y7.333 F7800
G1 X21.213 Y-9.117
G1 E2 F2400
G1 F1800
G1 X21.259 Y-9.217 E2.00552
G1 X33.869 Y-3.392 E2.70262
G1 X32.891 Y-1.275 E2.81965
;WIDTH:0.442666
G1 X32.624 Y-.725 E2.85235
;WIDTH:0.443269
G1 X29.246 Y6.587 E3.28385
;WIDTH:0.450186
G1 X28.968 Y7.216 E3.32138
;WIDTH:0.42
G1 X28.044 Y9.217 E3.43199
G1 X15.434 Y3.392 E4.12909
G1 X16.376 Y1.354 E4.24177
;WIDTH:0.443271
G1 X20.035 Y-6.542 E4.70799
;WIDTH:0.446545
G1 X20.388 Y-7.331 E4.75471
;WIDTH:0.42
G1 X21.188 Y-9.063 E4.85046
G1 X21.188 Y-9.063 F7800
G1 X21.091 Y-9.675
;TYPE:External perimeter
G1 F1800
G1 X34.327 Y-3.561 E5.58216
G1 X28.212 Y9.675 E6.31388
G1 X14.976 Y3.561 E7.04558
G1 X21.066 Y-9.621 E7.77432
G1 X21.45 Y-9.509 F7800
G1 E5.77432 F2400
G92 E0
G1 X33.05 Y-2.688 F7800
G1 E2 F2400
;TYPE:Solid infill
;WIDTH:0.424407
G1 F1800
G1 X32.273 Y-3.465 E2.05585
G1 X31.354 Y-3.889 E2.10729
G1 X31.729 Y-3.514 E2.13425
G1 X30.811 Y-3.938 E2.18565
G1 X30.436 Y-4.313 E2.21261
G1 X29.518 Y-4.737 E2.26401
G1 X29.893 Y-4.362 E2.29097
G1 X28.975 Y-4.786 E2.34237
G1 X28.6 Y-5.161 E2.36933
G1 X27.682 Y-5.586 E2.42075
G1 X28.057 Y-5.211 E2.44771
G1 X27.139 Y-5.635 E2.49911
G1 X26.764 Y-6.01 E2.52607
G1 X25.846 Y-6.434 E2.57747
G1 X26.221 Y-6.059 E2.60443
G1 X25.303 Y-6.483 E2.65583
G1 X24.928 Y-6.858 E2.68279
G1 X24.01 Y-7.282 E2.73419
G1 X24.385 Y-6.907 E2.76115
G1 X23.467 Y-7.331 E2.81255
G1 X23.092 Y-7.706 E2.83951
G1 X22.174 Y-8.13 E2.89091
G1 X22.575 Y-7.729 E2.91973
G1 X22.267 Y-7.833 E2.93625
G1 X21.942 Y-7.868 E2.95286
G1 X21.503 Y-8.307 E2.98442
G1 X21.347 Y-7.969 E3.00334
G1 X21.6 Y-7.716 E3.02153
G1 E1.02153 F2400
G92 E0
G1 X21.6 Y-7.716 F7800
G1 X27.738 Y7.699
G1 E2 F2400
;WIDTH:0.42695
G1 F1800
G1 X27.972 Y7.933 E2.01694
G1 X27.815 Y8.273 E2.03611
G1 X27.412 Y7.871 E2.06525
G1 X27.294 Y7.863 E2.07131
G1 X26.8 Y7.756 E2.09719
G1 X27.213 Y8.169 E2.12709
G1 X26.288 Y7.741 E2.17927
G1 X25.913 Y7.367 E2.20639
G1 X24.988 Y6.939 E2.25857
G1 X25.363 Y7.314 E2.28572
G1 X24.438 Y6.887 E2.33788
G1 X24.063 Y6.512 E2.36503
G1 X23.139 Y6.085 E2.41714
G1 X23.514 Y6.46 E2.44429
G1 X22.589 Y6.033 E2.49645
G1 X22.214 Y5.658 E2.5236
G1 X21.289 Y5.231 E2.57576
G1 X21.664 Y5.605 E2.60288
G1 X20.739 Y5.178 E2.65504
G1 X20.364 Y4.803 E2.68219
G1 X19.44 Y4.376 E2.7343
G1 X19.815 Y4.751 E2.76145
G1 X18.89 Y4.324 E2.81361
G1 X18.515 Y3.949 E2.84076
G1 X17.59 Y3.522 E2.89292
G1 X17.965 Y3.897 E2.92007
G1 X17.04 Y3.47 E2.97223
G1 X16.255 Y2.684 E3.0291
M106 S127.5
;LAYER_CHANGE
;Z:0.65
;HEIGHT:0.3
G1 Z.65 F7800
M104 S210 ; set temperature
G1 E1.0291 F2400
G92 E0
G1 X16.255 Y2.684 F7800
G1 X28.752 Y6.725
G1 E2 F2400
;TYPE:Perimeter
;WIDTH:0.438773
G1 F3600
G1 X28.713 Y6.788 E2.00346
;WIDTH:0.45
G1 X28.299 Y7.128 E2.02923
G1 X28.094 Y7.221 E2.04006
G1 X27.571 Y7.337 E2.06583
G1 X26.96 Y7.231 E2.09566
G1 X26.839 Y7.191 E2.10179
G1 X17.758 Y2.996 E2.58291
G1 X17.382 Y2.746 E2.60463
G1 X17.035 Y2.321 E2.63102
G1 X16.942 Y2.115 E2.64189
G1 X16.839 Y1.675 E2.66362
G1 X16.834 Y1.436 E2.67512
G1 X16.905 Y1.177 E2.68804
;WIDTH:0.423587
G1 X16.976 Y.917 E2.70012
;WIDTH:0.397175
G1 X20.353 Y-6.394 E3.03439
;WIDTH:0.436733
G1 X20.641 Y-6.844 E3.0592
;WIDTH:0.45
G1 X20.957 Y-7.102 E3.07882
G1 X21.391 Y-7.285 E3.10147
G1 X21.73 Y-7.337 E3.11797
G1 X22.342 Y-7.232 E3.14784
G1 X22.464 Y-7.191 E3.15403
G1 X31.545 Y-2.996 E3.63515
G1 X31.921 Y-2.746 E3.65687
G1 X32.268 Y-2.321 E3.68326
G1 X32.361 Y-2.115 E3.69413
G1 X32.464 Y-1.675 E3.71586
G1 X32.466 Y-1.422 E3.72803
G1 X32.386 Y-1.147 E3.7418
;WIDTH:0.423285
G1 X32.307 Y-.872 E3.75461
;WIDTH:0.397174
G1 X28.928 Y6.439 E4.08892
;WIDTH:0.438773
G1 X28.783 Y6.674 E4.10181
G1 X28.783 Y6.674 F7800
G1 X28.454 Y6.486
;TYPE:External perimeter
;WIDTH:0.45
G1 F1800
G1 X28.363 Y6.608 E4.10913
G1 X28.006 Y6.845 E4.12974
G1 X27.482 Y6.949 E4.15543
G1 X27.001 Y6.841 E4.17914
G1 X17.92 Y2.646 E4.66026
G1 X17.555 Y2.383 E4.6819
G1 X17.318 Y2.027 E4.70247
G1 X17.213 Y1.508 E4.72794
G1 X17.302 Y1.068 E4.74953
G1 X20.679 Y-6.244 E5.13691
G1 X20.891 Y-6.559 E5.15517
G1 X21.125 Y-6.755 E5.16985
G1 X21.451 Y-6.904 E5.18709
G1 X21.818 Y-6.949 E5.20487
G1 X22.302 Y-6.841 E5.22872
G1 X31.383 Y-2.646 E5.70984
G1 X31.748 Y-2.383 E5.73148
G1 X31.985 Y-2.027 E5.75205
G1 X32.088 Y-1.587 E5.77378
G1 X31.981 Y-1.022 E5.80144
G1 X28.602 Y6.289 E6.18881
G1 X28.49 Y6.438 E6.19778
G1 X28.196 Y6.709 F7800
G1 E4.19778 F2400
G92 E0
G1 X32.769 Y-2.064 F7800
G1 E2 F2400
;TYPE:Perimeter
G1 F900
G1 X32.581 Y-2.545 E2.02484
;WIDTH:0.483485
G1 X32.444 Y-2.732 E2.03696
;WIDTH:0.516971
G1 X32.306 Y-2.918 E2.05003
;WIDTH:0.550457
G1 X32.169 Y-3.105 E2.06408
G1 X31.719 Y-3.374 E2.09586
;WIDTH:0.510954
G1 X22.638 Y-7.569 E2.65302
G1 X22.428 Y-7.638 E2.66533
;WIDTH:0.509545
G1 X22.063 Y-7.68 E2.68573
;WIDTH:0.479772
G1 X21.698 Y-7.721 E2.70476
;WIDTH:0.45
G1 X21.33 Y-7.666 E2.72266
G1 X20.969 Y-7.536 E2.74111
G1 X21.475 Y-8.632 E2.79917
G1 X22.18 Y-8.306 E2.83653
;WIDTH:0.480476
G1 X22.502 Y-8.14 E2.85533
;WIDTH:0.510952
G1 X22.825 Y-7.974 E2.87556
G1 X31.907 Y-3.779 E3.43277
;WIDTH:0.550457
G1 X32.409 Y-3.525 E3.46688
G1 X32.55 Y-3.479 E3.47587
;WIDTH:0.516971
G1 X32.691 Y-3.432 E3.48426
;WIDTH:0.483485
G1 X32.832 Y-3.385 E3.49203
;WIDTH:0.45
G1 X33.283 Y-3.177 E3.51592
G1 X32.794 Y-2.118 E3.57202
G1 E1.57202 F2400
G92 E0
G1 X28.34 Y7.525 F7800
G1 E2 F2400
G1 F900
G1 X27.828 Y8.632 E2.05866
G1 X27.119 Y8.304 E2.09623
;WIDTH:0.480476
G1 X26.798 Y8.139 E2.11496
;WIDTH:0.510953
G1 X26.477 Y7.974 E2.13506
G1 X17.396 Y3.779 E2.69222
;WIDTH:0.550457
G1 X16.894 Y3.525 E2.72633
G1 X16.753 Y3.479 E2.73532
;WIDTH:0.516971
G1 X16.612 Y3.432 E2.74371
;WIDTH:0.483485
G1 X16.471 Y3.385 E2.75148
;WIDTH:0.45
G1 X16.02 Y3.177 E2.77537
G1 X16.534 Y2.064 E2.83433
G1 X16.722 Y2.545 E2.85917
;WIDTH:0.483485
G1 X16.859 Y2.732 E2.87129
;WIDTH:0.516971
G1 X16.997 Y2.918 E2.88436
;WIDTH:0.550457
G1 X17.134 Y3.105 E2.89841
G1 X17.584 Y3.374 E2.93019
;WIDTH:0.510954
G1 X26.665 Y7.569 E3.48735
;WIDTH:0.520181
G1 X26.826 Y7.632 E3.49718
G1 X27.073 Y7.667 E3.51136
;WIDTH:0.48509
G1 X27.32 Y7.703 E3.52446
;WIDTH:0.45
G1 X27.741 Y7.699 E3.54471
G1 X28.282 Y7.541 E3.57182
G1 E1.57182 F2400
G92 E0
G1 X28.282 Y7.541 F7800
G1 X21.286 Y-9.143
G1 E2 F2400
G1 F3600
G1 X33.795 Y-3.365 E2.66272
G1 X32.724 Y-1.015 E2.78693
;WIDTH:0.423285
G1 X32.608 Y-.732 E2.80062
;WIDTH:0.397174
G1 X29.23 Y6.579 E3.13491
;WIDTH:0.404143
G1 X29.168 Y6.706 E3.1409
;WIDTH:0.45
G1 X28.917 Y7.194 E3.16729
G1 X28.017 Y9.143 E3.27054
G1 X15.508 Y3.365 E3.93326
G1 X16.565 Y1.046 E4.05584
;WIDTH:0.423587
G1 X16.674 Y.778 E4.0688
;WIDTH:0.397175
G1 X20.051 Y-6.534 E4.40311
;WIDTH:0.400476
G1 X20.098 Y-6.629 E4.40755
;WIDTH:0.45
G1 X20.438 Y-7.307 E4.44403
G1 X21.261 Y-9.089 E4.53844
G1 X21.261 Y-9.089 F7800
G1 X21.098 Y-9.655
;TYPE:External perimeter
G1 F1800
G1 X34.307 Y-3.554 E5.23824
G1 X28.205 Y9.655 E5.93806
G1 X14.996 Y3.554 E6.63786
G1 X21.073 Y-9.601 E7.33482
G1 X21.457 Y-9.489 F7800
G1 X21.594 Y-8.308
;TYPE:Solid infill
;WIDTH:0.360028
G1 F1200
G1 X22.166 Y-8.027 E7.35832
G1 X22.134 Y-7.932 E7.36202
G1 X21.697 Y-7.964 E7.37818
G1 X21.418 Y-7.926 E7.38856
G1 X21.513 Y-8.133 E7.39696
G1 E5.39696 F2400
G92 E0
G1 X21.513 Y-8.133 F7800
G1 X16.518 Y2.681
G1 E2 F2400
;WIDTH:0.361399
G1 F1200
G1 X16.882 Y3.227 E2.02431
G1 X16.582 Y3.163 E2.03567
G1 X16.345 Y3.057 E2.04529
G1 X16.438 Y2.856 E2.05349
G1 E.05349 F2400
G92 E0
G1 X16.438 Y2.856 F7800
G1 X27.603 Y7.964
G1 E2 F2400
;WIDTH:0.360262
G1 F1200
G1 X27.892 Y7.912 E2.01084
G1 X27.709 Y8.307 E2.02691
G1 X27.136 Y8.027 E2.05045
G1 X27.168 Y7.932 E2.05415
G1 X27.411 Y7.95 E2.06314
G1 E.06314 F2400
G92 E0
G1 X27.411 Y7.95 F7800
G1 X32.421 Y-3.227
G1 E2 F2400
;WIDTH:0.361397
G1 F1200
G1 X32.721 Y-3.163 E2.01136
G1 X32.958 Y-3.057 E2.02098
G1 X32.785 Y-2.681 E2.03631
G1 X32.528 Y-3.067 E2.05349
M106 S255
;LAYER_CHANGE
;Z:0.95
;HEIGHT:0.3
G1 Z.95 F7800
G1 E.05349 F2400
G92 E0
G1 X32.528 Y-3.067 F7800
G1 X28.746 Y6.721
G1 E2 F2400
;TYPE:Perimeter
;WIDTH:0.445109
G1 F3600
G1 X28.67 Y6.838 E2.00663
;WIDTH:0.45
G1 X28.289 Y7.135 E2.02986
G1 X28.095 Y7.22 E2.04005
G1 X27.571 Y7.337 E2.06587
G1 X26.96 Y7.231 E2.0957
G1 X26.839 Y7.191 E2.10183
G1 X17.758 Y2.996 E2.58295
G1 X17.382 Y2.746 E2.60467
G1 X17.036 Y2.321 E2.63103
G1 X16.943 Y2.117 E2.64181
G1 X16.84 Y1.68 E2.6634
G1 X16.834 Y1.44 E2.67495
G1 X16.905 Y1.179 E2.68796
;WIDTH:0.423586
G1 X16.976 Y.917 E2.70012
;WIDTH:0.397172
G1 X20.353 Y-6.394 E3.03439
;WIDTH:0.436733
G1 X20.641 Y-6.844 E3.0592
;WIDTH:0.45
G1 X20.957 Y-7.102 E3.07882
G1 X21.39 Y-7.285 E3.10143
G1 X21.827 Y-7.337 E3.1226
G1 X22.159 Y-7.293 E3.13871
G1 X22.464 Y-7.191 E3.15418
G1 X31.545 Y-2.996 E3.6353
G1 X31.921 Y-2.746 E3.65702
G1 X32.267 Y-2.321 E3.68338
G1 X32.361 Y-2.116 E3.69423
G1 X32.464 Y-1.676 E3.71596
G1 X32.466 Y-1.422 E3.72818
G1 X32.386 Y-1.147 E3.74195
;WIDTH:0.423286
G1 X32.307 Y-.872 E3.75476
;WIDTH:0.397175
G1 X28.929 Y6.438 E4.08901
;WIDTH:0.445109
G1 X28.779 Y6.67 E4.10213
G1 X28.779 Y6.67 F7800
G1 X28.45 Y6.483
;TYPE:External perimeter
;WIDTH:0.45
G1 F1800
G1 X28.321 Y6.647 E4.11217
G1 X28.007 Y6.845 E4.13002
G1 X27.482 Y6.949 E4.15576
G1 X27.001 Y6.841 E4.17947
G1 X17.92 Y2.646 E4.66059
G1 X17.555 Y2.383 E4.68223
G1 X17.318 Y2.028 E4.70276
G1 X17.213 Y1.511 E4.72813
G1 X17.302 Y1.068 E4.74986
G1 X20.679 Y-6.244 E5.13724
G1 X20.891 Y-6.559 E5.1555
G1 X21.125 Y-6.755 E5.17018
G1 X21.451 Y-6.904 E5.18742
G1 X21.794 Y-6.952 E5.20408
G1 X22.041 Y-6.926 E5.21603
G1 X22.302 Y-6.841 E5.22923
G1 X31.383 Y-2.646 E5.71035
G1 X31.748 Y-2.383 E5.73199
G1 X31.985 Y-2.028 E5.75252
G1 X32.088 Y-1.588 E5.77425
G1 X31.981 Y-1.022 E5.80195
G1 X28.603 Y6.288 E6.18926
G1 X28.487 Y6.435 E6.19827
G1 X28.198 Y6.712 F7800
G1 E4.19827 F2400
G92 E0
G1 X32.769 Y-2.063 F7800
G1 E2 F2400
;TYPE:Perimeter
G1 F900
G1 X32.581 Y-2.546 E2.02493
;WIDTH:0.483486
G1 X32.443 Y-2.732 E2.03704
;WIDTH:0.516972
G1 X32.306 Y-2.919 E2.05013
;WIDTH:0.550458
G1 X32.169 Y-3.105 E2.06414
G1 X31.719 Y-3.374 E2.09592
;WIDTH:0.510953
G1 X22.638 Y-7.569 E2.65308
;WIDTH:0.530932
G1 X22.289 Y-7.699 E2.67475
G1 X22.075 Y-7.71 E2.68722
;WIDTH:0.490466
G1 X21.861 Y-7.721 E2.69861
;WIDTH:0.45
G1 X21.33 Y-7.666 E2.72429
G1 X20.969 Y-7.536 E2.74274
G1 X21.475 Y-8.632 E2.8008
;WIDTH:0.489111
G1 X22.214 Y-8.269 E2.84442
;WIDTH:0.510952
G1 X31.907 Y-3.779 E3.43942
;WIDTH:0.550458
G1 X32.409 Y-3.525 E3.47353
G1 X32.55 Y-3.479 E3.48252
;WIDTH:0.516972
G1 X32.691 Y-3.432 E3.49091
;WIDTH:0.483486
G1 X32.832 Y-3.385 E3.49868
;WIDTH:0.45
G1 X33.283 Y-3.177 E3.52257
G1 X32.794 Y-2.118 E3.57867
G1 E1.57867 F2400
G92 E0
G1 X28.338 Y7.528 F7800
G1 E2 F2400
G1 F900
G1 X27.828 Y8.632 E2.05849
G1 X27.119 Y8.304 E2.09606
;WIDTH:0.480476
G1 X26.798 Y8.139 E2.11479
;WIDTH:0.510953
G1 X26.477 Y7.974 E2.13489
G1 X17.396 Y3.779 E2.69205
;WIDTH:0.550457
G1 X16.894 Y3.525 E2.72616
G1 X16.753 Y3.479 E2.73515
;WIDTH:0.516971
G1 X16.612 Y3.432 E2.74354
;WIDTH:0.483485
G1 X16.471 Y3.385 E2.75131
;WIDTH:0.45
G1 X16.02 Y3.177 E2.7752
G1 X16.534 Y2.064 E2.83416
G1 X16.722 Y2.546 E2.85904
;WIDTH:0.483485
G1 X16.86 Y2.732 E2.87115
;WIDTH:0.516971
G1 X16.997 Y2.919 E2.88424
;WIDTH:0.550457
G1 X17.134 Y3.105 E2.89825
G1 X17.584 Y3.374 E2.93003
;WIDTH:0.510954
G1 X26.665 Y7.569 E3.48719
;WIDTH:0.520181
G1 X26.826 Y7.632 E3.49702
G1 X27.073 Y7.667 E3.5112
;WIDTH:0.48509
G1 X27.32 Y7.703 E3.5243
;WIDTH:0.45
G1 X27.742 Y7.699 E3.5446
G1 X28.281 Y7.544 E3.57157
G1 E1.57157 F2400
G92 E0
G1 X28.281 Y7.544 F7800
G1 X21.286 Y-9.143
G1 E2 F2400
G1 F3600
G1 X33.795 Y-3.365 E2.66272
G1 X32.724 Y-1.015 E2.78693
;WIDTH:0.423285
G1 X32.608 Y-.732 E2.80062
;WIDTH:0.397175
G1 X29.231 Y6.578 E3.13486
;WIDTH:0.406017
G1 X29.16 Y6.721 E3.14166
;WIDTH:0.45
G1 X28.887 Y7.26 E3.17072
G1 X28.017 Y9.143 E3.27049
G1 X15.508 Y3.365 E3.93321
G1 X16.564 Y1.048 E4.05568
;WIDTH:0.423586
G1 X16.674 Y.778 E4.06874
;WIDTH:0.397172
G1 X20.051 Y-6.534 E4.40305
;WIDTH:0.400477
G1 X20.098 Y-6.629 E4.40749
;WIDTH:0.45
G1 X20.438 Y-7.307 E4.44397
G1 X21.261 Y-9.089 E4.53838
G1 X21.261 Y-9.089 F7800
G1 X21.098 Y-9.655
