; generated by PrusaSlicer 2.9.0 on 2025-03-11 at 14:13:31 UTC

; 

; external perimeters extrusion width = 0.45mm
; perimeters extrusion width = 0.45mm
; infill extrusion width = 0.45mm
; solid infill extrusion width = 0.45mm
; top infill extrusion width = 0.40mm
; support material extrusion width = 0.35mm
; first layer extrusion width = 0.42mm

M190 S60 ; set bed temperature and wait for it to be reached
M104 S215 ; set temperature
;TYPE:Custom
G28 ; home all axes
G1 Z5 F5000 ; lift nozzle
M109 S215 ; set temperature and wait for it to be reached
G21 ; set units to millimeters
G90 ; use absolute coordinates
M82 ; use absolute distances for extrusion
G92 E0
; Filament gcode
M107
;LAYER_CHANGE
;Z:0.35
;HEIGHT:0.35
G1 E-2 F2400
G1 Z.35 F7800
G1 X9.606 Y10.388
G1 E.00001 F2400
;TYPE:Skirt/Brim
;WIDTH:0.42
G1 F1800
G1 X-12.668 Y30.985 E1.52252
G1 X-22.117 Y39.258 E2.1528
G1 X-22.852 Y39.809 E2.1989
G1 X-23.818 Y40.428 E2.25648
G1 X-24.815 Y40.944 E2.31282
G1 X-25.877 Y41.378 E2.3704
G1 X-26.951 Y41.705 E2.42674
G1 X-28.075 Y41.939 E2.48436
G1 X-29.19 Y42.067 E2.54068
G1 X-30.337 Y42.093 E2.59826
G1 X-31.457 Y42.017 E2.6546
G1 X-32.59 Y41.835 E2.71219
G1 X-33.678 Y41.557 E2.76855
G1 X-34.759 Y41.173 E2.82612
G1 X-35.778 Y40.703 E2.88244
G1 X-37.628 Y39.534 E2.99227
G1 X-47.389 Y31.432 E3.6289
G1 X-48.181 Y30.636 E3.68525
G1 X-48.913 Y29.752 E3.74285
G1 X-49.549 Y28.825 E3.79927
G1 X-50.11 Y27.822 E3.85695
G1 X-50.567 Y26.793 E3.91346
G1 X-51.151 Y24.86 E4.0148
G1 X-51.398 Y23.105 E4.10374
G1 X-51.42 Y-4.102 E5.46915
G1 X-51.27 Y-5.711 E5.55025
G1 X-50.916 Y-7.276 E5.63078
G1 X-50.227 Y-9.111 E5.72915
G1 X-40.506 Y-28.29 E6.80824
G1 X-39.167 Y-30.053 E6.91934
G1 X-37.294 Y-31.231 E7.03038
G1 X-35 Y-31.672 E7.14761
G1 X35 Y-31.672 E10.66062
G1 X37.177 Y-31.276 E10.77167
G1 X39.075 Y-30.136 E10.88278
G1 X40.448 Y-28.401 E10.99382
G1 X41.172 Y-25.5 E11.14387
G1 X41.172 Y-21.5 E11.34461
G1 X40.776 Y-19.323 E11.45566
G1 X39.191 Y-16.968 E11.59812
G1 X9.65 Y10.348 E13.61734
G1 E11.61734 F2400
G92 E0
G1 X9.65 Y10.348 F7800
G92 E0
G1 X-20.403 Y15.492
G1 E2 F2400
;TYPE:Support material
G1 F1800
G1 X-19.271 Y15.715 E2.0579
G1 X-18.199 Y16.141 E2.11579
G1 X-17.222 Y16.755 E2.1737
G1 X-16.374 Y17.536 E2.23156
G1 X-15.682 Y18.458 E2.28941
G1 X-15.17 Y19.489 E2.34718
G1 X-14.855 Y20.595 E2.40489
G1 X-14.745 Y21.739 E2.46257
G1 X-14.844 Y22.883 E2.5202
G1 X-15.149 Y23.989 E2.57778
G1 X-15.649 Y25.022 E2.63538
G1 X-16.321 Y25.938 E2.69239
G1 X-16.83 Y26.427 E2.72781
G1 X-17.181 Y26.747 E2.75165
G1 X-18.127 Y27.358 E2.80817
G1 X-19.189 Y27.797 E2.86584
G1 X-20.315 Y28.036 E2.92361
G1 X-21.467 Y28.066 E2.98144
G1 X-22.607 Y27.886 E3.03936
G1 X-23.697 Y27.501 E3.09737
G1 X-24.199 Y27.211 E3.12647
G1 X-23.843 Y28.482 E3.19271
G1 X-23.738 Y29.623 E3.25021
G1 X-23.843 Y30.77 E3.30801
G1 X-24.152 Y31.873 E3.3655
G1 X-24.657 Y32.904 E3.42312
G1 X-25.34 Y33.827 E3.48074
G1 X-26.179 Y34.61 E3.53833
G1 X-27.145 Y35.229 E3.59591
G1 X-28.208 Y35.662 E3.65351
G1 X-29.332 Y35.896 E3.71113
G1 X-30.479 Y35.922 E3.76871
G1 X-31.612 Y35.74 E3.8263
G1 X-32.694 Y35.356 E3.88392
G1 X-33.688 Y34.783 E3.9415
G1 X-34.561 Y34.039 E3.99906
G1 X-35.286 Y33.149 E4.05667
G1 X-35.81 Y32.192 E4.11143
G1 X-36.035 Y31.593 E4.14354
G1 X-36.189 Y31.053 E4.17172
G1 X-36.345 Y29.918 E4.22922
G1 X-36.293 Y28.773 E4.28674
G1 X-36.131 Y27.877 E4.33244
G1 X-37.078 Y28.27 E4.3839
G1 X-38.196 Y28.51 E4.44129
G1 X-39.339 Y28.544 E4.49868
G1 X-40.47 Y28.372 E4.55609
G1 X-41.552 Y27.997 E4.61356
G1 X-42.549 Y27.433 E4.67105
G1 X-43.428 Y26.698 E4.72855
G1 X-44.161 Y25.814 E4.78618
G1 X-44.722 Y24.81 E4.8439
G1 X-45.077 Y23.765 E4.89929
G1 X-45.205 Y23.05 E4.93574
G1 X-45.249 Y21.906 E4.9932
G1 X-45.074 Y20.712 E5.05376
G1 X-44.722 Y19.679 E5.10853
G1 X-44.168 Y18.685 E5.16564
G1 X-43.445 Y17.807 E5.22272
G1 X-42.575 Y17.073 E5.27985
G1 X-41.587 Y16.507 E5.33699
G1 X-40.512 Y16.127 E5.39421
G1 X-39.411 Y15.951 E5.45017
G1 X-38.212 Y15.98 E5.51036
G1 X-37.126 Y16.204 E5.56601
G1 X-36.066 Y16.634 E5.62342
G1 X-35.435 Y17.036 E5.66097
G1 X-35.435 Y25.68 E6.09478
G1 X-35.18 Y25.935 E6.11288
G1 X-24.82 Y25.935 E6.63281
G1 X-24.565 Y25.68 E6.65091
G1 X-24.565 Y16.543 E7.10946
G1 X-23.766 Y16.07 E7.15606
G1 X-22.689 Y15.673 E7.21367
G1 X-21.555 Y15.478 E7.27142
G1 X-20.454 Y15.491 E7.32668
G1 X-20.454 Y15.491 F7800
G1 X-15.328 Y24.004
G1 F1800
G1 X-15.328 Y20.066 E7.52431
G1 X-15.712 Y19.096 E7.57667
G1 X-15.712 Y24.44 E7.84486
G1 X-16.095 Y25.106 E7.88342
G1 X-16.095 Y18.425 E8.21871
G1 X-16.478 Y17.914 E8.25076
G1 X-16.478 Y25.628 E8.63789
G1 X-16.861 Y26.026 E8.66561
G1 X-16.861 Y17.509 E9.09304
G1 X-17.244 Y17.156 E9.11918
G1 X-17.244 Y26.384 E9.5823
G1 X-17.628 Y26.666 E9.60621
G1 X-17.628 Y16.866 E10.09803
G1 X-18.011 Y16.625 E10.12074
G1 X-18.011 Y26.914 E10.6371
G1 X-18.394 Y27.133 E10.65924
G1 X-18.394 Y16.397 E11.19804
G1 X-18.777 Y16.245 E11.21872
G1 X-18.777 Y27.291 E11.77307
G1 X-19.161 Y27.449 E11.79391
G1 X-19.161 Y16.093 E12.36382
G1 X-19.544 Y15.977 E12.3839
G1 X-19.544 Y27.555 E12.96495
G1 X-19.927 Y27.636 E12.9846
G1 X-19.927 Y15.902 E13.57348
G1 X-20.31 Y15.826 E13.59308
G1 X-20.31 Y27.717 E14.18984
G1 X-20.693 Y27.735 E14.20908
G1 X-20.693 Y15.798 E14.80815
G1 X-21.077 Y15.794 E14.82742
G1 X-21.077 Y27.745 E15.42719
G1 X-21.46 Y27.753 E15.44642
G1 X-21.46 Y15.789 E16.04684
G1 X-21.843 Y15.842 E16.06624
G1 X-21.843 Y27.693 E16.66099
G1 X-22.226 Y27.632 E16.68045
G1 X-22.226 Y15.908 E17.26883
G1 X-22.608 Y15.974 E17.28829
G1 X-22.609 Y27.556 E17.86954
G1 X-22.993 Y27.421 E17.88997
G1 X-22.993 Y16.116 E18.45732
G1 X-23.376 Y16.257 E18.4778
G1 X-23.376 Y27.285 E19.03125
G1 X-23.759 Y27.107 E19.05245
G1 X-23.759 Y16.427 E19.58844
G1 X-24.142 Y16.654 E19.61078
G1 X-24.142 Y27.064 E20.13322
G1 X-24.142 Y27.064 F7800
G1 X-24.142 Y31.262
G1 F1800
G1 X-24.142 Y27.988 E20.29753
G1 X-24.142 Y27.988 F7800
G1 X-24.525 Y32.283
G1 F1800
G1 X-24.525 Y26.08 E20.60883
G1 X-24.691 Y26.245 E20.62058
G1 X-24.909 Y26.245 E20.63152
G1 X-24.909 Y32.712 E20.95607
G1 X-25.292 Y33.24 E20.98881
G1 X-25.292 Y26.245 E21.33986
G1 X-25.675 Y26.245 E21.35908
G1 X-25.675 Y33.715 E21.73397
G1 X-26.058 Y34.073 E21.76028
G1 X-26.058 Y26.245 E22.15314
G1 X-26.441 Y26.245 E22.17236
G1 X-26.441 Y34.41 E22.58213
G1 X-26.825 Y34.655 E22.60499
G1 X-26.825 Y26.245 E23.02705
G1 X-27.208 Y26.245 E23.04627
G1 X-27.208 Y34.9 E23.48063
G1 X-27.591 Y35.075 E23.50176
G1 X-27.591 Y26.245 E23.9449
G1 X-27.974 Y26.245 E23.96412
G1 X-27.974 Y35.232 E24.41514
G1 X-28.358 Y35.376 E24.43572
G1 X-28.358 Y26.245 E24.89397
G1 X-28.741 Y26.245 E24.91319
G1 X-28.741 Y35.456 E25.37545
G1 X-29.124 Y35.536 E25.39509
G1 X-29.124 Y26.245 E25.86137
G1 X-29.507 Y26.245 E25.88059
G1 X-29.507 Y35.589 E26.34953
G1 X-29.89 Y35.598 E26.36876
G1 X-29.89 Y26.245 E26.83815
G1 X-30.274 Y26.245 E26.85742
G1 X-30.274 Y35.607 E27.32726
G1 X-30.657 Y35.579 E27.34653
G1 X-30.657 Y26.245 E27.81497
G1 X-31.04 Y26.245 E27.83419
G1 X-31.04 Y35.518 E28.29956
G1 X-31.423 Y35.456 E28.31903
G1 X-31.423 Y26.245 E28.78129
G1 X-31.806 Y26.245 E28.80051
G1 X-31.806 Y35.342 E29.25705
G1 X-32.19 Y35.206 E29.27749
G1 X-32.19 Y26.245 E29.72721
G1 X-32.573 Y26.245 E29.74643
G1 X-32.573 Y35.068 E30.18922
G1 X-32.956 Y34.847 E30.21141
G1 X-32.956 Y26.245 E30.64311
G1 X-33.339 Y26.245 E30.66233
G1 X-33.339 Y34.626 E31.08294
G1 X-33.508 Y34.528 E31.09274
G1 X-33.722 Y34.346 E31.10684
G1 X-33.722 Y26.245 E31.5134
G1 X-34.106 Y26.245 E31.53267
G1 X-34.106 Y34.019 E31.92282
G1 X-34.489 Y33.636 E31.95
G1 X-34.489 Y26.245 E32.32092
G1 X-34.872 Y26.245 E32.34014
G1 X-34.872 Y33.166 E32.68748
G1 X-35.027 Y32.975 E32.69982
G1 X-35.255 Y32.559 E32.72363
G1 X-35.255 Y26.245 E33.0405
G1 X-35.639 Y25.916 E33.06588
G1 X-35.639 Y31.766 E33.35947
G1 X-35.886 Y30.982 E33.40072
G1 X-36.022 Y30.041 E33.44844
G1 X-35.985 Y28.815 E33.51
G1 X-35.723 Y27.373 E33.58355
G1 X-36.022 Y27.496 E33.59978
G1 X-36.022 Y17.03 E34.12503
G1 X-36.208 Y16.911 E34.13611
G1 X-36.405 Y16.832 E34.14676
G1 X-36.405 Y27.655 E34.68992
G1 X-36.788 Y27.814 E34.71073
G1 X-36.788 Y16.676 E35.2697
G1 X-37.171 Y16.521 E35.29044
G1 X-37.171 Y27.973 E35.86517
G1 X-37.555 Y28.055 E35.88488
G1 X-37.555 Y16.433 E36.46814
G1 X-37.938 Y16.353 E36.48778
G1 X-37.938 Y28.137 E37.07917
G1 X-38.321 Y28.203 E37.09867
G1 X-38.321 Y16.286 E37.69674
G1 X-38.704 Y16.268 E37.71598
G1 X-38.704 Y28.215 E38.31555
G1 X-39.087 Y28.226 E38.33478
G1 X-39.087 Y16.263 E38.93515
G1 X-39.471 Y16.275 E38.95443
G1 X-39.471 Y28.21 E39.5534
G1 X-39.854 Y28.152 E39.57284
G1 X-39.854 Y16.336 E40.16584
G1 X-40.237 Y16.398 E40.18531
G1 X-40.237 Y28.093 E40.77223
G1 X-40.62 Y27.991 E40.79212
G1 X-40.62 Y16.495 E41.36906
G1 X-41.003 Y16.63 E41.38944
G1 X-41.003 Y27.859 E41.95298
G1 X-41.387 Y27.726 E41.97337
G1 X-41.387 Y16.765 E42.52346
G1 X-41.77 Y16.969 E42.54524
G1 X-41.77 Y27.517 E43.0746
G1 X-42.153 Y27.3 E43.09669
G1 X-42.153 Y17.189 E43.60412
G1 X-42.536 Y17.446 E43.62727
G1 X-42.536 Y27.039 E44.1087
G1 X-42.92 Y26.718 E44.13382
G1 X-42.92 Y17.77 E44.58288
G1 X-43.303 Y18.123 E44.60902
G1 X-43.303 Y26.363 E45.02255
G1 X-43.686 Y25.9 E45.05271
G1 X-43.686 Y18.588 E45.41967
G1 X-44.069 Y19.145 E45.45359
G1 X-44.069 Y25.342 E45.76459
G1 X-44.452 Y24.638 E45.80481
G1 X-44.452 Y19.849 E46.04515
G1 X-44.836 Y21.134 E46.11246
G1 X-44.836 Y23.992 E46.25589
G1 E44.25589 F2400
G92 E0
G1 X-44.836 Y23.992 F7800
G1 X-38.756 Y-10.045
G1 E2 F2400
G1 F1800
G1 X-38.21 Y-10.019 E2.02743
G1 X-37.124 Y-9.795 E2.08308
G1 X-36.064 Y-9.365 E2.14049
G1 X-35.435 Y-8.965 E2.1779
G1 X-35.435 Y4.886 E2.87303
G1 X-36.075 Y5.291 E2.91104
G1 X-37.137 Y5.718 E2.96848
G1 X-38.257 Y5.946 E3.02584
G1 X-39.399 Y5.968 E3.08316
G1 X-40.481 Y5.791 E3.13818
G1 X-40.996 Y5.626 E3.16532
G1 X-41.621 Y5.388 E3.19888
G1 X-42.58 Y4.835 E3.25444
G1 X-43.41 Y4.131 E3.30906
G1 X-44.189 Y3.183 E3.37064
G1 X-44.718 Y2.232 E3.42525
G1 X-45.066 Y1.204 E3.47972
G1 X-45.19 Y.531 E3.51406
G1 X-45.243 Y-.623 E3.57204
G1 X-45.01 Y-2.03 E3.64361
G1 X-45.204 Y-2.95 E3.6908
G1 X-45.247 Y-4.093 E3.7482
G1 X-45.072 Y-5.288 E3.80881
G1 X-44.721 Y-6.32 E3.86352
G1 X-44.167 Y-7.314 E3.92063
G1 X-43.443 Y-8.193 E3.97778
G1 X-42.573 Y-8.927 E4.03491
G1 X-41.585 Y-9.493 E4.09205
G1 X-40.511 Y-9.872 E4.14921
G1 X-39.409 Y-10.048 E4.20522
G1 X-38.807 Y-10.045 E4.23543
G1 X-38.807 Y-10.045 F7800
G1 X-36.022 Y5.074
G1 F1800
G1 X-36.022 Y-8.97 E4.94024
G1 X-36.207 Y-9.088 E4.95125
G1 X-36.405 Y-9.168 E4.96197
G1 X-36.405 Y5.089 E5.67747
G1 X-36.788 Y5.243 E5.69819
G1 X-36.788 Y-9.324 E6.42925
G1 X-37.171 Y-9.479 E6.44999
G1 X-37.171 Y5.397 E7.19656
G1 X-37.555 Y5.486 E7.21634
G1 X-37.555 Y-9.567 E7.97179
G1 X-37.938 Y-9.646 E7.99142
G1 X-37.938 Y5.564 E8.75475
G1 X-38.321 Y5.636 E8.77431
G1 X-38.321 Y-9.714 E9.54466
G1 X-38.704 Y-9.732 E9.5639
G1 X-38.704 Y5.644 E10.33556
G1 X-39.087 Y5.651 E10.35478
G1 X-39.087 Y-9.736 E11.12699
G1 X-39.471 Y-9.724 E11.14627
G1 X-39.471 Y5.642 E11.91743
G1 X-39.854 Y5.579 E11.93691
G1 X-39.854 Y-9.663 E12.70184
G1 X-40.237 Y-9.601 E12.72131
G1 X-40.237 Y5.517 E13.48002
G1 X-40.62 Y5.42 E13.49985
G1 X-40.62 Y-9.504 E14.24882
G1 X-41.003 Y-9.369 E14.2692
G1 X-41.003 Y5.291 E15.00493
G1 X-41.387 Y5.145 E15.02555
G1 X-41.387 Y-9.233 E15.74712
G1 X-41.77 Y-9.029 E15.7689
G1 X-41.77 Y4.944 E16.47015
G1 X-42.153 Y4.723 E16.49234
G1 X-42.153 Y-8.809 E17.17146
G1 X-42.536 Y-8.552 E17.19461
G1 X-42.536 Y4.465 E17.84788
G1 X-42.92 Y4.14 E17.87313
G1 X-42.92 Y-8.228 E18.49383
G1 X-43.303 Y-7.875 E18.51997
G1 X-43.303 Y3.783 E19.10504
G1 X-43.686 Y3.329 E19.13485
G1 X-43.686 Y-7.41 E19.6738
G1 X-44.069 Y-6.852 E19.70777
G1 X-44.069 Y2.76 E20.19016
G1 X-44.452 Y2.047 E20.23078
G1 X-44.452 Y-6.146 E20.64195
G1 X-44.836 Y-4.857 E20.70945
G1 X-44.836 Y1.401 E21.02351
G1 E19.02351 F2400
G92 E0
G1 X-44.836 Y1.401 F7800
G1 X-20.374 Y-10.063
G1 E2 F2400
G1 F1800
G1 X-19.268 Y-9.84 E2.05662
G1 X-18.685 Y-9.618 E2.08793
G1 X-18.15 Y-9.391 E2.1171
G1 X-17.2 Y-8.79 E2.17352
G1 X-16.367 Y-8.018 E2.23052
G1 X-15.66 Y-7.072 E2.28979
G1 X-15.158 Y-6.053 E2.3468
G1 X-14.844 Y-4.947 E2.4045
G1 X-14.737 Y-3.804 E2.46211
G1 X-14.839 Y-2.66 E2.51975
G1 X-14.997 Y-2.09 E2.54943
G1 X-14.88 Y-1.67 E2.57131
G1 X-14.78 Y-.526 E2.62894
G1 X-14.888 Y.618 E2.68661
G1 X-15.202 Y1.724 E2.74431
G1 X-15.711 Y2.755 E2.80201
G1 X-16.389 Y3.662 E2.85884
G1 X-16.823 Y4.075 E2.88891
G1 X-17.263 Y4.47 E2.91858
G1 X-18.222 Y5.076 E2.97551
G1 X-19.293 Y5.504 E3.03339
G1 X-20.424 Y5.73 E3.09127
G1 X-21.578 Y5.746 E3.14919
G1 X-22.663 Y5.561 E3.20443
G1 X-23.153 Y5.401 E3.2303
G1 X-23.819 Y5.141 E3.26618
G1 X-24.565 Y4.7 E3.30967
G1 X-24.565 Y-9.009 E3.99767
G1 X-23.745 Y-9.493 E4.04546
G1 X-22.663 Y-9.888 E4.10327
G1 X-21.527 Y-10.081 E4.1611
G1 X-20.426 Y-10.064 E4.21636
G1 X-20.426 Y-10.064 F7800
G1 X-15.328 Y1.602
G1 F1800
G1 X-15.328 Y-5.517 E4.57363
G1 X-15.712 Y-6.475 E4.62543
G1 X-15.712 Y2.055 E5.05352
G1 X-16.095 Y2.75 E5.09334
G1 X-16.095 Y-7.141 E5.58973
G1 X-16.478 Y-7.653 E5.62182
G1 X-16.478 Y3.263 E6.16965
G1 X-16.861 Y3.683 E6.19818
G1 X-16.861 Y-8.053 E6.78716
G1 X-17.244 Y-8.408 E6.81337
G1 X-17.244 Y4.036 E7.43788
G1 X-17.628 Y4.334 E7.46227
G1 X-17.628 Y-8.694 E8.11609
G1 X-18.011 Y-8.936 E8.13883
G1 X-18.011 Y4.576 E8.81694
G1 X-18.394 Y4.81 E8.83946
G1 X-18.394 Y-9.158 E9.54046
G1 X-18.777 Y-9.321 E9.56135
G1 X-18.777 Y4.964 E10.27826
G1 X-19.161 Y5.117 E10.299
G1 X-19.16 Y-9.467 E11.03091
G1 X-19.544 Y-9.579 E11.05098
G1 X-19.544 Y5.238 E11.79458
G1 X-19.927 Y5.314 E11.81418
G1 X-19.927 Y-9.656 E12.56546
G1 X-20.31 Y-9.733 E12.58507
G1 X-20.31 Y5.391 E13.34408
G1 X-20.693 Y5.423 E13.36337
G1 X-20.693 Y-9.757 E14.12519
G1 X-21.077 Y-9.763 E14.14446
G1 X-21.077 Y5.429 E14.90688
G1 X-21.46 Y5.434 E14.9261
G1 X-21.46 Y-9.769 E15.68908
G1 X-21.843 Y-9.712 E15.70851
G1 X-21.843 Y5.386 E16.46622
G1 X-22.226 Y5.321 E16.48572
G1 X-22.226 Y-9.648 E17.23695
G1 X-22.584 Y-9.587 E17.25518
G1 X-22.609 Y5.252 E17.99989
G1 X-22.993 Y5.127 E18.02016
G1 X-22.993 Y-9.438 E18.75112
G1 X-23.376 Y-9.298 E18.77159
G1 X-23.376 Y4.981 E19.48819
G1 X-23.759 Y4.816 E19.50912
G1 X-23.759 Y-9.124 E20.20871
G1 X-24.142 Y-8.898 E20.23103
G1 X-24.142 Y4.77 E20.91697
G1 E18.91697 F2400
G92 E0
G1 X-24.142 Y4.77 F7800
G1 X-25.647 Y-22.143
G1 E2 F2400
;TYPE:Perimeter
;WIDTH:0.42
G1 F1800
G1 X-25.798 Y-21.943 E2.01258
G1 X-25.879 Y-21.727 E2.02416
G1 X-25.9 Y-21.538 E2.0337
G1 X-25.9 Y24.6 E4.34918
G1 X-34.1 Y24.6 E4.7607
G1 X-34.1 Y-24.6 E7.22984
G1 X34.1 Y-24.6 E10.65252
G1 X34.1 Y-23.5 E10.70772
G1 X34.1 Y-22.4 E10.76292
G1 X-25.038 Y-22.4 E13.73081
G1 X-25.369 Y-22.333 E13.74776
G1 X-25.602 Y-22.181 E13.76172
G1 X-25.602 Y-22.181 F7800
G1 X-25.404 Y-21.9
G1 F1800
G1 X-25.494 Y-21.781 E13.76921
G1 X-25.555 Y-21.538 E13.78178
G1 X-25.555 Y24.945 E16.11457
G1 X-34.445 Y24.945 E16.56072
G1 X-34.445 Y-24.945 E19.06449
G1 X34.445 Y-24.945 E22.52179
G1 X34.445 Y-23.5 E22.59431
G1 X34.445 Y-22.055 E22.66683
G1 X-25.038 Y-22.055 E25.65204
G1 X-25.127 Y-22.047 E25.65652
G1 X-25.355 Y-21.932 E25.66934
G1 X-25.161 Y-21.653 F7800
;TYPE:External perimeter
G1 F1800
G1 X-25.21 Y-21.538 E25.67561
G1 X-25.21 Y25.29 E28.02571
G1 X-34.79 Y25.29 E28.50649
G1 X-34.79 Y-25.29 E31.04489
G1 X34.79 Y-25.29 E34.53682
G1 X34.79 Y-23.5 E34.62665
G1 X34.79 Y-21.71 E34.71648
G1 X-25.038 Y-21.71 E37.719
G1 X-25.11 Y-21.681 E37.7229
G1 X-25.203 Y-21.292 F7800
G1 E35.7229 F2400
G92 E0
G1 X33.297 Y-24.497 F7800
G1 E2 F2400
;TYPE:Solid infill
;WIDTH:0.421433
G1 F1800
G1 X33.842 Y-23.952 E2.03884
G1 X33.842 Y-23.462 E2.06353
G1 X32.962 Y-24.342 E2.12625
G1 X32.472 Y-24.342 E2.15094
G1 X33.842 Y-22.972 E2.24858
G1 X33.842 Y-22.658 E2.2644
G1 X33.666 Y-22.658 E2.27327
G1 X31.982 Y-24.342 E2.39329
G1 X31.493 Y-24.342 E2.41793
G1 X33.176 Y-22.658 E2.53791
G1 X32.686 Y-22.658 E2.5626
G1 X31.003 Y-24.342 E2.68258
G1 X30.513 Y-24.342 E2.70727
G1 X32.196 Y-22.658 E2.82725
G1 X31.706 Y-22.658 E2.85194
G1 X30.023 Y-24.342 E2.97192
G1 X29.534 Y-24.342 E2.99656
G1 X31.217 Y-22.658 E3.11654
G1 X30.727 Y-22.658 E3.14123
G1 X29.044 Y-24.342 E3.26121
G1 X28.554 Y-24.342 E3.2859
