; generated by PrusaSlicer 2.9.0 on 2025-03-11 at 18:24:41 UTC

; 

; external perimeters extrusion width = 0.45mm
; perimeters extrusion width = 0.45mm
; infill extrusion width = 0.45mm
; solid infill extrusion width = 0.45mm
; top infill extrusion width = 0.40mm
; first layer extrusion width = 0.42mm

M190 S60 ; set bed temperature and wait for it to be reached
M104 S215 ; set temperature
;TYPE:Custom
G28 ; home all axes
G1 Z5 F5000 ; lift nozzle
M109 S215 ; set temperature and wait for it to be reached
G21 ; set units to millimeters
G90 ; use absolute coordinates
M82 ; use absolute distances for extrusion
G92 E0
; Filament gcode
M107
;LAYER_CHANGE
;Z:0.35
;HEIGHT:0.35
G1 E-2 F2400
G1 Z.35 F7800
G1 X20.838 Y0
G1 E.00001 F2400
;TYPE:Skirt/Brim
;WIDTH:0.42
G1 F1800
G1 X20.838 Y-4.565 E.2291
G1 X21.235 Y-6.742 E.34016
G1 X22.374 Y-8.64 E.45125
G1 X24.11 Y-10.013 E.56233
G1 X27.011 Y-10.737 E.71238
G1 X42.011 Y-10.737 E1.46517
G1 X44.188 Y-10.341 E1.57622
G1 X46.085 Y-9.201 E1.68729
G1 X47.459 Y-7.466 E1.79836
G1 X48.183 Y-4.565 E1.94841
G1 X48.183 Y4.565 E2.40661
G1 X47.786 Y6.742 E2.51767
G1 X46.647 Y8.64 E2.62876
G1 X44.912 Y10.013 E2.7398
G1 X42.011 Y10.737 E2.88985
G1 X27.011 Y10.737 E3.64264
G1 X24.834 Y10.341 E3.75369
G1 X22.936 Y9.201 E3.8648
G1 X21.563 Y7.466 E3.97584
G1 X20.838 Y4.565 E4.12591
G1 X20.838 Y.06 E4.352
G1 E2.352 F2400
G92 E0
G1 X20.838 Y.06 F7800
G92 E0
G1 X41.111 Y-3.665
G1 E2 F2400
;TYPE:Perimeter
;WIDTH:0.42
G1 F1800
G1 X41.111 Y0 E2.18393
G1 X41.111 Y3.665 E2.36786
G1 X27.911 Y3.665 E3.03031
G1 X27.911 Y-3.665 E3.39817
G1 X41.051 Y-3.665 E4.05761
G1 X41.051 Y-3.665 F7800
G1 X41.456 Y-4.01
G1 F1800
G1 X41.456 Y0 E4.25886
G1 X41.456 Y4.01 E4.46011
G1 X27.566 Y4.01 E5.15719
G1 X27.566 Y-4.01 E5.55968
G1 X41.396 Y-4.01 E6.25375
G1 X41.396 Y-4.01 F7800
G1 X41.801 Y-4.355
;TYPE:External perimeter
G1 F1800
G1 X41.801 Y0 E6.47231
G1 X41.801 Y4.355 E6.69087
G1 X27.221 Y4.355 E7.42258
G1 X27.221 Y-4.355 E7.8597
G1 X41.741 Y-4.355 E8.5884
G1 X41.8 Y-3.959 F7800
G1 X41.008 Y-2.858
;TYPE:Solid infill
;WIDTH:0.423246
G1 F1800
G1 X40.459 Y-3.406 E8.6277
G1 X39.966 Y-3.406 E8.65267
G1 X40.852 Y-2.52 E8.71614
G1 X40.852 Y-2.028 E8.74106
G1 X39.474 Y-3.406 E8.83978
G1 X38.982 Y-3.406 E8.8647
G1 X40.852 Y-1.536 E8.99867
G1 X40.852 Y-1.043 E9.02364
G1 X38.489 Y-3.406 E9.19293
G1 X37.997 Y-3.406 E9.21785
G1 X40.852 Y-.551 E9.42239
G1 X40.852 Y-.059 E9.44731
G1 X37.505 Y-3.406 E9.68709
G1 X37.012 Y-3.406 E9.71206
G1 X40.852 Y.434 E9.98716
G1 X40.852 Y.926 E10.01208
G1 X36.52 Y-3.406 E10.32243
G1 X36.028 Y-3.406 E10.34735
G1 X40.852 Y1.418 E10.69295
G1 X40.852 Y1.911 E10.71792
G1 X35.535 Y-3.406 E11.09884
G1 X35.043 Y-3.406 E11.12376
G1 X40.852 Y2.403 E11.53993
G1 X40.852 Y2.895 E11.56485
G1 X34.551 Y-3.406 E12.01626
G1 X34.058 Y-3.406 E12.04123
G1 X40.852 Y3.388 E12.52796
G1 X40.852 Y3.406 E12.52887
G1 X40.379 Y3.406 E12.55283
G1 X33.566 Y-3.406 E13.04089
G1 X33.074 Y-3.406 E13.06581
G1 X39.887 Y3.406 E13.55387
G1 X39.394 Y3.406 E13.57884
G1 X32.581 Y-3.406 E14.0669
G1 X32.089 Y-3.406 E14.09182
G1 X38.902 Y3.406 E14.57988
G1 X38.41 Y3.406 E14.6048
G1 X31.597 Y-3.406 E15.09286
G1 X31.104 Y-3.406 E15.11783
G1 X37.917 Y3.406 E15.60589
G1 X37.425 Y3.406 E15.63081
G1 X30.612 Y-3.406 E16.11887
G1 X30.12 Y-3.406 E16.14379
G1 X36.933 Y3.406 E16.63185
G1 X36.44 Y3.406 E16.65682
G1 X29.627 Y-3.406 E17.14488
G1 X29.135 Y-3.406 E17.1698
G1 X35.948 Y3.406 E17.65786
G1 X35.456 Y3.406 E17.68278
G1 X28.643 Y-3.406 E18.17084
G1 X28.169 Y-3.406 E18.19485
G1 X28.169 Y-3.387 E18.19581
G1 X34.963 Y3.406 E18.68251
G1 X34.471 Y3.406 E18.70743
G1 X28.169 Y-2.895 E19.15888
G1 X28.169 Y-2.403 E19.1838
G1 X33.979 Y3.406 E19.6
G1 X33.486 Y3.406 E19.62497
G1 X28.169 Y-1.91 E20.00585
G1 X28.169 Y-1.418 E20.03077
G1 X32.994 Y3.406 E20.3764
G1 X32.502 Y3.406 E20.40132
G1 X28.169 Y-.926 E20.71171
G1 X28.169 Y-.433 E20.73668
G1 X32.009 Y3.406 E21.01175
G1 X31.517 Y3.406 E21.03667
G1 X28.169 Y.059 E21.27649
G1 X28.169 Y.551 E21.30141
G1 X31.024 Y3.406 E21.50595
G1 X30.532 Y3.406 E21.53087
G1 X28.169 Y1.044 E21.70012
G1 X28.169 Y1.536 E21.72504
G1 X30.04 Y3.406 E21.85905
G1 X29.547 Y3.406 E21.88402
G1 X28.169 Y2.028 E21.98274
G1 X28.169 Y2.521 E22.00771
G1 X29.055 Y3.406 E22.07115
G1 X28.563 Y3.406 E22.09607
G1 X28.014 Y2.858 E22.13537
M106 S127.5
;LAYER_CHANGE
;Z:0.65
;HEIGHT:0.3
G1 Z.65 F7800
M104 S210 ; set temperature
G1 E20.13537 F2400
G92 E0
G1 X28.014 Y2.858 F7800
G1 X41.015 Y-3.824
G1 E2 F2400
;TYPE:Perimeter
;WIDTH:0.45
G1 F3600
G1 X41.015 Y0 E2.18392
G1 X41.015 Y3.869 E2.37001
G1 X28.007 Y3.869 E2.99565
G1 X28.007 Y-3.869 E3.36782
G1 X41 Y-3.869 E3.99274
G1 X41 Y-3.869 F7800
G1 X41.4 Y-4.207
G1 F3600
G1 X41.4 Y0 E4.19508
G1 X41.4 Y4.255 E4.39973
G1 X27.621 Y4.255 E5.06245
G1 X27.621 Y-4.255 E5.47175
G1 X41.388 Y-4.255 E6.13389
G1 X41.388 Y-4.255 F7800
G1 X41.786 Y-4.587
;TYPE:External perimeter
G1 F1800
G1 X41.786 Y0 E6.35451
G1 X41.786 Y4.641 E6.57773
G1 X27.236 Y4.641 E7.27753
G1 X27.236 Y-4.641 E7.72396
G1 X41.779 Y-4.641 E8.42343
G1 X41.785 Y-4.241 F7800
G1 E6.42343 F2400
G92 E0
G1 X40.188 Y2.111 F7800
G1 E2 F2400
;TYPE:Top solid infill
;WIDTH:0.416506
G1 F900
G1 X40.75 Y1.548 E2.03494
G1 X40.75 Y1.05 E2.05681
G1 X39.841 Y1.96 E2.1133
G1 X39.343 Y1.96 E2.13517
G1 X40.75 Y.552 E2.22259
G1 X40.75 Y.054 E2.24446
G1 X38.855 Y1.949 E2.36216
G1 X38.456 Y1.85 E2.38022
G1 X40.75 Y-.444 E2.5227
G1 X40.75 Y-.942 E2.54457
G1 X38.11 Y1.699 E2.70857
G1 X37.814 Y1.497 E2.72431
G1 X40.75 Y-1.44 E2.9067
G1 X40.75 Y-1.938 E2.92857
G1 X37.582 Y1.23 E3.12534
G1 X37.408 Y.907 E3.14145
G1 X40.274 Y-1.96 E3.31949
G1 X39.776 Y-1.96 E3.34136
G1 X37.275 Y.542 E3.49673
G1 X37.234 Y.324 E3.50647
G1 X37.224 Y.094 E3.51658
G1 X39.278 Y-1.96 E3.64416
G1 X38.944 Y-1.958 E3.65883
G1 X38.752 Y-1.931 E3.66735
G1 X37.253 Y-.432 E3.76045
G1 X37.323 Y-.701 E3.77266
G1 X37.53 Y-1.152 E3.79445
G1 X37.659 Y-1.336 E3.80432
G1 X38.252 Y-1.929 E3.84115
G1 E1.84115 F2400
G92 E0
G1 X38.252 Y-1.929 F7800
G1 X28.401 Y-3.549
G1 E2 F2400
;TYPE:Solid infill
;WIDTH:0.543559
G1 F1200
G1 X28.359 Y-3.591 E2.00355
G1 X28.301 Y-3.576 E2.00713
G1 X28.285 Y-3.518 E2.01073
G1 X28.328 Y-3.476 E2.01432
G1 X28.385 Y-3.491 E2.01784
G1 X28.385 Y-3.491 F7800
G1 X28.173 Y-2.738
;WIDTH:0.404381
G1 F1200
G1 X28.102 Y-2.757 E2.02096
G1 X28.121 Y-2.686 E2.02408
G1 X28.162 Y-2.697 E2.02588
;WIDTH:0.45
G1 X28.296 Y-2.875 E2.0366
G1 X29.001 Y-3.58 E2.08455
G1 X29.179 Y-3.715 E2.09529
;WIDTH:0.404381
G1 X29.138 Y-3.704 E2.09709
G1 X29.119 Y-3.775 E2.10021
G1 X29.19 Y-3.756 E2.10333
;WIDTH:0.45
G1 X29.547 Y-3.58 E2.12247
G1 X28.296 Y-2.33 E2.20753
G1 X28.296 Y-1.784 E2.23379
G1 X30.092 Y-3.58 E2.35595
G1 X30.637 Y-3.58 E2.38216
G1 X28.296 Y-1.239 E2.54139
G1 X28.296 Y-.694 E2.5676
G1 X31.183 Y-3.58 E2.76394
G1 X31.728 Y-3.58 E2.79015
G1 X28.296 Y-.148 E3.02359
G1 X28.296 Y.397 E3.0498
G1 X32.273 Y-3.58 E3.32031
G1 X32.819 Y-3.58 E3.34657
G1 X28.296 Y.942 E3.65418
G1 X28.296 Y1.488 E3.68044
G1 X33.364 Y-3.58 E4.02516
G1 X33.909 Y-3.58 E4.05137
G1 X28.296 Y2.033 E4.43316
G1 X28.296 Y2.578 E4.45937
G1 X34.455 Y-3.58 E4.87826
G1 X35 Y-3.58 E4.90447
G1 X28.296 Y3.124 E5.36047
G1 X28.204 Y3.732 E5.39005
;WIDTH:0.404381
G1 X28.163 Y3.743 E5.39185
G1 X28.144 Y3.672 E5.39497
G1 X28.215 Y3.691 E5.39809
;WIDTH:0.45
G1 X28.385 Y3.58 E5.40786
G1 X35.545 Y-3.58 E5.89487
G1 X36.091 Y-3.58 E5.92113
G1 X28.93 Y3.58 E6.40818
G1 X29.476 Y3.58 E6.43444
G1 X36.636 Y-3.58 E6.92145
G1 X37.182 Y-3.58 E6.94771
G1 X30.021 Y3.58 E7.43476
G1 X30.566 Y3.58 E7.46097
G1 X37.727 Y-3.58 E7.94802
G1 X38.272 Y-3.58 E7.97423
G1 X31.112 Y3.58 E8.46124
G1 X31.657 Y3.58 E8.48745
G1 X38.818 Y-3.58 E8.9745
G1 X39.363 Y-3.58 E9.00071
G1 X32.203 Y3.58 E9.48772
G1 X32.505 Y3.723 E9.50379
;WIDTH:0.404381
G1 X32.464 Y3.734 E9.50559
G1 X32.445 Y3.663 E9.50871
G1 X32.516 Y3.682 E9.51183
;WIDTH:0.45
G1 X32.748 Y3.58 E9.52402
G1 X36.916 Y-.588 E9.80752
G1 X37.117 Y-.83 E9.82265
;WIDTH:0.404381
G1 X37.076 Y-.819 E9.82445
G1 X37.057 Y-.891 E9.82761
G1 X37.128 Y-.872 E9.83073
G1 X37.128 Y-.872 F7800
G1 X36.864 Y.01
;WIDTH:0.45
G1 F1200
G1 X33.293 Y3.58 E10.07359
G1 X33.839 Y3.58 E10.09985
G1 X36.902 Y.517 E10.30819
G1 X37.029 Y.935 E10.3292
G1 X34.384 Y3.58 E10.50911
G1 X34.811 Y3.775 E10.53169
;WIDTH:0.404381
G1 X34.77 Y3.786 E10.53349
G1 X34.751 Y3.715 E10.53661
G1 X34.822 Y3.734 E10.53973
;WIDTH:0.45
G1 X34.929 Y3.58 E10.54875
G1 X37.202 Y1.307 E10.70336
G1 X37.439 Y1.615 E10.72205
G1 X37.594 Y1.782 E10.73301
G1 X38.053 Y2.073 E10.75915
G1 X38.536 Y2.253 E10.78394
G1 X38.99 Y2.32 E10.80601
G1 X40.725 Y2.32 E10.88946
G1 X40.725 Y3.58 E10.95006
G1 X35.475 Y3.58 E11.20257
G1 X37.303 Y1.752 E11.32691
G1 X37.451 Y2.149 E11.34729
G1 X37.918 Y2.434 E11.3736
;WIDTH:0.491658
G1 X38.217 Y2.56 E11.39089
;WIDTH:0.533317
G1 X38.516 Y2.686 E11.40987
G1 X38.99 Y2.732 E11.43772
;WIDTH:0.501538
G1 X40.314 Y2.732 E11.50991
G1 X40.314 Y3.169 E11.53374
G1 X38.99 Y3.169 E11.60593
;WIDTH:0.505659
G1 X38.296 Y3.173 E11.64413
;WIDTH:0.494143
G1 X37.781 Y3.195 E11.67176
;WIDTH:0.45
G1 X36.406 Y3.195 E11.73789
G1 X37.315 Y2.285 E11.79975
G1 X37.578 Y2.718 E11.82412
;WIDTH:0.596901
G1 X37.531 Y2.671 E11.82853
G1 X37.467 Y2.688 E11.83293
G1 X37.45 Y2.753 E11.83739
G1 X37.497 Y2.8 E11.8418
G1 X37.561 Y2.783 E11.8462
G1 E9.8462 F2400
G92 E0
G1 X37.561 Y2.783 F7800
G1 X38.354 Y-2.067
G1 E2 F2400
;WIDTH:0.404381
G1 F1200
G1 X38.312 Y-2.056 E2.00184
G1 X38.293 Y-2.127 E2.00496
G1 X38.365 Y-2.108 E2.00812
;WIDTH:0.45
G1 X38.596 Y-2.268 E2.02164
G1 X39.908 Y-3.58 E2.11088
G1 X40.454 Y-3.58 E2.13714
G1 X39.194 Y-2.32 E2.22284
G1 X39.194 Y-2.32 F7800
G1 X40.541 Y-3.054
;WIDTH:0.546068
G1 F1200
G1 X39.855 Y-2.368 E2.28113
G1 X40.677 Y-2.368 E2.33051
G1 X40.677 Y-3.191 E2.37995
M106 S255
;LAYER_CHANGE
;Z:0.95
;HEIGHT:0.3
G1 Z.95 F7800
G1 E.37995 F2400
G92 E0
G1 X40.677 Y-3.191 F7800
G1 X38.304 Y.88
G1 E2 F2400
;TYPE:Perimeter
;WIDTH:0.45
G1 F3600
G1 X38.4 Y.977 E2.00656
G1 X38.666 Y1.117 E2.02102
G1 X38.979 Y1.169 E2.03628
G1 X41.015 Y1.169 E2.1342
G1 X41.015 Y2.576 E2.20187
G1 X41.015 Y3.983 E2.26954
G1 X28.007 Y3.983 E2.89518
G1 X28.007 Y-3.983 E3.27832
G1 X41.015 Y-3.977 E3.90396
G1 X41.015 Y-1.169 E4.03902
G1 X38.812 Y-1.155 E4.14498
G1 X38.4 Y-.977 E4.16657
G1 X38.207 Y-.784 E4.1797
G1 X38.089 Y-.576 E4.1912
G1 X38.03 Y-.379 E4.20109
G1 X38.015 Y.205 E4.22919
G1 X38.089 Y.576 E4.24739
G1 X38.207 Y.784 E4.25889
G1 X38.261 Y.838 E4.26256
G1 X38.261 Y.838 F7800
G1 X38.581 Y.603
G1 F3600
G1 X38.632 Y.668 E4.26653
G1 X38.791 Y.753 E4.2752
G1 X38.979 Y.784 E4.28436
G1 X41.4 Y.784 E4.4008
G1 X41.4 Y2.576 E4.48699
G1 X41.4 Y4.369 E4.57323
G1 X27.621 Y4.369 E5.23595
G1 X27.621 Y-4.369 E5.65622
G1 X41.4 Y-4.362 E6.31894
G1 X41.4 Y-.784 E6.49103
G1 X38.879 Y-.775 E6.61228
G1 X38.631 Y-.668 E6.62527
G1 X38.516 Y-.552 E6.63313
G1 X38.41 Y-.31 E6.64584
G1 X38.4 Y.205 E6.67061
G1 X38.445 Y.428 E6.68155
G1 X38.544 Y.555 E6.68929
G1 X38.544 Y.555 F7800
G1 X38.853 Y.336
;TYPE:External perimeter
G1 F1800
G1 X38.979 Y.398 E6.69604
G1 X41.786 Y.398 E6.83105
G1 X41.786 Y2.576 E6.9358
G1 X41.786 Y4.754 E7.04055
G1 X27.236 Y4.754 E7.74035
G1 X27.236 Y-4.754 E8.19765
G1 X41.786 Y-4.748 E8.89745
G1 X41.786 Y-.398 E9.10667
G1 X38.916 Y-.388 E9.24471
G1 X38.801 Y-.28 E9.2523
G1 X38.786 Y.205 E9.27564
G1 X38.816 Y.295 E9.2802
G1 X39.204 Y.39 F7800
G1 E7.2802 F2400
G92 E0
G1 X28.328 Y3.589 F7800
G1 E2 F2400
;TYPE:Solid infill
;WIDTH:0.543559
G1 F1200
G1 X28.285 Y3.632 E2.00363
G1 X28.301 Y3.69 E2.00723
G1 X28.359 Y3.705 E2.01081
G1 X28.401 Y3.663 E2.01436
G1 X28.385 Y3.605 E2.01796
;WIDTH:0.45
G1 X28.296 Y2.989 E2.0479
G1 X29.138 Y3.818 E2.10473
;WIDTH:0.404381
G1 X29.119 Y3.889 E2.10785
G1 X29.19 Y3.87 E2.11097
G1 X29.179 Y3.829 E2.11277
;WIDTH:0.45
G1 X29.547 Y3.694 E2.13162
G1 X28.296 Y2.444 E2.21668
G1 X28.296 Y1.898 E2.24294
G1 X30.092 Y3.694 E2.3651
G1 X30.637 Y3.694 E2.39131
G1 X28.296 Y1.353 E2.55054
G1 X28.296 Y.808 E2.57675
G1 X31.183 Y3.694 E2.77309
G1 X31.728 Y3.694 E2.7993
G1 X28.296 Y.262 E3.03274
G1 X28.296 Y-.283 E3.05895
G1 X32.273 Y3.694 E3.32946
G1 X32.819 Y3.694 E3.35572
G1 X28.296 Y-.828 E3.66333
G1 X28.296 Y-1.374 E3.68959
G1 X33.364 Y3.694 E4.03431
G1 X33.909 Y3.694 E4.06052
G1 X28.296 Y-1.919 E4.44231
G1 X28.296 Y-2.465 E4.46857
G1 X34.455 Y3.694 E4.8875
G1 X35 Y3.694 E4.91371
G1 X28.296 Y-3.01 E5.36971
G1 X28.296 Y-3.555 E5.39592
G1 X35.545 Y3.694 E5.88899
G1 X36.091 Y3.694 E5.91525
G1 X28.704 Y-3.693 E6.4177
G1 X29.249 Y-3.693 E6.44391
G1 X36.636 Y3.694 E6.94636
G1 X37.182 Y3.694 E6.97262
G1 X29.795 Y-3.693 E7.47507
G1 X30.34 Y-3.693 E7.50128
G1 X37.727 Y3.694 E8.00373
G1 X38.272 Y3.694 E8.02994
G1 X30.886 Y-3.692 E8.53233
G1 X31.431 Y-3.692 E8.55854
G1 X38.818 Y3.694 E9.06096
G1 X39.363 Y3.694 E9.08717
G1 X31.977 Y-3.692 E9.58956
G1 X32.523 Y-3.692 E9.61582
G1 X39.908 Y3.694 E10.11817
G1 X39.908 Y3.694 F7800
G1 X40.835 Y3.744
;WIDTH:0.404381
G1 F1200
G1 X40.846 Y3.785 E10.11997
G1 X40.775 Y3.804 E10.12309
G1 X40.794 Y3.733 E10.12621
;WIDTH:0.45
G1 X40.454 Y3.694 E10.14267
G1 X33.068 Y-3.691 E10.64502
G1 X33.614 Y-3.691 E10.67128
G1 X37.749 Y.444 E10.95254
G1 X37.92 Y.717 E10.96803
;WIDTH:0.404381
G1 X38.066 Y.905 E10.97812
G1 X38.449 Y1.246 E10.99987
;WIDTH:0.45
G1 X38.722 Y1.417 E11.01536
G1 X40.725 Y3.42 E11.1516
G1 X40.92 Y2.993 E11.17418
;WIDTH:0.404381
G1 X40.931 Y3.034 E11.17598
G1 X40.86 Y3.053 E11.1791
G1 X40.879 Y2.982 E11.18222
;WIDTH:0.45
G1 X40.725 Y2.875 E11.19124
G1 X39.309 Y1.459 E11.28755
G1 X39.93 Y1.49 E11.31746
;WIDTH:0.512314
G1 X40.694 Y1.49 E11.36014
G1 X40.694 Y2.254 E11.40282
G1 X40.066 Y1.626 E11.45244
G1 E9.45244 F2400
G92 E0
G1 X40.066 Y1.626 F7800
G1 X37.731 Y-.12
G1 E2 F2400
;WIDTH:0.45
G1 F1200
G1 X34.159 Y-3.691 E2.24293
G1 X34.705 Y-3.691 E2.26919
G1 X37.795 Y-.6 E2.4794
G1 X37.979 Y-.962 E2.49893
G1 X35.251 Y-3.69 E2.68449
G1 X35.796 Y-3.69 E2.7107
G1 X38.26 Y-1.227 E2.87826
G1 E.87826 F2400
G92 E0
G1 X38.26 Y-1.227 F7800
G1 X36.478 Y-3.554
G1 E2 F2400
G1 F1200
G1 X38.629 Y-1.403 E2.14631
G1 X39.035 Y-1.459 E2.16602
G1 X40.725 Y-1.459 E2.2473
G1 X40.725 Y-3.688 E2.35451
G1 X36.342 Y-3.69 E2.56532
G1 X36.342 Y-3.69 F7800
G1 X37.273 Y-3.304
G1 F1200
G1 X40.34 Y-3.302 E2.71283
G1 X40.34 Y-1.844 E2.78295
G1 X39.61 Y-1.844 E2.81806
G1 X38.761 Y-1.816 E2.85892
G1 X37.41 Y-3.167 E2.95081
G1 X37.41 Y-3.167 F7800
G1 X38.205 Y-2.918
G1 F1200
G1 X39.954 Y-2.917 E3.03493
G1 X39.954 Y-2.23 E3.06797
G1 X38.899 Y-2.223 E3.11871
G1 X38.341 Y-2.781 E3.15666
G1 X39.035 Y-2.574 E3.19149
;WIDTH:0.366293
G1 X39.61 Y-2.574 E3.21314
;LAYER_CHANGE
;Z:1.25
;HEIGHT:0.3
G1 Z1.25 F7800
G1 E1.21314 F2400
G92 E0
G1 X39.61 Y-2.574 F7800
G1 X38.297 Y1.401
G1 E2 F2400
;TYPE:Perimeter
;WIDTH:0.45
G1 F1501
G1 X38.314 Y1.423 E2.00134
G1 X38.608 Y1.615 E2.01823
G1 X38.979 Y1.689 E2.03643
G1 X41.015 Y1.689 E2.13435
G1 X41.015 Y2.846 E2.19
G1 X41.015 Y4.004 E2.2457
G1 X28.007 Y4.004 E2.87134
G1 X28.007 Y-4.004 E3.2565
G1 X41.015 Y-4.004 E3.88214
G1 X41.015 Y-1.689 E3.99348
G1 X38.979 Y-1.689 E4.0914
G1 X38.608 Y-1.615 E4.1096
G1 X38.314 Y-1.423 E4.12649
G1 X38.128 Y-1.179 E4.14125
G1 X38.038 Y-.937 E4.15367
G1 X38.015 Y-.725 E4.16393
G1 X38.038 Y.937 E4.24387
G1 X38.128 Y1.179 E4.25629
G1 X38.261 Y1.353 E4.26682
G1 X38.261 Y1.353 F7800
G1 X38.57 Y1.126
G1 F1501
G1 X38.58 Y1.144 E4.26781
G1 X38.756 Y1.259 E4.27792
G1 X38.979 Y1.303 E4.28885
G1 X41.4 Y1.303 E4.40529
G1 X41.4 Y2.846 E4.4795
G1 X41.4 Y4.389 E4.55371
G1 X27.621 Y4.389 E5.21643
G1 X27.621 Y-4.389 E5.63862
G1 X41.4 Y-4.389 E6.30134
G1 X41.4 Y-1.303 E6.44977
G1 X38.879 Y-1.295 E6.57102
G1 X38.58 Y-1.144 E6.58713
G1 X38.468 Y-.997 E6.59602
G1 X38.4 Y-.725 E6.6095
G1 X38.414 Y.852 E6.68535
G1 X38.54 Y1.074 E6.69763
G1 X38.54 Y1.074 F7800
G1 X38.841 Y.854
;TYPE:External perimeter
G1 F1501
G1 X38.846 Y.865 E6.69821
G1 X38.979 Y.918 E6.7051
G1 X41.786 Y.918 E6.84011
G1 X41.786 Y2.846 E6.93284
G1 X41.786 Y4.775 E7.02562
G1 X27.236 Y4.775 E7.72542
G1 X27.236 Y-4.775 E8.18474
G1 X41.786 Y-4.775 E8.88454
G1 X41.786 Y-.918 E9.07005
G1 X38.979 Y-.918 E9.20506
G1 X38.846 Y-.865 E9.21195
G1 X38.786 Y-.725 E9.21928
