; generated by PrusaSlicer 2.9.0 on 2025-03-12 at 11:42:17 UTC

; 

; external perimeters extrusion width = 0.45mm
; perimeters extrusion width = 0.45mm
; infill extrusion width = 0.45mm
; solid infill extrusion width = 0.45mm
; top infill extrusion width = 0.40mm
; first layer extrusion width = 0.42mm

M190 S60 ; set bed temperature and wait for it to be reached
M104 S215 ; set temperature
;TYPE:Custom
G28 ; home all axes
G1 Z5 F5000 ; lift nozzle
M109 S215 ; set temperature and wait for it to be reached
G21 ; set units to millimeters
G90 ; use absolute coordinates
M82 ; use absolute distances for extrusion
G92 E0
; Filament gcode
M107
;LAYER_CHANGE
;Z:0.35
;HEIGHT:0.35
G1 E-2 F2400
G1 Z.35 F7800
G1 X8.159 Y-13.588
G1 E.00001 F2400
;TYPE:Skirt/Brim
;WIDTH:0.42
G1 F1800
G1 X6.615 Y-14.515 E.09038
G1 X5.241 Y-16.25 E.20145
G1 X4.517 Y-19.151 E.3515
G1 X4.517 Y-26.785 E.73462
G1 X4.914 Y-28.962 E.84568
G1 X6.053 Y-30.86 E.95677
G1 X7.788 Y-32.233 E1.06781
G1 X10.689 Y-32.957 E1.21786
G1 X25.689 Y-32.957 E1.97065
G1 X27.867 Y-32.561 E2.08175
G1 X29.764 Y-31.421 E2.19282
G1 X31.137 Y-29.686 E2.30386
G1 X31.862 Y-26.785 E2.45393
G1 X31.862 Y-19.151 E2.83705
G1 X31.465 Y-16.974 E2.94811
G1 X30.326 Y-15.076 E3.0592
G1 X28.59 Y-13.703 E3.17028
G1 X25.689 Y-12.979 E3.32033
G1 X10.689 Y-12.979 E4.07312
G1 X8.512 Y-13.375 E4.18417
G1 X8.21 Y-13.557 E4.20187
G1 E2.20187 F2400
G92 E0
G1 X8.21 Y-13.557 F7800
G92 E0
G1 X24.79 Y-25.881
G1 E2 F2400
;TYPE:Perimeter
;WIDTH:0.42
G1 F1800
G1 X24.79 Y-22.967 E2.14624
G1 X24.79 Y-20.051 E2.29258
G1 X11.589 Y-20.051 E2.95508
G1 X11.589 Y-25.885 E3.24786
G1 X24.73 Y-25.881 E3.90735
G1 X24.73 Y-25.881 F7800
G1 X25.134 Y-26.226
G1 F1800
G1 X25.134 Y-22.967 E4.07091
G1 X25.134 Y-19.706 E4.23457
G1 X11.244 Y-19.706 E4.93165
G1 X11.244 Y-26.23 E5.25906
G1 X25.074 Y-26.226 E5.95313
G1 X25.074 Y-26.226 F7800
G1 X25.479 Y-26.571
;TYPE:External perimeter
G1 F1800
G1 X25.479 Y-22.967 E6.134
G1 X25.479 Y-19.361 E6.31497
G1 X10.899 Y-19.361 E7.04668
G1 X10.899 Y-26.575 E7.40872
G1 X25.419 Y-26.571 E8.13742
G1 X25.479 Y-26.175 F7800
G1 X23.983 Y-25.778
;TYPE:Solid infill
;WIDTH:0.422823
G1 F1800
G1 X24.531 Y-25.23 E8.17663
G1 X24.531 Y-24.738 E8.20152
G1 X23.646 Y-25.623 E8.26485
G1 X23.154 Y-25.623 E8.28974
G1 X24.531 Y-24.247 E8.38823
G1 X24.531 Y-23.755 E8.41312
G1 X22.662 Y-25.623 E8.54682
G1 X22.17 Y-25.623 E8.57171
G1 X24.531 Y-23.263 E8.74061
G1 X24.531 Y-22.771 E8.7655
G1 X21.679 Y-25.624 E8.96961
G1 X21.187 Y-25.624 E8.9945
G1 X24.531 Y-22.28 E9.23378
G1 X24.531 Y-21.788 E9.25867
G1 X20.695 Y-25.624 E9.53315
G1 X20.203 Y-25.624 E9.55804
G1 X24.531 Y-21.296 E9.86773
G1 X24.531 Y-20.804 E9.89262
G1 X19.711 Y-25.624 E10.23751
G1 X19.219 Y-25.624 E10.2624
G1 X24.531 Y-20.31 E10.64257
G1 X24.042 Y-20.31 E10.66731
G1 X18.727 Y-25.624 E11.04759
G1 X18.236 Y-25.624 E11.07243
G1 X23.55 Y-20.31 E11.45267
G1 X23.059 Y-20.31 E11.47751
G1 X17.744 Y-25.625 E11.85782
G1 X17.252 Y-25.625 E11.88271
G1 X22.567 Y-20.31 E12.26302
G1 X22.075 Y-20.31 E12.28791
G1 X16.76 Y-25.625 E12.66822
G1 X16.268 Y-25.625 E12.69311
G1 X21.583 Y-20.31 E13.07342
G1 X21.092 Y-20.31 E13.09826
G1 X15.776 Y-25.625 E13.47861
G1 X15.284 Y-25.625 E13.5035
G1 X20.6 Y-20.31 E13.88385
G1 X20.108 Y-20.31 E13.90874
G1 X14.792 Y-25.625 E14.28909
G1 X14.301 Y-25.626 E14.31393
G1 X19.617 Y-20.31 E14.69431
G1 X19.125 Y-20.31 E14.7192
G1 X13.809 Y-25.626 E15.09958
G1 X13.317 Y-25.626 E15.12447
G1 X18.633 Y-20.31 E15.50485
G1 X18.141 Y-20.31 E15.52974
G1 X12.825 Y-25.626 E15.91012
G1 X12.333 Y-25.626 E15.93501
G1 X17.65 Y-20.31 E16.31543
G1 X17.158 Y-20.31 E16.34032
G1 X11.848 Y-25.62 E16.72027
G1 X11.848 Y-25.128 E16.74516
G1 X16.666 Y-20.31 E17.08991
G1 X16.174 Y-20.31 E17.1148
G1 X11.848 Y-24.636 E17.42434
G1 X11.848 Y-24.144 E17.44923
G1 X15.683 Y-20.31 E17.72361
G1 X15.191 Y-20.31 E17.7485
G1 X11.848 Y-23.653 E17.98771
G1 X11.848 Y-23.161 E18.0126
G1 X14.699 Y-20.31 E18.2166
G1 X14.207 Y-20.31 E18.24149
G1 X11.848 Y-22.669 E18.41029
G1 X11.848 Y-22.177 E18.43518
G1 X13.716 Y-20.31 E18.56881
G1 X13.224 Y-20.31 E18.5937
G1 X11.848 Y-21.686 E18.69216
G1 X11.848 Y-21.194 E18.71705
G1 X12.732 Y-20.31 E18.7803
G1 X12.24 Y-20.31 E18.80519
G1 X11.693 Y-20.857 E18.84433
M106 S127.5
;LAYER_CHANGE
;Z:0.65
;HEIGHT:0.3
G1 Z.65 F7800
M104 S210 ; set temperature
G1 E16.84433 F2400
G92 E0
G1 X11.693 Y-20.857 F7800
G1 X24.693 Y-20.34
G1 E2 F2400
;TYPE:Perimeter
;WIDTH:0.45
G1 F900
G1 X24.693 Y-19.642 E2.03357
G1 X11.686 Y-19.642 E2.65916
G1 X11.686 Y-26.294 E2.9791
G1 X24.693 Y-26.294 E3.60469
G1 X24.693 Y-22.968 E3.76466
G1 X24.693 Y-20.4 E3.88817
G1 X24.693 Y-20.4 F7800
G1 X25.079 Y-20.34
G1 F3600
G1 X25.079 Y-19.257 E3.94026
G1 X11.3 Y-19.257 E4.60298
G1 X11.3 Y-26.679 E4.95995
G1 X25.079 Y-26.679 E5.62267
G1 X25.079 Y-22.968 E5.80116
G1 X25.079 Y-20.4 E5.92467
G1 X25.079 Y-20.4 F7800
G1 X25.464 Y-20.34
;TYPE:External perimeter
G1 F1800
G1 X25.464 Y-18.951 E5.99148
;TYPE:Overhang perimeter
;WIDTH:0.4
;HEIGHT:0.4
G1 F3600
G1 X25.464 Y-18.871 E5.99566
G1 X10.914 Y-18.871 E6.75582
G1 X10.914 Y-18.951 E6.76
;TYPE:External perimeter
;WIDTH:0.45
;HEIGHT:0.3
G1 F1800
G1 X10.914 Y-26.985 E7.14641
;TYPE:Overhang perimeter
;WIDTH:0.4
;HEIGHT:0.4
G1 F3600
G1 X10.914 Y-27.065 E7.15059
G1 X25.464 Y-27.065 E7.91075
G1 X25.464 Y-26.985 E7.91493
;TYPE:External perimeter
;WIDTH:0.45
;HEIGHT:0.3
G1 F1800
G1 X25.464 Y-22.968 E8.10813
G1 X25.464 Y-20.4 E8.23164
G1 X25.464 Y-20 F7800
G1 E6.23164 F2400
G92 E0
G1 X12.079 Y-25.973 F7800
G1 E2 F2400
;TYPE:Solid infill
;WIDTH:0.543559
G1 F1200
G1 X12.037 Y-26.016 E2.00359
G1 X11.979 Y-26 E2.00719
G1 X11.964 Y-25.942 E2.01077
G1 X12.006 Y-25.9 E2.01432
G1 X12.064 Y-25.915 E2.0179
;WIDTH:0.45
G1 X11.975 Y-25.299 E2.04784
G1 X12.68 Y-26.004 E2.09579
G1 X12.858 Y-26.139 E2.10653
;WIDTH:0.404381
G1 X12.817 Y-26.128 E2.10833
G1 X12.798 Y-26.199 E2.11145
G1 X12.869 Y-26.18 E2.11457
;WIDTH:0.45
G1 X13.225 Y-26.004 E2.13367
G1 X11.975 Y-24.754 E2.21869
G1 X11.975 Y-24.209 E2.2449
G1 X13.771 Y-26.004 E2.36703
G1 X14.316 Y-26.004 E2.39324
G1 X11.975 Y-23.663 E2.55247
G1 X11.975 Y-23.118 E2.57868
G1 X14.861 Y-26.004 E2.77498
G1 X15.407 Y-26.004 E2.80124
G1 X11.975 Y-22.573 E3.03465
G1 X11.975 Y-22.027 E3.06091
G1 X15.952 Y-26.004 E3.33142
G1 X16.497 Y-26.004 E3.35763
G1 X11.975 Y-21.482 E3.66521
G1 X11.975 Y-20.937 E3.69142
G1 X17.043 Y-26.004 E4.03611
G1 X17.588 Y-26.004 E4.06232
G1 X11.975 Y-20.391 E4.44411
G1 X11.881 Y-19.778 E4.47394
;WIDTH:0.404381
G1 X11.84 Y-19.767 E4.47574
G1 X11.821 Y-19.838 E4.47886
G1 X11.892 Y-19.819 E4.48198
;WIDTH:0.45
G1 X12.06 Y-19.932 E4.49172
G1 X18.133 Y-26.004 E4.90476
G1 X18.679 Y-26.004 E4.93102
G1 X12.606 Y-19.932 E5.34406
G1 X13.151 Y-19.932 E5.37027
G1 X19.224 Y-26.004 E5.78331
G1 X19.769 Y-26.004 E5.80952
G1 X13.696 Y-19.932 E6.22256
G1 X14.242 Y-19.932 E6.24882
G1 X20.315 Y-26.004 E6.66186
G1 X20.86 Y-26.004 E6.68807
G1 X14.787 Y-19.932 E7.10111
G1 X15.333 Y-19.932 E7.12737
G1 X21.405 Y-26.004 E7.54038
G1 X21.951 Y-26.004 E7.56664
G1 X15.878 Y-19.932 E7.97968
G1 X16.423 Y-19.932 E8.00589
G1 X22.496 Y-26.004 E8.41893
G1 X23.041 Y-26.004 E8.44514
G1 X16.969 Y-19.932 E8.85815
G1 X17.514 Y-19.932 E8.88436
G1 X23.587 Y-26.004 E9.2974
G1 X23.587 Y-26.004 F7800
G1 X24.525 Y-26.095
;WIDTH:0.404381
G1 F1200
G1 X24.454 Y-26.114 E9.30052
G1 X24.473 Y-26.043 E9.30364
G1 X24.514 Y-26.054 E9.30544
;WIDTH:0.45
G1 X24.132 Y-26.004 E9.32397
G1 X18.059 Y-19.932 E9.73701
G1 X18.605 Y-19.932 E9.76327
G1 X24.404 Y-25.731 E10.15771
G1 X24.404 Y-25.185 E10.18397
G1 X19.15 Y-19.932 E10.54131
G1 X19.695 Y-19.932 E10.56752
G1 X24.404 Y-24.64 E10.88779
G1 X24.404 Y-24.095 E10.914
G1 X20.241 Y-19.932 E11.19716
G1 X20.786 Y-19.932 E11.22337
G1 X24.404 Y-23.549 E11.46943
G1 X24.404 Y-23.004 E11.49564
G1 X21.331 Y-19.932 E11.70463
G1 X21.877 Y-19.932 E11.73089
G1 X24.404 Y-22.459 E11.90277
G1 X24.404 Y-21.913 E11.92903
G1 X22.422 Y-19.932 E12.06381
G1 E10.06381 F2400
G92 E0
G1 X22.422 Y-19.932 F7800
G1 X24.268 Y-21.232
G1 E2 F2400
G1 F1200
G1 X22.967 Y-19.932 E2.08846
G1 X24.404 Y-19.932 E2.15757
G1 X24.404 Y-21.368 E2.22664
G1 X24.404 Y-21.368 F7800
G1 X24.038 Y-20.367
;WIDTH:0.520211
G1 F1200
G1 X23.998 Y-20.407 E2.22986
G1 X23.943 Y-20.393 E2.23309
G1 X23.928 Y-20.338 E2.23633
G1 X23.968 Y-20.297 E2.23959
G1 X24.023 Y-20.312 E2.24283
M106 S255
;LAYER_CHANGE
;Z:0.95
;HEIGHT:0.3
G1 Z.95 F7800
G1 X24.693 Y-19.365
;TYPE:Perimeter
;WIDTH:0.45
G1 F900
G1 X11.686 Y-19.365 E2.86842
G1 X11.686 Y-26.571 E3.215
G1 X24.693 Y-26.571 E3.84059
G1 X24.693 Y-22.968 E4.01388
G1 X24.693 Y-19.425 E4.18429
G1 X24.693 Y-19.425 F7800
G1 X25.079 Y-18.979
G1 F3600
G1 X11.3 Y-18.979 E4.84701
G1 X11.3 Y-26.957 E5.23072
G1 X25.079 Y-26.957 E5.89344
G1 X25.079 Y-22.968 E6.0853
G1 X25.079 Y-19.039 E6.27427
G1 X25.079 Y-19.039 F7800
G1 X25.464 Y-18.593
;TYPE:External perimeter
G1 F1800
G1 X10.914 Y-18.593 E6.97407
G1 X10.914 Y-27.343 E7.39491
G1 X25.464 Y-27.343 E8.09471
G1 X25.464 Y-22.968 E8.30513
G1 X25.464 Y-18.653 E8.51267
G1 X25.069 Y-18.594 F7800
G1 E6.51267 F2400
G92 E0
G1 X12.006 Y-19.758 F7800
G1 E2 F2400
;TYPE:Solid infill
;WIDTH:0.543559
G1 F1200
G1 X11.964 Y-19.716 E2.00355
G1 X11.979 Y-19.658 E2.00713
G1 X12.037 Y-19.643 E2.01071
G1 X12.079 Y-19.685 E2.01426
G1 X12.064 Y-19.743 E2.01784
;WIDTH:0.45
G1 X11.975 Y-20.359 E2.04778
G1 X12.817 Y-19.53 E2.10461
;WIDTH:0.404381
G1 X12.798 Y-19.459 E2.10773
G1 X12.869 Y-19.478 E2.11085
G1 X12.858 Y-19.519 E2.11265
;WIDTH:0.45
G1 X13.225 Y-19.654 E2.13146
G1 X11.975 Y-20.904 E2.21648
G1 X11.975 Y-21.45 E2.24274
G1 X13.771 Y-19.654 E2.3649
G1 X14.316 Y-19.654 E2.39111
G1 X11.975 Y-21.995 E2.55034
G1 X11.975 Y-22.54 E2.57655
G1 X14.861 Y-19.654 E2.77285
G1 X15.407 Y-19.654 E2.79911
G1 X11.975 Y-23.086 E3.03255
G1 X11.975 Y-23.631 E3.05876
G1 X15.952 Y-19.654 E3.32927
G1 X16.497 Y-19.654 E3.35548
G1 X11.975 Y-24.176 E3.66306
G1 X11.975 Y-24.722 E3.68932
G1 X17.043 Y-19.654 E4.03404
G1 X17.588 Y-19.654 E4.06025
G1 X11.975 Y-25.267 E4.44204
G1 X11.975 Y-25.812 E4.46825
G1 X18.133 Y-19.654 E4.88711
G1 X18.679 Y-19.654 E4.91337
G1 X12.05 Y-26.282 E5.36423
G1 X11.847 Y-26.41 E5.37577
;WIDTH:0.404381
G1 X11.833 Y-26.231 E5.38338
;WIDTH:0.45
G1 X12.596 Y-26.282 E5.42016
G1 X19.224 Y-19.654 E5.87099
G1 X19.769 Y-19.654 E5.8972
G1 X13.141 Y-26.282 E6.34803
G1 X13.686 Y-26.282 E6.37424
G1 X20.315 Y-19.654 E6.8251
G1 X20.86 Y-19.654 E6.85131
G1 X14.232 Y-26.282 E7.30214
G1 X14.777 Y-26.282 E7.32835
G1 X21.405 Y-19.654 E7.77918
G1 X21.951 Y-19.654 E7.80544
G1 X15.322 Y-26.282 E8.2563
G1 X15.868 Y-26.282 E8.28256
G1 X22.496 Y-19.654 E8.73339
G1 X23.041 Y-19.654 E8.7596
G1 X16.413 Y-26.282 E9.21043
G1 X16.958 Y-26.282 E9.23664
G1 X23.587 Y-19.654 E9.6875
G1 X23.587 Y-19.654 F7800
G1 X24.514 Y-19.604
;WIDTH:0.404381
G1 F1200
G1 X24.525 Y-19.563 E9.6893
G1 X24.454 Y-19.544 E9.69242
G1 X24.473 Y-19.615 E9.69554
;WIDTH:0.45
G1 X24.132 Y-19.654 E9.71205
G1 X17.504 Y-26.282 E10.16288
G1 X18.049 Y-26.282 E10.18909
G1 X24.404 Y-19.927 E10.62135
G1 X24.404 Y-20.473 E10.64761
G1 X18.594 Y-26.282 E11.04276
G1 X19.14 Y-26.282 E11.06902
G1 X24.404 Y-21.018 E11.42707
G1 X24.404 Y-21.564 E11.45333
G1 X19.685 Y-26.282 E11.77428
G1 X20.231 Y-26.282 E11.80054
G1 X24.404 Y-22.109 E12.08438
G1 X24.404 Y-22.654 E12.11059
G1 X20.776 Y-26.282 E12.35736
G1 X21.321 Y-26.282 E12.38357
G1 X24.404 Y-23.2 E12.59324
G1 X24.404 Y-23.745 E12.61945
G1 X21.867 Y-26.282 E12.79201
G1 X22.412 Y-26.282 E12.81822
G1 X24.404 Y-24.29 E12.95371
G1 X24.557 Y-24.183 E12.96269
;WIDTH:0.404381
G1 X24.538 Y-24.112 E12.96581
G1 X24.609 Y-24.131 E12.96893
G1 X24.598 Y-24.172 E12.97073
G1 E10.97073 F2400
G92 E0
G1 X24.598 Y-24.172 F7800
G1 X23.094 Y-26.146
G1 E2 F2400
;WIDTH:0.45
G1 F1200
G1 X24.404 Y-24.836 E2.0891
G1 X24.404 Y-26.282 E2.15865
G1 X22.957 Y-26.282 E2.22825
G1 X22.957 Y-26.282 F7800
G1 X23.965 Y-25.914
;WIDTH:0.526141
G1 F1200
G1 X23.924 Y-25.873 E2.23159
G1 X23.939 Y-25.818 E2.23487
G1 X23.995 Y-25.803 E2.23821
G1 X24.036 Y-25.844 E2.24155
G1 X24.021 Y-25.899 E2.24483
;LAYER_CHANGE
;Z:1.25
;HEIGHT:0.3
G1 Z1.25 F7800
G1 E.24483 F2400
G92 E0
G1 X24.021 Y-25.899 F7800
G1 X24.693 Y-19.179
G1 E2 F2400
;TYPE:Perimeter
;WIDTH:0.45
G1 F1369
G1 X11.686 Y-19.179 E2.62559
G1 X11.686 Y-26.757 E2.99007
G1 X24.693 Y-26.757 E3.61566
G1 X24.693 Y-22.968 E3.7979
G1 X24.693 Y-19.239 E3.97725
G1 X25.079 Y-18.793 F7800
G1 F1369
G1 X11.3 Y-18.793 E4.63997
G1 X11.3 Y-27.143 E5.04158
G1 X25.079 Y-27.143 E5.7043
G1 X25.079 Y-22.968 E5.9051
G1 X25.079 Y-18.853 E6.10302
G1 X25.079 Y-18.853 F7800
G1 X25.464 Y-18.408
;TYPE:External perimeter
G1 F1369
G1 X10.914 Y-18.408 E6.80282
G1 X10.914 Y-27.528 E7.24146
G1 X25.464 Y-27.528 E7.94126
G1 X25.464 Y-22.968 E8.16058
G1 X25.464 Y-18.468 E8.37701
G1 X25.069 Y-18.408 F7800
G1 E6.37701 F2400
G92 E0
G1 X23.717 Y-20.013 F7800
G1 E2 F2400
;TYPE:Internal infill
;WIDTH:0.45
G1 F1369
G1 X24.404 Y-20.013 E2.03304
G1 X24.404 Y-21.639 E2.11125
G1 X18.334 Y-20.013 E2.41349
G1 X17.397 Y-20.013 E2.45856
G1 X18.981 Y-25.923 E2.75284
G1 X18.045 Y-25.923 E2.79786
G1 X11.975 Y-24.297 E3.1001
G1 X11.975 Y-25.923 E3.17831
G1 X12.662 Y-25.923 E3.21135
G1 X12.662 Y-25.923 F7800
G1 X12.054 Y-26.388
;TYPE:Solid infill
;WIDTH:0.608779
G1 F1200
G1 X24.324 Y-26.388 E4.04449
G1 E2.04449 F2400
G92 E0
G1 X24.324 Y-26.388 F7800
G1 X21.1 Y-25.923
G1 E2 F2400
;TYPE:Internal infill
;WIDTH:0.45
G1 F1369
G1 X23.414 Y-25.923 E2.1113
G1 X24.404 Y-24.934 E2.1786
G1 X24.404 Y-23.812 E2.23256
G1 X23.386 Y-20.013 E2.42173
G1 X21.145 Y-20.013 E2.52951
G1 X15.234 Y-25.923 E2.93154
G1 X12.993 Y-25.923 E3.03932
G1 X11.975 Y-22.124 E3.22849
G1 X11.975 Y-21.002 E3.28245
G1 X12.965 Y-20.013 E3.34975
G1 X15.278 Y-20.013 E3.461
G1 E1.461 F2400
G92 E0
G1 X15.278 Y-20.013 F7800
G1 X12.054 Y-19.548
G1 E2 F2400
;TYPE:Solid infill
;WIDTH:0.608779
G1 F1200
G1 X24.324 Y-19.548 E2.83314
;LAYER_CHANGE
;Z:1.55
;HEIGHT:0.3
G1 Z1.55 F7800
G1 X24.693 Y-19.057
;TYPE:Perimeter
;WIDTH:0.45
G1 F1359
G1 X11.686 Y-19.057 E3.45873
G1 X11.686 Y-26.879 E3.83494
G1 X24.693 Y-26.879 E4.46053
G1 X24.693 Y-22.968 E4.64864
G1 X24.693 Y-19.117 E4.83386
G1 X25.079 Y-18.671 F7800
G1 F1359
G1 X11.3 Y-18.671 E5.49658
G1 X11.3 Y-27.265 E5.90992
G1 X25.079 Y-27.265 E6.57264
G1 X25.079 Y-22.968 E6.77931
G1 X25.079 Y-18.731 E6.98309
G1 X25.079 Y-18.731 F7800
G1 X25.464 Y-18.286
;TYPE:External perimeter
G1 F1359
G1 X10.914 Y-18.286 E7.68289
G1 X10.914 Y-27.65 E8.13327
G1 X25.464 Y-27.65 E8.83307
G1 X25.464 Y-22.968 E9.05826
G1 X25.464 Y-18.346 E9.28056
G1 X25.069 Y-18.287 F7800
G1 X23.994 Y-19.735
;TYPE:Internal infill
;WIDTH:0.45
G1 F1359
G1 X24.404 Y-19.735 E9.30028
G1 X24.404 Y-21.639 E9.39186
G1 X17.297 Y-19.735 E9.74574
G1 X19.081 Y-26.201 E10.06835
G1 X11.975 Y-24.297 E10.42218
G1 X11.975 Y-26.201 E10.51376
G1 X12.384 Y-26.201 E10.53343
G1 X12.384 Y-26.201 F7800
G1 X11.976 Y-26.588
;TYPE:Solid infill
;WIDTH:0.452923
G1 F1200
G1 X24.402 Y-26.588 E11.13561
G1 E9.13561 F2400
G92 E0
G1 X24.402 Y-26.588 F7800
G1 X20.823 Y-26.201
G1 E2 F2400
;TYPE:Internal infill
;WIDTH:0.45
G1 F1359
G1 X23.136 Y-26.201 E2.11125
G1 X24.404 Y-24.934 E2.19746
G1 X24.404 Y-23.812 E2.25142
G1 X23.311 Y-19.735 E2.45443
G1 X21.422 Y-19.735 E2.54528
G1 X14.956 Y-26.201 E2.98509
G1 X13.067 Y-26.201 E3.07594
G1 X11.975 Y-22.124 E3.27894
G1 X11.975 Y-21.002 E3.3329
G1 X13.242 Y-19.735 E3.41908
G1 X15.556 Y-19.735 E3.53038
G1 E1.53038 F2400
G92 E0
G1 X15.556 Y-19.735 F7800
G1 X11.976 Y-19.348
G1 E2 F2400
;TYPE:Solid infill
;WIDTH:0.452921
G1 F1200
G1 X24.402 Y-19.348 E2.60217
;LAYER_CHANGE
;Z:1.85
;HEIGHT:0.3
G1 Z1.85 F7800
G1 X24.693 Y-18.987
;TYPE:Perimeter
;WIDTH:0.45
G1 F1240
G1 X11.686 Y-18.987 E3.22776
G1 X11.686 Y-26.949 E3.6107
G1 X24.693 Y-26.949 E4.23629
G1 X24.693 Y-22.968 E4.42776
G1 X24.693 Y-19.047 E4.61635
G1 X24.693 Y-19.047 F7800
G1 X25.079 Y-18.602
G1 F1240
G1 X11.3 Y-18.602 E5.27907
G1 X11.3 Y-27.334 E5.69905
G1 X25.079 Y-27.334 E6.36177
G1 X25.079 Y-22.968 E6.57176
G1 X25.079 Y-18.662 E6.77886
G1 X25.079 Y-18.662 F7800
G1 X25.464 Y-18.216
;TYPE:External perimeter
G1 F1240
G1 X10.914 Y-18.216 E7.47866
