; generated by PrusaSlicer 2.9.0 on 2025-03-12 at 12:03:06 UTC

; 

; external perimeters extrusion width = 0.45mm
; perimeters extrusion width = 0.45mm
; infill extrusion width = 0.45mm
; solid infill extrusion width = 0.45mm
; top infill extrusion width = 0.40mm
; first layer extrusion width = 0.42mm

M190 S60 ; set bed temperature and wait for it to be reached
M104 S215 ; set temperature
;TYPE:Custom
G28 ; home all axes
G1 Z5 F5000 ; lift nozzle
M109 S215 ; set temperature and wait for it to be reached
G21 ; set units to millimeters
G90 ; use absolute coordinates
M82 ; use absolute distances for extrusion
G92 E0
; Filament gcode
M107
;LAYER_CHANGE
;Z:0.35
;HEIGHT:0.35
G1 E-2 F2400
G1 Z.35 F7800
G1 X32.577 Y0
G1 E.00001 F2400
;TYPE:Skirt/Brim
;WIDTH:0.42
G1 F1800
G1 X32.577 Y-6.861 E.34433
G1 X32.974 Y-9.038 E.45539
G1 X34.113 Y-10.935 E.56644
G1 X35.849 Y-12.309 E.67755
G1 X38.75 Y-13.033 E.8276
G1 X53.75 Y-13.033 E1.58039
G1 X55.927 Y-12.636 E1.69145
G1 X57.825 Y-11.497 E1.80254
G1 X59.198 Y-9.762 E1.91358
G1 X59.922 Y-6.861 E2.06363
G1 X59.922 Y.773 E2.44675
G1 X59.526 Y2.95 E2.5578
G1 X58.386 Y4.848 E2.66891
G1 X56.651 Y6.221 E2.77995
G1 X53.75 Y6.945 E2.93
G1 X38.75 Y6.945 E3.68279
G1 X36.573 Y6.549 E3.79384
G1 X34.675 Y5.409 E3.90495
G1 X33.302 Y3.674 E4.01599
G1 X32.577 Y.773 E4.16606
G1 X32.577 Y.06 E4.20184
G1 E2.20184 F2400
G92 E0
G1 X32.577 Y.06 F7800
G92 E0
G1 X52.85 Y-5.957
G1 E2 F2400
;TYPE:Perimeter
;WIDTH:0.42
G1 F1800
G1 X52.85 Y-3.042 E2.14629
G1 X52.85 Y-.127 E2.29258
G1 X39.65 Y-.127 E2.95503
G1 X39.65 Y-5.961 E3.24781
G1 X52.79 Y-5.957 E3.90725
G1 X52.79 Y-5.957 F7800
G1 X53.195 Y-6.302
G1 F1800
G1 X53.195 Y-3.042 E4.07086
G1 X53.195 Y.218 E4.23447
G1 X39.305 Y.218 E4.93155
G1 X39.305 Y-6.306 E5.25896
G1 X53.135 Y-6.302 E5.95303
G1 X53.135 Y-6.302 F7800
G1 X53.54 Y-6.647
;TYPE:External perimeter
G1 F1800
G1 X53.54 Y-3.042 E6.13395
G1 X53.54 Y.563 E6.31487
G1 X38.96 Y.563 E7.04658
G1 X38.96 Y-6.651 E7.40862
G1 X53.48 Y-6.647 E8.13732
G1 X53.539 Y-6.251 F7800
G1 X52.043 Y-5.854
;TYPE:Solid infill
;WIDTH:0.422823
G1 F1800
G1 X52.591 Y-5.306 E8.17653
G1 X52.591 Y-4.814 E8.20142
G1 X51.707 Y-5.699 E8.26471
G1 X51.215 Y-5.699 E8.2896
G1 X52.591 Y-4.322 E8.38809
G1 X52.591 Y-3.831 E8.41293
G1 X50.723 Y-5.699 E8.54659
G1 X50.231 Y-5.699 E8.57148
G1 X52.591 Y-3.339 E8.74035
G1 X52.591 Y-2.847 E8.76524
G1 X49.739 Y-5.699 E8.96931
G1 X49.247 Y-5.7 E8.9942
G1 X52.591 Y-2.355 E9.23351
G1 X52.591 Y-1.864 E9.25835
G1 X48.755 Y-5.7 E9.53283
G1 X48.264 Y-5.7 E9.55767
G1 X52.591 Y-1.372 E9.86732
G1 X52.591 Y-.88 E9.89221
G1 X47.772 Y-5.7 E10.23707
G1 X47.28 Y-5.7 E10.26196
G1 X52.591 Y-.385 E10.64213
G1 X52.103 Y-.385 E10.66682
G1 X46.788 Y-5.7 E11.04713
G1 X46.296 Y-5.7 E11.07202
G1 X51.611 Y-.385 E11.45233
G1 X51.119 Y-.385 E11.47722
G1 X45.804 Y-5.7 E11.85753
G1 X45.312 Y-5.701 E11.88242
G1 X50.628 Y-.385 E12.2628
G1 X50.136 Y-.385 E12.28769
G1 X44.82 Y-5.701 E12.66807
G1 X44.329 Y-5.701 E12.69291
G1 X49.644 Y-.385 E13.07326
G1 X49.152 Y-.385 E13.09815
G1 X43.837 Y-5.701 E13.4785
G1 X43.345 Y-5.701 E13.50339
G1 X48.661 Y-.385 E13.88377
G1 X48.169 Y-.385 E13.90866
G1 X42.853 Y-5.701 E14.28904
G1 X42.361 Y-5.701 E14.31393
G1 X47.677 Y-.385 E14.69431
G1 X47.185 Y-.385 E14.7192
G1 X41.869 Y-5.701 E15.09958
G1 X41.377 Y-5.702 E15.12447
G1 X46.694 Y-.385 E15.50493
G1 X46.202 Y-.385 E15.52982
G1 X40.886 Y-5.702 E15.91024
G1 X40.394 Y-5.702 E15.93513
G1 X45.71 Y-.385 E16.31555
G1 X45.218 Y-.385 E16.34044
G1 X39.908 Y-5.695 E16.72039
G1 X39.908 Y-5.204 E16.74523
G1 X44.727 Y-.385 E17.09005
G1 X44.235 Y-.385 E17.11494
G1 X39.908 Y-4.712 E17.42456
G1 X39.908 Y-4.22 E17.44945
G1 X43.743 Y-.385 E17.72386
G1 X43.251 Y-.385 E17.74875
G1 X39.908 Y-3.729 E17.98799
G1 X39.908 Y-3.237 E18.01288
G1 X42.76 Y-.385 E18.21695
G1 X42.268 Y-.385 E18.24184
G1 X39.908 Y-2.745 E18.41071
G1 X39.908 Y-2.253 E18.4356
G1 X41.776 Y-.385 E18.56926
G1 X41.284 Y-.385 E18.59415
G1 X39.908 Y-1.762 E18.69264
G1 X39.908 Y-1.27 E18.71753
G1 X40.793 Y-.385 E18.78086
G1 X40.301 Y-.385 E18.80575
G1 X39.753 Y-.933 E18.84496
M106 S127.5
;LAYER_CHANGE
;Z:0.65
;HEIGHT:0.3
G1 Z.65 F7800
M104 S210 ; set temperature
G1 E16.84496 F2400
G92 E0
G1 X39.753 Y-.933 F7800
G1 X52.754 Y-.416
G1 E2 F2400
;TYPE:Perimeter
;WIDTH:0.45
G1 F900
G1 X52.754 Y.282 E2.03357
G1 X39.746 Y.282 E2.65921
G1 X39.746 Y-6.37 E2.97915
G1 X52.754 Y-6.37 E3.60479
G1 X52.754 Y-3.044 E3.76476
G1 X52.754 Y-.476 E3.88827
G1 X52.754 Y-.476 F7800
G1 X53.139 Y-.416
G1 F3600
G1 X53.139 Y.667 E3.94036
G1 X39.36 Y.667 E4.60308
G1 X39.36 Y-6.755 E4.96005
G1 X53.139 Y-6.755 E5.62277
G1 X53.139 Y-3.044 E5.80126
G1 X53.139 Y-.476 E5.92477
G1 X53.139 Y-.476 F7800
G1 X53.525 Y-.416
;TYPE:External perimeter
G1 F1800
G1 X53.525 Y.973 E5.99158
;TYPE:Overhang perimeter
;WIDTH:0.4
;HEIGHT:0.4
G1 F3600
G1 X53.525 Y1.053 E5.99576
G1 X38.975 Y1.053 E6.75592
G1 X38.975 Y.973 E6.7601
;TYPE:External perimeter
;WIDTH:0.45
;HEIGHT:0.3
G1 F1800
G1 X38.975 Y-7.061 E7.14651
;TYPE:Overhang perimeter
;WIDTH:0.4
;HEIGHT:0.4
G1 F3600
G1 X38.975 Y-7.141 E7.15069
G1 X53.525 Y-7.141 E7.91085
G1 X53.525 Y-7.061 E7.91503
;TYPE:External perimeter
;WIDTH:0.45
;HEIGHT:0.3
G1 F1800
G1 X53.525 Y-3.044 E8.10823
G1 X53.525 Y-.476 E8.23174
G1 X53.525 Y-.076 F7800
G1 E6.23174 F2400
G92 E0
G1 X40.14 Y-6.049 F7800
G1 E2 F2400
;TYPE:Solid infill
;WIDTH:0.543559
G1 F1200
G1 X40.098 Y-6.091 E2.00355
G1 X40.04 Y-6.076 E2.00713
G1 X40.024 Y-6.018 E2.01073
G1 X40.067 Y-5.976 E2.01432
G1 X40.124 Y-5.991 E2.01784
;WIDTH:0.45
G1 X40.035 Y-5.375 E2.04778
G1 X40.74 Y-6.08 E2.09573
G1 X40.918 Y-6.215 E2.10647
;WIDTH:0.404381
G1 X40.877 Y-6.204 E2.10827
G1 X40.858 Y-6.275 E2.11139
G1 X40.929 Y-6.256 E2.11451
;WIDTH:0.45
G1 X41.286 Y-6.08 E2.13365
G1 X40.035 Y-4.83 E2.21871
G1 X40.035 Y-4.285 E2.24492
G1 X41.831 Y-6.08 E2.36705
G1 X42.376 Y-6.08 E2.39326
G1 X40.035 Y-3.739 E2.55249
G1 X40.035 Y-3.194 E2.5787
G1 X42.922 Y-6.08 E2.77504
G1 X43.467 Y-6.08 E2.80125
G1 X40.035 Y-2.648 E3.03469
G1 X40.035 Y-2.103 E3.0609
G1 X44.012 Y-6.08 E3.33141
G1 X44.558 Y-6.08 E3.35767
G1 X40.035 Y-1.558 E3.66528
G1 X40.035 Y-1.012 E3.69154
G1 X45.103 Y-6.08 E4.03626
G1 X45.649 Y-6.08 E4.06252
G1 X40.035 Y-.467 E4.44434
G1 X39.942 Y.146 E4.47416
;WIDTH:0.404381
G1 X39.901 Y.157 E4.47596
G1 X39.882 Y.086 E4.47908
G1 X39.953 Y.105 E4.4822
;WIDTH:0.45
G1 X40.121 Y-.007 E4.49191
G1 X46.194 Y-6.08 E4.90499
G1 X46.739 Y-6.08 E4.9312
G1 X40.666 Y-.007 E5.34428
G1 X41.212 Y-.007 E5.37054
G1 X47.285 Y-6.08 E5.78362
G1 X47.83 Y-6.08 E5.80983
G1 X41.757 Y-.007 E6.22291
G1 X42.302 Y-.007 E6.24912
G1 X48.375 Y-6.08 E6.6622
G1 X48.921 Y-6.08 E6.68846
G1 X42.848 Y-.007 E7.10154
G1 X43.393 Y-.007 E7.12775
G1 X49.466 Y-6.08 E7.54083
G1 X50.011 Y-6.08 E7.56704
G1 X43.938 Y-.007 E7.98012
G1 X44.484 Y-.007 E8.00638
G1 X50.557 Y-6.08 E8.41946
G1 X51.102 Y-6.08 E8.44567
G1 X45.029 Y-.007 E8.85875
G1 X45.574 Y-.007 E8.88496
G1 X51.647 Y-6.08 E9.29804
G1 X51.647 Y-6.08 F7800
G1 X52.585 Y-6.171
;WIDTH:0.404381
G1 F1200
G1 X52.514 Y-6.19 E9.30116
G1 X52.533 Y-6.119 E9.30428
G1 X52.574 Y-6.13 E9.30608
;WIDTH:0.45
G1 X52.193 Y-6.08 E9.32456
G1 X46.12 Y-.007 E9.73764
G1 X46.665 Y-.007 E9.76385
G1 X52.464 Y-5.807 E10.15832
G1 X52.464 Y-5.261 E10.18458
G1 X47.211 Y-.007 E10.54192
G1 X47.756 Y-.007 E10.56813
G1 X52.464 Y-4.716 E10.8884
G1 X52.464 Y-4.171 E10.91461
G1 X48.301 Y-.007 E11.19781
G1 X48.847 Y-.007 E11.22407
G1 X52.464 Y-3.625 E11.47013
G1 X52.464 Y-3.08 E11.49634
G1 X49.392 Y-.007 E11.70533
G1 X49.937 Y-.007 E11.73154
G1 X52.464 Y-2.535 E11.90346
G1 X52.464 Y-1.989 E11.92972
G1 X50.483 Y-.007 E12.0645
G1 E10.0645 F2400
G92 E0
G1 X50.483 Y-.007 F7800
G1 X52.328 Y-1.308
G1 E2 F2400
G1 F1200
G1 X51.028 Y-.007 E2.08846
G1 X52.464 Y-.007 E2.15753
G1 X52.464 Y-1.444 E2.22664
G1 X52.464 Y-1.444 F7800
G1 X52.099 Y-.443
;WIDTH:0.520211
G1 F1200
G1 X52.058 Y-.483 E2.2299
G1 X52.003 Y-.468 E2.23314
G1 X51.989 Y-.413 E2.23637
G1 X52.029 Y-.373 E2.23959
G1 X52.084 Y-.388 E2.24283
M106 S255
;LAYER_CHANGE
;Z:0.95
;HEIGHT:0.3
G1 Z.95 F7800
G1 X52.754 Y.56
;TYPE:Perimeter
;WIDTH:0.45
G1 F900
G1 X39.746 Y.56 E2.86847
G1 X39.746 Y-6.647 E3.2151
G1 X52.754 Y-6.647 E3.84074
G1 X52.754 Y-3.044 E4.01403
G1 X52.754 Y.5 E4.18448
G1 X52.754 Y.5 F7800
G1 X53.139 Y.945
G1 F3600
G1 X39.36 Y.945 E4.8472
G1 X39.36 Y-7.033 E5.23091
G1 X53.139 Y-7.033 E5.89363
G1 X53.139 Y-3.044 E6.08549
G1 X53.139 Y.885 E6.27446
G1 X53.139 Y.885 F7800
G1 X53.525 Y1.331
;TYPE:External perimeter
G1 F1800
G1 X38.975 Y1.331 E6.97426
G1 X38.975 Y-7.418 E7.39506
G1 X53.525 Y-7.418 E8.09486
G1 X53.525 Y-3.044 E8.30523
G1 X53.525 Y1.271 E8.51277
G1 X53.129 Y1.33 F7800
G1 E6.51277 F2400
G92 E0
G1 X40.067 Y.166 F7800
G1 E2 F2400
;TYPE:Solid infill
;WIDTH:0.543559
G1 F1200
G1 X40.024 Y.208 E2.00359
G1 X40.04 Y.266 E2.00719
G1 X40.098 Y.281 E2.01077
G1 X40.14 Y.239 E2.01432
G1 X40.124 Y.181 E2.01792
;WIDTH:0.45
G1 X40.035 Y-.435 E2.04786
G1 X40.877 Y.394 E2.10469
;WIDTH:0.404381
G1 X40.858 Y.465 E2.10781
G1 X40.929 Y.446 E2.11093
G1 X40.918 Y.405 E2.11273
;WIDTH:0.45
G1 X41.286 Y.27 E2.13158
G1 X40.035 Y-.98 E2.21664
G1 X40.035 Y-1.525 E2.24285
G1 X41.831 Y.27 E2.36498
G1 X42.376 Y.27 E2.39119
G1 X40.035 Y-2.071 E2.55042
G1 X40.035 Y-2.616 E2.57663
G1 X42.922 Y.27 E2.77297
G1 X43.467 Y.27 E2.79918
G1 X40.035 Y-3.162 E3.03262
G1 X40.035 Y-3.707 E3.05883
G1 X44.012 Y.27 E3.32934
G1 X44.558 Y.27 E3.3556
G1 X40.035 Y-4.252 E3.66321
G1 X40.035 Y-4.798 E3.68947
G1 X45.103 Y.27 E4.03419
G1 X45.649 Y.27 E4.06045
G1 X40.035 Y-5.343 E4.44227
G1 X40.035 Y-5.888 E4.46848
G1 X46.194 Y.27 E4.88737
G1 X46.739 Y.27 E4.91358
G1 X40.111 Y-6.358 E5.36441
G1 X39.907 Y-6.486 E5.37599
;WIDTH:0.404381
G1 X39.893 Y-6.307 E5.3836
;WIDTH:0.45
G1 X40.656 Y-6.358 E5.42038
G1 X47.285 Y.27 E5.87124
G1 X47.83 Y.27 E5.89745
G1 X41.202 Y-6.358 E6.34828
G1 X41.747 Y-6.358 E6.37449
G1 X48.375 Y.27 E6.82532
G1 X48.921 Y.27 E6.85158
G1 X42.292 Y-6.358 E7.30244
G1 X42.838 Y-6.358 E7.3287
G1 X49.466 Y.27 E7.77953
G1 X50.011 Y.27 E7.80574
G1 X43.383 Y-6.358 E8.25657
G1 X43.928 Y-6.358 E8.28278
G1 X50.557 Y.27 E8.73364
G1 X51.102 Y.27 E8.75985
G1 X44.474 Y-6.358 E9.21068
G1 X45.019 Y-6.358 E9.23689
G1 X51.647 Y.27 E9.68772
G1 X51.647 Y.27 F7800
G1 X52.574 Y.32
;WIDTH:0.404381
G1 F1200
G1 X52.585 Y.361 E9.68952
G1 X52.514 Y.38 E9.69264
G1 X52.533 Y.309 E9.69576
;WIDTH:0.45
G1 X52.193 Y.27 E9.71222
G1 X45.564 Y-6.358 E10.16308
G1 X46.11 Y-6.358 E10.18934
G1 X52.464 Y-.003 E10.62157
G1 X52.464 Y-.549 E10.64783
G1 X46.655 Y-6.358 E11.04295
G1 X47.2 Y-6.358 E11.06916
G1 X52.464 Y-1.094 E11.42721
G1 X52.464 Y-1.639 E11.45342
G1 X47.746 Y-6.358 E11.77437
G1 X48.291 Y-6.358 E11.80058
G1 X52.464 Y-2.185 E12.08442
G1 X52.464 Y-2.73 E12.11063
G1 X48.836 Y-6.358 E12.3574
G1 X49.382 Y-6.358 E12.38366
G1 X52.464 Y-3.275 E12.59333
G1 X52.464 Y-3.821 E12.61959
G1 X49.927 Y-6.358 E12.79215
G1 X50.473 Y-6.358 E12.81841
G1 X52.464 Y-4.366 E12.95387
G1 X52.618 Y-4.259 E12.96289
;WIDTH:0.404381
G1 X52.599 Y-4.188 E12.96601
G1 X52.67 Y-4.207 E12.96913
G1 X52.659 Y-4.248 E12.97093
G1 E10.97093 F2400
G92 E0
G1 X52.659 Y-4.248 F7800
G1 X51.154 Y-6.222
G1 E2 F2400
;WIDTH:0.45
G1 F1200
G1 X52.464 Y-4.911 E2.08914
G1 X52.464 Y-6.358 E2.15874
G1 X51.018 Y-6.358 E2.22829
G1 X51.018 Y-6.358 F7800
G1 X52.026 Y-5.99
;WIDTH:0.526141
G1 F1200
G1 X51.985 Y-5.949 E2.23163
G1 X52 Y-5.894 E2.23491
G1 X52.056 Y-5.879 E2.23825
G1 X52.096 Y-5.919 E2.24151
G1 X52.082 Y-5.975 E2.24483
;LAYER_CHANGE
;Z:1.25
;HEIGHT:0.3
G1 Z1.25 F7800
G1 E.24483 F2400
G92 E0
G1 X52.082 Y-5.975 F7800
G1 X52.754 Y.745
G1 E2 F2400
;TYPE:Perimeter
;WIDTH:0.45
G1 F1369
G1 X39.746 Y.745 E2.62564
G1 X39.746 Y-6.833 E2.99012
G1 X52.754 Y-6.833 E3.61576
G1 X52.754 Y-3.044 E3.798
G1 X52.754 Y.685 E3.97735
G1 X52.754 Y.685 F7800
G1 X53.139 Y1.131
G1 F1369
G1 X39.36 Y1.131 E4.64007
G1 X39.36 Y-7.219 E5.04168
G1 X53.139 Y-7.219 E5.7044
G1 X53.139 Y-3.044 E5.9052
G1 X53.139 Y1.071 E6.10312
G1 X53.139 Y1.071 F7800
G1 X53.525 Y1.516
;TYPE:External perimeter
G1 F1369
G1 X38.975 Y1.516 E6.80292
G1 X38.975 Y-7.604 E7.24156
G1 X53.525 Y-7.604 E7.94136
G1 X53.525 Y-3.044 E8.16068
G1 X53.525 Y1.456 E8.37711
G1 X53.129 Y1.516 F7800
G1 E6.37711 F2400
G92 E0
G1 X51.777 Y-.088 F7800
G1 E2 F2400
;TYPE:Internal infill
;WIDTH:0.45
G1 F1369
G1 X52.464 Y-.088 E2.03304
G1 X52.464 Y-1.715 E2.11129
G1 X46.394 Y-.088 E2.41354
G1 X45.458 Y-.088 E2.45856
G1 X47.042 Y-5.999 E2.75289
G1 X46.105 Y-5.999 E2.79796
G1 X40.035 Y-4.373 E3.1002
G1 X40.035 Y-5.999 E3.17841
G1 X40.723 Y-5.999 E3.2115
G1 X40.723 Y-5.999 F7800
G1 X40.115 Y-6.464
;TYPE:Solid infill
;WIDTH:0.608779
G1 F1200
G1 X52.385 Y-6.464 E4.04464
G1 E2.04464 F2400
G92 E0
G1 X52.385 Y-6.464 F7800
G1 X49.161 Y-5.999
G1 E2 F2400
;TYPE:Internal infill
;WIDTH:0.45
G1 F1369
G1 X51.475 Y-5.999 E2.1113
G1 X52.464 Y-5.01 E2.17857
G1 X52.464 Y-3.888 E2.23253
G1 X51.446 Y-.088 E2.42174
G1 X49.205 Y-.088 E2.52952
G1 X43.294 Y-5.999 E2.93158
G1 X41.053 Y-5.999 E3.03936
G1 X40.035 Y-2.2 E3.22853
G1 X40.035 Y-1.078 E3.28249
G1 X41.025 Y-.088 E3.34983
G1 X43.339 Y-.088 E3.46113
G1 E1.46113 F2400
G92 E0
G1 X43.339 Y-.088 F7800
G1 X40.115 Y.377
G1 E2 F2400
;TYPE:Solid infill
;WIDTH:0.608779
G1 F1200
G1 X52.385 Y.377 E2.83314
;LAYER_CHANGE
;Z:1.55
;HEIGHT:0.3
G1 Z1.55 F7800
G1 X52.754 Y.867
;TYPE:Perimeter
;WIDTH:0.45
G1 F1359
G1 X39.746 Y.867 E3.45878
G1 X39.746 Y-6.955 E3.83499
G1 X52.754 Y-6.955 E4.46063
G1 X52.754 Y-3.044 E4.64874
G1 X52.754 Y.807 E4.83396
G1 X52.754 Y.807 F7800
G1 X53.139 Y1.253
G1 F1359
G1 X39.36 Y1.253 E5.49668
G1 X39.36 Y-7.34 E5.90997
G1 X53.139 Y-7.34 E6.57269
G1 X53.139 Y-3.044 E6.77931
G1 X53.139 Y1.193 E6.98309
G1 X53.139 Y1.193 F7800
G1 X53.525 Y1.638
;TYPE:External perimeter
G1 F1359
G1 X38.975 Y1.638 E7.68289
G1 X38.975 Y-7.726 E8.13327
G1 X53.525 Y-7.726 E8.83307
G1 X53.525 Y-3.044 E9.05826
G1 X53.525 Y1.578 E9.28056
G1 X53.129 Y1.638 F7800
G1 X52.055 Y.189
;TYPE:Internal infill
;WIDTH:0.45
G1 F1359
G1 X52.464 Y.189 E9.30023
G1 X52.464 Y-1.715 E9.39181
G1 X45.358 Y.189 E9.74564
G1 X47.142 Y-6.277 E10.06825
G1 X40.035 Y-4.373 E10.42213
G1 X40.035 Y-6.277 E10.51371
G1 X40.445 Y-6.277 E10.53343
G1 X40.445 Y-6.277 F7800
G1 X40.037 Y-6.664
;TYPE:Solid infill
;WIDTH:0.452923
G1 F1200
G1 X52.463 Y-6.664 E11.13561
G1 E9.13561 F2400
G92 E0
G1 X52.463 Y-6.664 F7800
G1 X48.883 Y-6.277
G1 E2 F2400
;TYPE:Internal infill
;WIDTH:0.45
G1 F1359
G1 X51.197 Y-6.277 E2.1113
G1 X52.464 Y-5.01 E2.19748
G1 X52.464 Y-3.888 E2.25144
G1 X51.372 Y.189 E2.45444
G1 X49.483 Y.189 E2.54529
G1 X43.017 Y-6.277 E2.9851
G1 X41.128 Y-6.277 E3.07595
G1 X40.035 Y-2.2 E3.27896
G1 X40.035 Y-1.078 E3.33292
G1 X41.303 Y.189 E3.41913
G1 X43.617 Y.189 E3.53043
G1 E1.53043 F2400
G92 E0
G1 X43.617 Y.189 F7800
G1 X40.037 Y.576
G1 E2 F2400
;TYPE:Solid infill
;WIDTH:0.452921
G1 F1200
G1 X52.463 Y.576 E2.60217
;LAYER_CHANGE
;Z:1.85
;HEIGHT:0.3
G1 Z1.85 F7800
G1 X52.754 Y.937
;TYPE:Perimeter
;WIDTH:0.45
G1 F1240
G1 X39.746 Y.937 E3.22781
G1 X39.746 Y-7.024 E3.61071
G1 X52.754 Y-7.024 E4.23635
G1 X52.754 Y-3.044 E4.42777
G1 X52.754 Y.877 E4.61636
G1 X52.754 Y.877 F7800
G1 X53.139 Y1.322
G1 F1240
G1 X39.36 Y1.322 E5.27908
G1 X39.36 Y-7.41 E5.69906
G1 X53.139 Y-7.41 E6.36178
G1 X53.139 Y-3.044 E6.57177
G1 X53.139 Y1.262 E6.77887
G1 X53.139 Y1.262 F7800
G1 X53.525 Y1.708
;TYPE:External perimeter
G1 F1240
G1 X38.975 Y1.708 E7.47867
G1 X38.975 Y-7.796 E7.93578
G1 X53.525 Y-7.796 E8.63558
G1 X53.525 Y-3.044 E8.86413
G1 X53.525 Y1.648 E9.0898
G1 X53.129 Y1.707 F7800
G1 X52.464 Y.599
;TYPE:Internal infill
;WIDTH:0.45
G1 F1240
G1 X52.464 Y-1.715 E9.2011
G1 X43.648 Y.648 E9.64009
G1 X41.761 Y.648 E9.73085
G1 X40.035 Y-1.078 E9.84825
G1 X40.035 Y-2.2 E9.90221
G1 X41.251 Y-6.735 E10.12803
G1 X42.558 Y-6.735 E10.19089
G1 X49.941 Y.648 E10.69307
G1 X51.249 Y.648 E10.75598
G1 X52.464 Y-3.888 E10.98184
G1 X52.464 Y-5.01 E11.0358
G1 X50.739 Y-6.735 E11.15313
G1 X48.852 Y-6.735 E11.24389
G1 X40.035 Y-4.373 E11.68291
G1 X40.035 Y-6.687 E11.79421
G1 E9.79421 F2400
G92 E0
G1 X40.035 Y-6.687 F7800
G1 X44.925 Y-6.735
G1 E2 F2400
G1 F1240
G1 X47.239 Y-6.735 E2.1113
