; generated by PrusaSlicer 2.9.0 on 2025-03-13 at 14:44:48 UTC

; 

; external perimeters extrusion width = 0.45mm
; perimeters extrusion width = 0.45mm
; infill extrusion width = 0.45mm
; solid infill extrusion width = 0.45mm
; top infill extrusion width = 0.40mm
; first layer extrusion width = 0.42mm

M190 S60 ; set bed temperature and wait for it to be reached
M104 S215 ; set temperature
;TYPE:Custom
G28 ; home all axes
G1 Z5 F5000 ; lift nozzle
M109 S215 ; set temperature and wait for it to be reached
G21 ; set units to millimeters
G90 ; use absolute coordinates
M82 ; use absolute distances for extrusion
G92 E0
; Filament gcode
M107
;LAYER_CHANGE
;Z:0.35
;HEIGHT:0.35
G1 E-2 F2400
G1 Z.35 F7800
G1 X-8.909 Y11.127
G1 E.00001 F2400
;TYPE:Skirt/Brim
;WIDTH:0.42
G1 F1800
G1 X-7.536 Y12.863 E.11108
G1 X-6.812 Y15.764 E.26113
G1 X-6.812 Y45.764 E1.76671
G1 X-7.208 Y47.941 E1.87776
G1 X-8.348 Y49.838 E1.98883
G1 X-10.083 Y51.212 E2.0999
G1 X-12.984 Y51.936 E2.24995
G1 X-15.925 Y51.874 E2.39758
G1 X-17.063 Y51.628 E2.45601
G1 X-18.146 Y51.201 E2.51443
G1 X-33.213 Y43.668 E3.35982
G1 X-34.142 Y43.107 E3.41428
G1 X-34.753 Y42.621 E3.45346
G1 X-35.793 Y41.47 E3.53131
G1 X-36.241 Y40.77 E3.57302
G1 X-36.725 Y39.712 E3.63141
G1 X-37.022 Y38.642 E3.68714
G1 X-37.135 Y37.819 E3.72883
G1 X-37.156 Y24.264 E4.4091
G1 X-37.094 Y23.323 E4.45643
G1 X-36.708 Y21.769 E4.53679
G1 X-36.397 Y21.053 E4.57597
G1 X-35.825 Y20.102 E4.63166
G1 X-34.753 Y18.907 E4.71223
G1 X-34.146 Y18.423 E4.75119
G1 X-33.213 Y17.86 E4.80588
G1 X-17.432 Y10.023 E5.69015
G1 X-16.309 Y9.715 E5.74859
G1 X-14.984 Y9.591 E5.81538
G1 X-12.984 Y9.591 E5.91575
G1 X-10.807 Y9.988 E6.02681
G1 X-8.961 Y11.097 E6.13489
G1 E4.13489 F2400
G92 E0
G1 X-8.961 Y11.097 F7800
G92 E0
G1 X-29.14 Y25.009
G1 E2 F2400
;TYPE:External perimeter
;WIDTH:0.42
G1 F1800
G1 X-29.066 Y24.727 E2.01463
G1 X-28.79 Y24.365 E2.03748
;WIDTH:0.420265
G1 X-28.401 Y24.131 E2.06028
;WIDTH:0.459153
G1 X-28.263 Y24.085 E2.06841
;WIDTH:0.498041
G1 X-28.124 Y24.04 E2.0774
;WIDTH:0.53693
G1 X-27.986 Y23.995 E2.08715
;WIDTH:0.538135
G1 X-18.927 Y23.996 E2.69751
G1 X-18.768 Y24.058 E2.70901
;WIDTH:0.498756
G1 X-18.61 Y24.119 E2.71945
;WIDTH:0.459378
G1 X-18.452 Y24.181 E2.72894
;WIDTH:0.42
G1 X-18.047 Y24.504 E2.75494
G1 X-17.83 Y24.905 E2.77782
G1 X-17.774 Y25.302 E2.79794
G1 X-17.774 Y36.266 E3.34818
G1 X-17.814 Y36.559 E3.36302
G1 X-18.036 Y37.014 E3.38843
G1 X-18.274 Y37.242 E3.40497
G1 X-18.572 Y37.4 E3.4219
;WIDTH:0.469303
G1 X-18.585 Y37.43 E3.42378
;WIDTH:0.518607
G1 X-18.599 Y37.46 E3.42592
;WIDTH:0.567911
G1 X-18.613 Y37.49 E3.42829
G1 X-18.982 Y37.533 E3.45493
;WIDTH:0.537556
G1 X-27.986 Y37.533 E4.06083
;WIDTH:0.550972
G1 X-28.233 Y37.514 E4.07798
G1 X-28.383 Y37.425 E4.09006
;WIDTH:0.507314
G1 X-28.534 Y37.335 E4.10112
;WIDTH:0.463657
G1 X-28.685 Y37.246 E4.11103
;WIDTH:0.42
G1 X-28.962 Y36.973 E4.13055
G1 X-29.137 Y36.623 E4.15019
G1 X-29.194 Y36.265 E4.16838
G1 X-29.192 Y25.207 E4.72334
G1 X-29.156 Y25.067 E4.73059
G1 X-29.019 Y24.692 F7800
G1 E2.73059 F2400
G92 E0
G1 X-15.353 Y37.633 F7800
G1 E2 F2400
;TYPE:Perimeter
G1 F1800
G1 X-15.486 Y37.497 E2.00955
G1 X-15.784 Y37.379 E2.02564
G1 X-15.946 Y37.364 E2.0338
G1 X-17.452 Y37.364 E2.10938
G1 X-17.188 Y36.849 E2.13842
G1 X-17.113 Y36.58 E2.15243
G1 X-17.084 Y36.266 E2.16826
G1 X-17.096 Y25.122 E2.72753
G1 X-17.239 Y24.529 E2.75814
G1 X-17.451 Y24.164 E2.77932
G1 X-15.784 Y24.148 E2.86298
G1 X-15.486 Y24.03 E2.87907
G1 X-15.206 Y23.743 E2.89919
G1 X-15.097 Y23.45 E2.91488
G1 X-15.084 Y23.301 E2.92239
G1 X-15.084 Y17.264 E3.22536
G1 X-15.058 Y16.71 E3.25319
G1 X-14.935 Y16.664 E3.25978
G1 X-13.884 Y16.664 E3.31253
G1 X-13.884 Y17.264 E3.34264
G1 X-13.884 Y44.863 E4.72772
G1 X-14.482 Y44.863 E4.75773
G1 X-15.023 Y44.84 E4.78491
G1 X-15.078 Y44.738 E4.79073
G1 X-15.084 Y38.226 E5.11754
G1 X-15.206 Y37.784 E5.14055
G1 X-15.311 Y37.676 E5.14811
G1 X-15.311 Y37.676 F7800
G1 X-15.59 Y37.871
G1 F1800
G1 X-15.67 Y37.789 E5.15386
G1 X-15.946 Y37.709 E5.16828
G1 X-18.409 Y37.706 E5.29189
G1 X-18.113 Y37.546 E5.30878
G1 X-17.792 Y37.258 E5.33042
G1 X-17.501 Y36.704 E5.36183
G1 X-17.429 Y36.266 E5.38411
G1 X-17.429 Y25.72 E5.91337
G1 X-17.436 Y25.178 E5.94057
G1 X-17.544 Y24.69 E5.96565
G1 X-17.823 Y24.241 E5.99218
G1 X-18.163 Y23.953 E6.01454
G1 X-18.466 Y23.819 E6.03117
G1 X-15.946 Y23.819 E6.15764
G1 X-15.67 Y23.739 E6.17206
G1 X-15.502 Y23.566 E6.18416
G1 X-15.429 Y23.301 E6.19795
G1 X-15.429 Y16.867 E6.52085
G1 X-15.367 Y16.549 E6.53711
G1 X-15.197 Y16.378 E6.54921
G1 X-14.954 Y16.319 E6.56176
G1 X-13.539 Y16.319 E6.63277
G1 X-13.539 Y17.264 E6.6802
G1 X-13.539 Y45.209 E8.08264
G1 X-14.909 Y45.208 E8.15139
G1 X-15.174 Y45.157 E8.16493
G1 X-15.324 Y45.031 E8.17476
G1 X-15.423 Y44.79 E8.18784
G1 X-15.429 Y38.226 E8.51726
G1 X-15.502 Y37.961 E8.53105
G1 X-15.549 Y37.914 E8.53439
G1 E6.53439 F2400
G92 E0
G1 X-15.549 Y37.914 F7800
G1 X-29.795 Y24.865
G1 E2 F2400
;WIDTH:0.410041
G1 F1800
G1 X-29.802 Y24.914 E2.00241
;WIDTH:0.378937
G1 X-29.846 Y25.207 E2.01551
;WIDTH:0.347833
G1 X-29.848 Y36.265 E2.45434
;WIDTH:0.354143
G1 X-29.84 Y36.4 E2.45983
;WIDTH:0.395138
G1 X-29.788 Y36.701 E2.47405
;WIDTH:0.436134
G1 X-29.736 Y37.003 E2.49015
;WIDTH:0.453094
G1 X-29.554 Y37.348 E2.5116
G1 X-29.906 Y37.343 E2.53096
G1 X-30.055 Y37.274 E2.53999
G1 X-30.079 Y37.021 E2.55397
;WIDTH:0.417715
G1 X-30.103 Y36.767 E2.56669
;WIDTH:0.382336
G1 X-30.12 Y36.265 E2.58914
;WIDTH:0.347833
G1 X-30.119 Y25.207 E3.02797
;WIDTH:0.362246
G1 X-30.112 Y24.971 E3.03783
;WIDTH:0.405076
G1 X-30.09 Y24.655 E3.05304
;WIDTH:0.447907
G1 X-30.069 Y24.339 E3.07022
G1 X-30.024 Y24.208 E3.07773
G1 X-29.538 Y24.179 E3.10414
G1 X-29.637 Y24.317 E3.11335
G1 X-29.758 Y24.621 E3.1311
;WIDTH:0.410041
G1 X-29.786 Y24.806 E3.14022
G1 X-29.786 Y24.806 F7800
G1 X-29.478 Y24.935
;WIDTH:0.42
G1 F1800
G1 X-29.537 Y25.207 E3.15419
G1 X-29.539 Y36.265 E3.70915
G1 X-29.478 Y36.679 E3.73015
G1 X-29.266 Y37.135 E3.75539
G1 X-28.978 Y37.456 E3.77703
G1 X-28.506 Y37.709 E3.80391
G1 X-29.867 Y37.709 E3.87221
G1 X-30.175 Y37.654 E3.88791
G1 X-30.376 Y37.455 E3.9021
G1 X-30.429 Y37.241 E3.91316
G1 X-30.428 Y24.581 E4.54851
G1 X-30.392 Y24.109 E4.57227
G1 X-30.234 Y23.917 E4.58475
G1 X-29.972 Y23.82 E4.59877
G1 X-28.537 Y23.82 E4.67079
G1 X-28.976 Y24.075 E4.69627
G1 X-29.346 Y24.526 E4.72555
G1 X-29.428 Y24.703 E4.73534
G1 X-29.465 Y24.876 E4.74422
G1 E2.74422 F2400
G92 E0
G1 X-29.465 Y24.876 F7800
G1 X-15.834 Y38.117
G1 E2 F2400
;TYPE:External perimeter
G1 F1800
G1 X-15.854 Y38.08 E2.00211
G1 X-15.946 Y38.054 E2.00691
G1 X-18.409 Y38.054 E2.13052
;WIDTH:0.469453
G1 X-18.462 Y38.029 E2.13388
;WIDTH:0.518907
G1 X-18.515 Y38.004 E2.13766
;WIDTH:0.568361
G1 X-18.567 Y37.98 E2.14177
G1 X-18.982 Y37.995 E2.17158
;WIDTH:0.537556
G1 X-27.986 Y37.995 E2.77748
;WIDTH:0.550972
G1 X-28.258 Y37.988 E2.79632
G1 X-28.46 Y38.01 E2.81039
;WIDTH:0.507314
G1 X-28.661 Y38.032 E2.82311
;WIDTH:0.463657
G1 X-28.863 Y38.054 E2.8346
;WIDTH:0.42
G1 X-29.963 Y38.054 E2.8898
G1 X-30.388 Y37.936 E2.91194
G1 X-30.681 Y37.628 E2.93327
G1 X-30.774 Y37.255 E2.95256
G1 X-30.772 Y24.365 E3.59946
G1 X-30.716 Y23.975 E3.61923
G1 X-30.555 Y23.723 E3.63424
G1 X-30.314 Y23.55 E3.64913
G1 X-30.014 Y23.475 E3.66465
G1 X-28.66 Y23.475 E3.7326
;WIDTH:0.458976
G1 X-28.435 Y23.495 E3.74522
;WIDTH:0.497953
G1 X-28.211 Y23.514 E3.75905
;WIDTH:0.53693
G1 X-27.986 Y23.534 E3.77423
;WIDTH:0.538135
G1 X-18.927 Y23.533 E4.38459
G1 X-18.736 Y23.513 E4.39753
;WIDTH:0.498756
G1 X-18.546 Y23.494 E4.4093
;WIDTH:0.459378
G1 X-18.355 Y23.474 E4.42004
;WIDTH:0.42
G1 X-16.616 Y23.474 E4.50731
G1 X-15.854 Y23.447 E4.54558
G1 X-15.774 Y23.301 E4.55394
G1 X-15.774 Y17.264 E4.85691
G1 X-15.742 Y16.616 E4.88947
G1 X-15.638 Y16.324 E4.90503
G1 X-15.355 Y16.068 E4.92418
G1 X-14.973 Y15.974 E4.94392
G1 X-13.194 Y15.974 E5.0332
G1 X-13.194 Y17.264 E5.09794
G1 X-13.194 Y45.554 E6.5177
G1 X-14.909 Y45.552 E6.60377
G1 X-15.316 Y45.477 E6.62454
G1 X-15.526 Y45.336 E6.63723
G1 X-15.678 Y45.135 E6.64988
G1 X-15.768 Y44.842 E6.66526
G1 X-15.774 Y38.226 E6.99729
G1 X-15.805 Y38.17 E7.0005
G1 X-16.19 Y38.059 F7800
G1 E5.0005 F2400
G92 E0
G1 X-14.691 Y16.767 F7800
G1 E2 F2400
;TYPE:Solid infill
;WIDTH:0.423256
G1 F1800
G1 X-14.142 Y17.316 E2.03933
G1 X-14.142 Y17.808 E2.06425
G1 X-14.82 Y17.13 E2.11282
G1 X-14.821 Y17.622 E2.13774
G1 X-14.142 Y18.301 E2.18639
G1 X-14.142 Y18.793 E2.21131
G1 X-14.821 Y18.114 E2.25996
G1 X-14.822 Y18.606 E2.28488
G1 X-14.142 Y19.285 E2.33356
G1 X-14.142 Y19.778 E2.35854
G1 X-14.822 Y19.098 E2.40726
G1 X-14.822 Y19.59 E2.43218
G1 X-14.142 Y20.27 E2.4809
G1 X-14.142 Y20.762 E2.50582
G1 X-14.823 Y20.082 E2.55457
G1 X-14.823 Y20.574 E2.57949
G1 X-14.142 Y21.255 E2.62828
G1 X-14.142 Y21.747 E2.6532
G1 X-14.824 Y21.066 E2.70203
G1 X-14.824 Y21.558 E2.72695
G1 X-14.142 Y22.239 E2.77578
G1 X-14.142 Y22.732 E2.80076
G1 X-14.824 Y22.05 E2.84962
G1 X-14.825 Y22.542 E2.87454
G1 X-14.142 Y23.224 E2.92344
G1 X-14.142 Y23.717 E2.94842
G1 X-14.825 Y23.034 E2.99735
G1 X-14.845 Y23.506 E3.02128
G1 X-14.142 Y24.209 E3.07165
G1 X-14.142 Y24.701 E3.09657
G1 X-14.978 Y23.865 E3.15646
G1 X-15.217 Y24.119 E3.17413
G1 X-14.142 Y25.194 E3.25115
G1 X-14.142 Y25.686 E3.27607
G1 X-15.513 Y24.316 E3.37426
G1 X-15.732 Y24.402 E3.38618
G1 X-15.902 Y24.418 E3.39483
G1 X-14.142 Y26.178 E3.52092
G1 X-14.142 Y26.671 E3.5459
G1 X-16.391 Y24.422 E3.70703
G1 X-16.883 Y24.422 E3.73195
G1 X-14.142 Y27.163 E3.92833
G1 X-14.142 Y27.655 E3.95325
G1 X-16.87 Y24.927 E4.14869
G1 X-16.826 Y25.256 E4.16551
G1 X-16.826 Y25.465 E4.1761
G1 X-14.142 Y28.148 E4.36836
G1 X-14.142 Y28.64 E4.39328
G1 X-16.826 Y25.957 E4.58554
G1 X-16.826 Y26.449 E4.61046
G1 X-14.142 Y29.132 E4.80272
G1 X-14.142 Y29.625 E4.8277
G1 X-16.826 Y26.942 E5.01996
G1 X-16.826 Y27.434 E5.04488
G1 X-14.142 Y30.117 E5.23714
G1 X-14.142 Y30.609 E5.26206
G1 X-16.826 Y27.926 E5.45432
G1 X-16.826 Y28.419 E5.4793
G1 X-14.142 Y31.102 E5.67156
G1 X-14.142 Y31.594 E5.69648
G1 X-16.826 Y28.911 E5.88874
G1 X-16.826 Y29.403 E5.91366
G1 X-14.142 Y32.087 E6.10595
G1 X-14.142 Y32.579 E6.13087
G1 X-16.826 Y29.896 E6.32313
G1 X-16.826 Y30.388 E6.34805
G1 X-14.142 Y33.071 E6.54031
G1 X-14.142 Y33.564 E6.56529
G1 X-16.826 Y30.88 E6.75758
G1 X-16.826 Y31.373 E6.78256
G1 X-14.142 Y34.056 E6.97482
G1 X-14.142 Y34.548 E6.99974
G1 X-16.826 Y31.865 E7.192
G1 X-16.826 Y32.358 E7.21698
G1 X-14.142 Y35.041 E7.40924
G1 X-14.142 Y35.533 E7.43416
G1 X-16.826 Y32.85 E7.62642
G1 X-16.826 Y33.342 E7.65134
G1 X-14.142 Y36.025 E7.8436
G1 X-14.142 Y36.518 E7.86858
G1 X-16.826 Y33.835 E8.06084
G1 X-16.826 Y34.327 E8.08576
G1 X-14.142 Y37.01 E8.27802
G1 X-14.142 Y37.502 E8.30294
G1 X-16.826 Y34.819 E8.4952
G1 X-16.826 Y35.312 E8.52018
G1 X-14.142 Y37.995 E8.71244
G1 X-14.142 Y38.487 E8.73736
G1 X-16.826 Y35.804 E8.92962
G1 X-16.828 Y36.294 E8.95444
G1 X-16.016 Y37.105 E9.01258
G1 X-16.509 Y37.105 E9.03756
G1 X-16.888 Y36.726 E9.06471
G1 X-16.95 Y36.951 E9.07653
G1 X-17.015 Y37.091 E9.08435
G1 X-16.846 Y37.261 E9.09649
G1 E7.09649 F2400
G92 E0
G1 X-16.846 Y37.261 F7800
G1 X-15.016 Y38.105
G1 E2 F2400
G1 F1800
G1 X-14.142 Y38.979 E2.06262
G1 X-14.142 Y39.472 E2.0876
G1 X-14.825 Y38.789 E2.13653
G1 X-14.825 Y39.282 E2.16151
G1 X-14.142 Y39.964 E2.21041
G1 X-14.142 Y40.456 E2.23533
G1 X-14.824 Y39.775 E2.28416
G1 X-14.824 Y40.268 E2.30914
G1 X-14.142 Y40.949 E2.35797
G1 X-14.142 Y41.441 E2.38289
G1 X-14.823 Y40.76 E2.43168
G1 X-14.823 Y41.253 E2.45666
G1 X-14.142 Y41.934 E2.50545
G1 X-14.142 Y42.426 E2.53037
G1 X-14.822 Y41.746 E2.57909
G1 X-14.822 Y42.239 E2.60407
G1 X-14.142 Y42.918 E2.65275
G1 X-14.142 Y43.411 E2.67773
G1 X-14.822 Y42.731 E2.72645
G1 X-14.821 Y43.224 E2.75143
G1 X-14.142 Y43.903 E2.80008
G1 X-14.142 Y44.395 E2.825
G1 X-14.821 Y43.717 E2.87361
G1 X-14.82 Y44.21 E2.89859
G1 X-14.27 Y44.76 E2.93799
M106 S127.5
;LAYER_CHANGE
;Z:0.65
;HEIGHT:0.3
G1 Z.65 F7800
M104 S210 ; set temperature
G1 E.93799 F2400
G92 E0
G1 X-14.27 Y44.76 F7800
G1 X-29.154 Y25.006
G1 E2 F2400
;TYPE:External perimeter
;WIDTH:0.45
G1 F1800
G1 X-29.077 Y24.717 E2.01438
G1 X-28.798 Y24.352 E2.03648
;WIDTH:0.450609
G1 X-28.403 Y24.115 E2.05867
;WIDTH:0.4914
G1 X-28.194 Y24.056 E2.07024
;WIDTH:0.532192
G1 X-27.985 Y23.998 E2.0829
;WIDTH:0.532924
G1 X-18.927 Y23.999 E2.61224
G1 X-18.688 Y24.082 E2.62703
;WIDTH:0.491462
G1 X-18.449 Y24.166 E2.64052
;WIDTH:0.45
G1 X-18.038 Y24.492 E2.66575
G1 X-17.815 Y24.903 E2.68824
G1 X-17.759 Y25.296 E2.70733
G1 X-17.759 Y36.266 E3.23495
G1 X-17.795 Y36.555 E3.24896
G1 X-17.925 Y36.872 E3.26544
G1 X-18.268 Y37.256 E3.2902
;WIDTH:0.487437
G1 X-18.384 Y37.333 E3.29755
;WIDTH:0.524875
G1 X-18.499 Y37.41 E3.3055
;WIDTH:0.562313
G1 X-18.614 Y37.488 E3.31413
G1 X-18.983 Y37.53 E3.33719
;WIDTH:0.532034
G1 X-27.986 Y37.53 E3.86232
;WIDTH:0.532935
G1 X-28.011 Y37.529 E3.86378
G1 X-28.284 Y37.484 E3.87995
;WIDTH:0.516633
G1 X-28.438 Y37.404 E3.88974
;WIDTH:0.483316
G1 X-28.592 Y37.323 E3.89883
;WIDTH:0.45
G1 X-28.976 Y36.979 E3.92363
G1 X-29.152 Y36.625 E3.94264
G1 X-29.209 Y36.265 E3.96017
G1 X-29.207 Y25.207 E4.49202
G1 X-29.169 Y25.064 E4.49914
G1 X-29.034 Y24.688 F7800
G1 E2.49914 F2400
G92 E0
G1 X-15.289 Y37.569 F7800
G1 E2 F2400
;TYPE:Perimeter
G1 F3600
G1 X-15.436 Y37.417 E2.01017
G1 X-15.769 Y37.285 E2.0274
G1 X-15.952 Y37.268 E2.03624
G1 X-17.276 Y37.267 E2.09992
G1 X-17.072 Y36.821 E2.12351
G1 X-16.988 Y36.266 E2.15051
G1 X-16.988 Y25.296 E2.67813
G1 X-17.054 Y24.778 E2.70325
G1 X-17.272 Y24.26 E2.73028
G1 X-15.769 Y24.243 E2.80257
G1 X-15.436 Y24.111 E2.8198
G1 X-15.124 Y23.79 E2.84133
G1 X-15.002 Y23.463 E2.85812
G1 X-14.988 Y23.297 E2.86613
G1 X-14.982 Y16.793 E3.17895
G1 X-14.917 Y16.761 E3.18243
G1 X-13.98 Y16.761 E3.2275
G1 X-13.98 Y17.262 E3.2516
G1 X-13.98 Y44.768 E4.57454
G1 X-14.943 Y44.753 E4.62086
G1 X-14.988 Y44.698 E4.62428
G1 X-14.988 Y38.232 E4.93527
G1 X-15.123 Y37.738 E4.9599
G1 X-15.247 Y37.612 E4.9684
G1 X-15.247 Y37.612 F7800
G1 X-15.554 Y37.834
G1 F3600
G1 X-15.642 Y37.743 E4.97449
G1 X-15.952 Y37.653 E4.99002
G1 X-18.195 Y37.653 E5.0979
G1 X-17.918 Y37.46 E5.11414
G1 X-17.631 Y37.121 E5.1355
G1 X-17.433 Y36.688 E5.1584
G1 X-17.373 Y36.266 E5.1789
G1 X-17.373 Y25.719 E5.68617
G1 X-17.381 Y25.169 E5.71263
G1 X-17.495 Y24.663 E5.73758
G1 X-17.788 Y24.198 E5.76401
G1 X-18.195 Y23.874 E5.78903
G1 X-15.952 Y23.874 E5.89691
G1 X-15.642 Y23.785 E5.91242
G1 X-15.455 Y23.592 E5.92535
G1 X-15.373 Y23.297 E5.94008
G1 X-15.368 Y17.261 E6.23039
G1 X-15.353 Y16.685 E6.2581
G1 X-15.239 Y16.482 E6.2693
G1 X-14.965 Y16.376 E6.28343
G1 X-13.595 Y16.375 E6.34932
G1 X-13.595 Y17.262 E6.39198
G1 X-13.595 Y45.153 E7.73344
G1 X-14.864 Y45.153 E7.79447
G1 X-15.123 Y45.109 E7.80711
G1 X-15.269 Y45.021 E7.81531
G1 X-15.373 Y44.731 E7.83013
G1 X-15.373 Y38.232 E8.14271
G1 X-15.455 Y37.936 E8.15748
G1 X-15.512 Y37.877 E8.16143
G1 E6.16143 F2400
G92 E0
G1 X-29.877 Y37.157 F7800
G1 E2 F2400
;WIDTH:0.667539
G1 F900
G1 X-29.902 Y36.974 E2.01389
;WIDTH:0.617913
G1 X-29.927 Y36.79 E2.02671
;WIDTH:0.568287
G1 X-29.952 Y36.607 E2.03832
;WIDTH:0.518661
G1 X-29.977 Y36.423 E2.04884
;WIDTH:0.469035
G1 X-29.983 Y36.265 E2.05682
;WIDTH:0.458883
G1 X-29.983 Y25.207 E2.60092
;WIDTH:0.488087
G1 X-29.969 Y24.969 E2.61352
G1 X-29.969 Y24.969 F7800
G1 X-29.915 Y24.837
G1 F900
G1 X-29.969 Y24.969 E2.62106
G1 X-29.99 Y24.768 E2.63174
;WIDTH:0.446037
G1 X-30.011 Y24.566 E2.64141
;WIDTH:0.403987
G1 X-30.032 Y24.365 E2.64997
;WIDTH:0.361938
G1 X-29.995 Y24.24 E2.65481
G1 X-29.612 Y24.216 E2.66905
G1 X-29.749 Y24.43 E2.67848
;WIDTH:0.403987
G1 X-29.822 Y24.609 E2.68667
;WIDTH:0.446037
G1 X-29.892 Y24.781 E2.69551
G1 X-29.532 Y24.923 F7800
;WIDTH:0.45
G1 F900
G1 X-29.593 Y25.207 E2.70948
G1 X-29.595 Y36.265 E3.24133
G1 X-29.473 Y36.864 E3.27073
G1 X-29.18 Y37.33 E3.29721
G1 X-28.782 Y37.652 E3.32183
G1 X-30.074 Y37.625 E3.38398
G1 X-30.266 Y37.519 E3.39453
G1 X-30.372 Y37.245 E3.40866
G1 X-30.373 Y24.365 E4.02814
G1 X-30.322 Y24.098 E4.04121
G1 X-30.154 Y23.927 E4.05274
G1 X-29.943 Y23.874 E4.0632
G1 X-28.767 Y23.874 E4.11976
G1 X-29.164 Y24.177 E4.14378
G1 X-29.39 Y24.492 E4.16243
