; generated by PrusaSlicer 2.9.0 on 2025-03-12 at 18:05:51 UTC

; 

; external perimeters extrusion width = 0.45mm
; perimeters extrusion width = 0.45mm
; infill extrusion width = 0.45mm
; solid infill extrusion width = 0.45mm
; top infill extrusion width = 0.40mm
; first layer extrusion width = 0.42mm

M190 S60 ; set bed temperature and wait for it to be reached
M104 S215 ; set temperature
;TYPE:Custom
G28 ; home all axes
G1 Z5 F5000 ; lift nozzle
M109 S215 ; set temperature and wait for it to be reached
G21 ; set units to millimeters
G90 ; use absolute coordinates
M82 ; use absolute distances for extrusion
G92 E0
; Filament gcode
M107
;LAYER_CHANGE
;Z:0.35
;HEIGHT:0.35
G1 E-2 F2400
G1 Z.35 F7800
G1 X-27.296 Y0
G1 E.00001 F2400
;TYPE:Skirt/Brim
;WIDTH:0.42
G1 F1800
G1 X-27.296 Y2.121 E.10644
G1 X-27.693 Y4.299 E.21755
G1 X-28.832 Y6.196 E.3286
G1 X-30.567 Y7.57 E.43967
G1 X-33.468 Y8.294 E.58972
G1 X-43.468 Y8.294 E1.09158
G1 X-45.646 Y7.897 E1.20269
G1 X-47.543 Y6.758 E1.31374
G1 X-48.917 Y5.022 E1.42485
G1 X-49.641 Y2.121 E1.5749
G1 X-49.641 Y-4.874 E1.92595
G1 X-49.256 Y-7.02 E2.03537
G1 X-46.756 Y-13.76 E2.39614
G1 X-45.626 Y-15.663 E2.50721
G1 X-43.898 Y-17.046 E2.61829
G1 X-40.968 Y-17.786 E2.76995
G1 X-35.968 Y-17.786 E3.02088
G1 X-33.791 Y-17.389 E3.13194
G1 X-31.894 Y-16.25 E3.24299
G1 X-30.181 Y-13.76 E3.39467
G1 X-27.681 Y-7.02 E3.75544
G1 X-27.296 Y-4.874 E3.86486
G1 X-27.296 Y-.06 E4.10645
G1 E2.10645 F2400
G92 E0
G92 E0
G1 X-36.609 Y-4.235 F7800
G1 E2 F2400
;TYPE:Perimeter
;WIDTH:0.42
G1 F1800
G1 X-36.551 Y-4.168 E2.00445
G1 X-36.259 Y-4.012 E2.02106
G1 X-36.006 Y-3.974 E2.0339
G1 X-34.368 Y-3.974 E2.1161
G1 X-34.368 Y-2.336 E2.1983
G1 X-34.368 Y1.222 E2.37686
G1 X-42.569 Y1.222 E2.78843
G1 X-42.569 Y-3.974 E3.0492
G1 X-40.931 Y-3.974 E3.1314
G1 X-40.678 Y-4.012 E3.14424
G1 X-40.521 Y-4.077 E3.15277
G1 X-40.296 Y-4.252 E3.16708
G1 X-40.107 Y-4.583 E3.18621
G1 X-40.069 Y-4.836 E3.19905
G1 X-40.069 Y-10.713 E3.49399
G1 X-36.868 Y-10.713 E3.65463
G1 X-36.865 Y-4.761 E3.95334
G1 X-36.741 Y-4.385 E3.97321
G1 X-36.649 Y-4.28 E3.98022
G1 X-36.649 Y-4.28 F7800
G1 X-36.359 Y-4.482
G1 F1800
G1 X-36.252 Y-4.381 E3.9876
G1 X-36.006 Y-4.319 E4.00033
G1 X-34.023 Y-4.319 E4.09985
G1 X-34.023 Y-2.336 E4.19937
G1 X-34.023 Y1.567 E4.39525
G1 X-42.914 Y1.567 E4.84145
G1 X-42.914 Y-4.319 E5.13684
G1 X-40.931 Y-4.319 E5.23636
G1 X-40.685 Y-4.381 E5.24909
G1 X-40.49 Y-4.565 E5.26255
G1 X-40.414 Y-4.836 E5.27668
G1 X-40.414 Y-11.058 E5.58894
G1 X-36.523 Y-11.058 E5.78421
G1 X-36.523 Y-4.836 E6.09647
G1 X-36.447 Y-4.565 E6.1106
G1 X-36.403 Y-4.524 E6.11362
G1 X-36.403 Y-4.524 F7800
G1 X-36.121 Y-4.714
;TYPE:External perimeter
G1 F1800
G1 X-36.006 Y-4.664 E6.11991
G1 X-33.678 Y-4.664 E6.23674
G1 X-33.678 Y-2.336 E6.35357
G1 X-33.678 Y1.911 E6.56671
G1 X-43.258 Y1.911 E7.04749
G1 X-43.258 Y-4.664 E7.37746
G1 X-40.931 Y-4.664 E7.49424
G1 X-40.822 Y-4.702 E7.50003
G1 X-40.758 Y-4.836 E7.50748
G1 X-40.758 Y-11.403 E7.83705
G1 X-36.178 Y-11.403 E8.0669
G1 X-36.178 Y-4.836 E8.39647
G1 X-36.15 Y-4.763 E8.40039
G1 X-35.761 Y-4.671 F7800
G1 E6.40039 F2400
G92 E0
G1 X-37.678 Y-10.61 F7800
G1 E2 F2400
;TYPE:Solid infill
;WIDTH:0.424433
G1 F1800
G1 X-37.127 Y-10.059 E2.03961
G1 X-37.127 Y-9.565 E2.06472
G1 X-38.017 Y-10.455 E2.1287
G1 X-38.511 Y-10.455 E2.15381
G1 X-37.127 Y-9.071 E2.2533
G1 X-37.127 Y-8.576 E2.27846
G1 X-39.005 Y-10.455 E2.4135
G1 X-39.499 Y-10.455 E2.43861
G1 X-37.127 Y-8.082 E2.60916
G1 X-37.127 Y-7.588 E2.63427
G1 X-39.81 Y-10.272 E2.82718
G1 X-39.81 Y-9.778 E2.85229
G1 X-37.127 Y-7.094 E3.0452
G1 X-37.127 Y-6.6 E3.07031
G1 X-39.81 Y-9.284 E3.26322
G1 X-39.81 Y-8.79 E3.28833
G1 X-37.127 Y-6.106 E3.48124
G1 X-37.127 Y-5.612 E3.50635
G1 X-39.81 Y-8.296 E3.69926
G1 X-39.81 Y-7.801 E3.72442
G1 X-36.972 Y-4.963 E3.92843
G1 E1.92843 F2400
G92 E0
G1 X-36.972 Y-4.963 F7800
G1 X-34.891 Y-3.87
G1 E2 F2400
G1 F1800
G1 X-34.627 Y-3.606 E2.01898
G1 X-34.627 Y-3.112 E2.04409
G1 X-35.23 Y-3.715 E2.08744
G1 X-35.724 Y-3.715 E2.11255
G1 X-34.627 Y-2.618 E2.19141
G1 X-34.627 Y-2.124 E2.21652
G1 X-36.254 Y-3.751 E2.33348
G1 X-36.333 Y-3.763 E2.33754
G1 X-36.539 Y-3.849 E2.34889
G1 X-36.713 Y-3.966 E2.35955
G1 X-36.832 Y-4.078 E2.36786
G1 X-36.962 Y-4.251 E2.37886
G1 X-37.079 Y-4.508 E2.39321
G1 X-37.091 Y-4.588 E2.39732
G1 X-39.81 Y-7.307 E2.59278
G1 X-39.81 Y-6.813 E2.61789
G1 X-34.627 Y-1.63 E2.99047
G1 X-34.627 Y-1.136 E3.01558
G1 X-39.81 Y-6.319 E3.38816
G1 X-39.81 Y-5.825 E3.41327
G1 X-34.627 Y-.642 E3.78585
G1 X-34.627 Y-.148 E3.81096
G1 X-39.81 Y-5.331 E4.18354
G1 X-39.81 Y-4.837 E4.20865
G1 X-34.627 Y.346 E4.58123
G1 X-34.627 Y.84 E4.60634
G1 X-39.894 Y-4.428 E4.985
G1 X-39.974 Y-4.251 E4.99487
G1 X-40.076 Y-4.116 E5.00347
G1 X-34.998 Y.963 E5.36854
G1 X-35.492 Y.963 E5.39365
G1 X-40.342 Y-3.887 E5.7423
G1 X-40.604 Y-3.763 E5.75703
G1 X-40.698 Y-3.749 E5.76186
G1 X-35.986 Y.963 E6.10059
G1 X-36.48 Y.963 E6.1257
G1 X-41.158 Y-3.715 E6.46198
G1 X-41.652 Y-3.715 E6.48709
G1 X-36.974 Y.963 E6.82337
G1 X-37.468 Y.963 E6.84848
G1 X-42.146 Y-3.715 E7.18476
G1 X-42.31 Y-3.715 E7.1931
G1 X-42.31 Y-3.385 E7.20987
G1 X-37.962 Y.963 E7.52243
G1 X-38.456 Y.963 E7.54754
G1 X-42.31 Y-2.891 E7.82459
G1 X-42.31 Y-2.397 E7.8497
G1 X-38.95 Y.963 E8.09124
G1 X-39.444 Y.963 E8.11635
G1 X-42.31 Y-1.903 E8.32237
G1 X-42.31 Y-1.409 E8.34748
G1 X-39.938 Y.963 E8.51799
G1 X-40.432 Y.963 E8.5431
G1 X-42.31 Y-.915 E8.6781
G1 X-42.31 Y-.421 E8.70321
G1 X-40.926 Y.963 E8.8027
G1 X-41.42 Y.963 E8.82781
G1 X-42.31 Y.073 E8.89179
G1 X-42.31 Y.567 E8.9169
G1 X-41.759 Y1.118 E8.95651
M106 S127.5
;LAYER_CHANGE
;Z:0.65
;HEIGHT:0.3
G1 Z.65 F7800
M104 S210 ; set temperature
G1 E6.95651 F2400
G92 E0
G1 X-41.759 Y1.118 F7800
G1 X-36.682 Y-4.163
G1 E2 F2400
;TYPE:Perimeter
;WIDTH:0.45
G1 F3600
G1 X-36.664 Y-4.142 E2.00133
G1 X-36.363 Y-3.948 E2.01855
G1 X-36.001 Y-3.877 E2.03629
G1 X-34.465 Y-3.877 E2.11017
G1 X-34.465 Y-2.341 E2.18405
G1 X-34.465 Y1.917 E2.38885
G1 X-42.472 Y1.917 E2.77396
G1 X-42.472 Y-3.877 E3.05263
G1 X-40.936 Y-3.877 E3.12651
G1 X-40.73 Y-3.9 E3.13648
G1 X-40.377 Y-4.056 E3.15504
G1 X-40.147 Y-4.287 E3.17072
G1 X-40.027 Y-4.522 E3.18341
G1 X-39.972 Y-4.841 E3.19898
G1 X-39.972 Y-11.436 E3.51618
G1 X-36.965 Y-11.436 E3.66081
G1 X-36.965 Y-4.841 E3.97801
G1 X-36.91 Y-4.522 E3.99358
G1 X-36.79 Y-4.287 E4.00627
G1 X-36.721 Y-4.208 E4.01131
G1 X-36.409 Y-4.437 F7800
G1 F3600
G1 X-36.399 Y-4.422 E4.01218
G1 X-36.218 Y-4.305 E4.02255
G1 X-36.001 Y-4.263 E4.03318
G1 X-34.079 Y-4.263 E4.12562
G1 X-34.079 Y-2.341 E4.21806
G1 X-34.079 Y2.302 E4.44137
G1 X-42.858 Y2.302 E4.86361
G1 X-42.858 Y-4.263 E5.17936
G1 X-40.936 Y-4.263 E5.2718
G1 X-40.812 Y-4.276 E5.2778
G1 X-40.538 Y-4.422 E5.29273
G1 X-40.39 Y-4.65 E5.3058
G1 X-40.358 Y-4.841 E5.31511
G1 X-40.358 Y-11.813 E5.65044
;TYPE:Overhang perimeter
;WIDTH:0.4
;HEIGHT:0.4
G1 X-36.579 Y-11.813 E5.84787
;TYPE:Perimeter
;WIDTH:0.45
;HEIGHT:0.3
G1 X-36.579 Y-4.841 E6.1832
G1 X-36.546 Y-4.65 E6.19252
G1 X-36.442 Y-4.488 E6.20178
G1 X-36.442 Y-4.488 F7800
G1 X-36.138 Y-4.712
;TYPE:External perimeter
G1 F1800
G1 X-36.133 Y-4.702 E6.20232
G1 X-36.001 Y-4.649 E6.20916
G1 X-33.693 Y-4.649 E6.32017
G1 X-33.693 Y-2.341 E6.43118
G1 X-33.693 Y2.321 E6.65541
;TYPE:Overhang perimeter
;WIDTH:0.4
;HEIGHT:0.4
G1 F3600
G1 X-33.693 Y2.688 E6.67458
G1 X-43.243 Y2.688 E7.17352
G1 X-43.243 Y2.321 E7.19269
;TYPE:External perimeter
;WIDTH:0.45
;HEIGHT:0.3
G1 F1800
G1 X-43.243 Y-4.649 E7.52792
G1 X-40.936 Y-4.649 E7.63888
G1 X-40.803 Y-4.702 E7.64577
G1 X-40.743 Y-4.841 E7.65305
G1 X-40.743 Y-11.813 E7.98838
;TYPE:Overhang perimeter
;WIDTH:0.4
;HEIGHT:0.4
G1 F3600
G1 X-40.743 Y-12.208 E8.00902
G1 X-36.193 Y-12.208 E8.24673
G1 X-36.193 Y-11.813 E8.26737
;TYPE:External perimeter
;WIDTH:0.45
;HEIGHT:0.3
G1 F1800
G1 X-36.193 Y-4.841 E8.6027
G1 X-36.162 Y-4.767 E8.60656
G1 X-35.778 Y-4.655 F7800
G1 E6.60656 F2400
G92 E0
G1 X-37.447 Y-11.147 F7800
G1 E2 F2400
;TYPE:Solid infill
G1 F1200
G1 X-39.683 Y-11.147 E2.10754
G1 X-39.687 Y-4.751 E2.41517
G1 X-39.77 Y-4.405 E2.43228
;WIDTH:0.442477
G1 X-39.926 Y-4.157 E2.4461
;WIDTH:0.45
G1 X-39.513 Y-4.613 E2.47569
G1 X-37.39 Y-6.736 E2.62009
G1 X-37.251 Y-6.736 E2.62678
G1 X-37.254 Y-11.147 E2.83893
G1 X-37.639 Y-10.762 E2.86512
G1 X-37.637 Y-7.009 E3.04563
G1 X-37.663 Y-7.009 E3.04688
G1 X-39.301 Y-5.37 E3.15833
G1 X-39.298 Y-10.762 E3.41767
G1 X-37.832 Y-10.762 E3.48818
G1 X-38.025 Y-10.376 E3.50894
G1 X-38.023 Y-7.194 E3.66198
G1 X-38.915 Y-6.302 E3.72265
G1 X-38.912 Y-10.376 E3.9186
G1 X-38.217 Y-10.376 E3.95203
G1 X-38.468 Y-9.932 E3.97656
;WIDTH:0.570399
G1 X-38.469 Y-7.379 E4.13769
G1 E2.13769 F2400
G92 E0
G1 X-38.469 Y-7.379 F7800
G1 X-42.133 Y-3.598
G1 E2 F2400
;WIDTH:0.455189
G1 F1200
G1 X-42.215 Y-3.62 E2.00414
G1 X-42.193 Y-3.538 E2.00828
G1 X-42.146 Y-3.551 E2.01066
;WIDTH:0.45
G1 X-42.183 Y-3.034 E2.03559
G1 X-41.629 Y-3.588 E2.07327
G1 X-41.083 Y-3.588 E2.09953
G1 X-42.183 Y-2.489 E2.17432
G1 X-42.183 Y-1.943 E2.20058
G1 X-40.425 Y-3.701 E2.32016
G1 X-40.152 Y-3.922 E2.33705
;WIDTH:0.404381
G1 X-39.95 Y-4.127 E2.34925
G1 E.34925 F2400
G92 E0
G1 X-39.95 Y-4.127 F7800
G1 X-37.254 Y-6.327
G1 E2 F2400
;WIDTH:0.45
G1 F1200
G1 X-42.183 Y-1.398 E2.33526
G1 X-42.183 Y-.853 E2.36147
G1 X-37.254 Y-5.782 E2.69673
G1 X-37.254 Y-5.236 E2.72299
G1 X-42.183 Y-.307 E3.05825
G1 X-42.183 Y.238 E3.08446
G1 X-37.243 Y-4.702 E3.42047
G1 X-37.113 Y-4.287 E3.44139
G1 X-42.183 Y.784 E3.78628
G1 X-42.183 Y.784 F7800
G1 X-42.234 Y1.738
;WIDTH:0.404381
G1 F1200
G1 X-42.275 Y1.749 E3.78808
G1 X-42.294 Y1.678 E3.7912
G1 X-42.223 Y1.697 E3.79432
;WIDTH:0.45
G1 X-42.183 Y1.329 E3.81212
G1 X-36.891 Y-3.963 E4.17208
G1 X-36.574 Y-3.735 E4.19086
G1 X-41.936 Y1.627 E4.55558
G1 X-41.391 Y1.627 E4.58179
G1 X-36.159 Y-3.605 E4.93766
G1 X-35.452 Y-3.764 E4.97251
;WIDTH:0.404381
G1 X-35.523 Y-3.783 E4.97563
G1 X-35.504 Y-3.712 E4.97875
G1 X-35.463 Y-3.723 E4.98055
;WIDTH:0.45
G1 X-35.63 Y-3.588 E4.99088
G1 X-40.845 Y1.627 E5.3456
G1 X-40.3 Y1.627 E5.37181
G1 X-35.085 Y-3.588 E5.72653
G1 X-34.628 Y-3.684 E5.74899
;WIDTH:0.404381
G1 X-34.699 Y-3.703 E5.75211
G1 X-34.68 Y-3.632 E5.75523
G1 X-34.639 Y-3.643 E5.75703
;WIDTH:0.45
G1 X-34.754 Y-3.373 E5.77114
G1 X-39.755 Y1.627 E6.11127
G1 X-39.209 Y1.627 E6.13753
G1 X-34.754 Y-2.828 E6.44055
G1 X-34.754 Y-2.283 E6.46676
G1 X-38.664 Y1.627 E6.73271
G1 X-38.119 Y1.627 E6.75892
G1 X-34.754 Y-1.737 E6.98777
G1 X-34.754 Y-1.192 E7.01398
G1 X-37.573 Y1.627 E7.20572
G1 X-37.028 Y1.627 E7.23193
G1 X-34.754 Y-.647 E7.3866
G1 X-34.754 Y1.627 E7.49597
G1 X-36.483 Y1.627 E7.57913
G1 X-34.89 Y.035 E7.68745
G1 X-35.103 Y.743 E7.72301
;WIDTH:0.377894
G1 X-35.103 Y1.278 E7.74393
G1 X-35.639 Y1.278 E7.76489
G1 X-35.24 Y.879 E7.78695
M106 S255
;LAYER_CHANGE
;Z:0.95
;HEIGHT:0.3
G1 Z.95 F7800
G1 E5.78695 F2400
G92 E0
G1 X-35.24 Y.879 F7800
G1 X-36.685 Y-4.164
G1 E2 F2400
;TYPE:Perimeter
;WIDTH:0.45
G1 F3600
G1 X-36.68 Y-4.157 E2.00041
G1 X-36.404 Y-3.966 E2.01655
G1 X-36.001 Y-3.877 E2.0364
G1 X-34.465 Y-3.877 E2.11028
G1 X-34.465 Y-2.341 E2.18416
G1 X-34.465 Y2.393 E2.41185
G1 X-42.472 Y2.393 E2.79696
G1 X-42.472 Y-3.877 E3.09853
G1 X-40.936 Y-3.877 E3.17241
G1 X-40.703 Y-3.906 E3.1837
G1 X-40.404 Y-4.038 E3.19942
G1 X-40.167 Y-4.26 E3.21504
G1 X-40.001 Y-4.606 E3.2335
G1 X-39.972 Y-4.841 E3.24489
G1 X-39.972 Y-11.937 E3.58618
G1 X-36.965 Y-11.937 E3.73081
G1 X-36.961 Y-4.757 E4.07614
G1 X-36.862 Y-4.408 E4.09359
G1 X-36.72 Y-4.212 E4.10523
G1 X-36.72 Y-4.212 F7800
G1 X-36.399 Y-4.442
G1 F3600
G1 X-36.242 Y-4.316 E4.11491
G1 X-36.001 Y-4.263 E4.12678
G1 X-34.079 Y-4.263 E4.21922
G1 X-34.079 Y-2.341 E4.31166
G1 X-34.079 Y2.779 E4.55791
G1 X-42.858 Y2.779 E4.98015
G1 X-42.858 Y-4.263 E5.31885
G1 X-40.936 Y-4.263 E5.41129
G1 X-40.796 Y-4.28 E5.41807
G1 X-40.617 Y-4.359 E5.42748
G1 X-40.42 Y-4.581 E5.44176
G1 X-40.358 Y-4.841 E5.45462
G1 X-40.358 Y-12.323 E5.81448
G1 X-36.579 Y-12.323 E5.99624
G1 X-36.579 Y-4.841 E6.3561
G1 X-36.562 Y-4.7 E6.36293
G1 X-36.462 Y-4.493 E6.37399
G1 X-36.446 Y-4.48 E6.37498
G1 X-36.446 Y-4.48 F7800
G1 X-36.139 Y-4.712
;TYPE:External perimeter
G1 F1800
G1 X-36.136 Y-4.705 E6.37535
G1 X-36.001 Y-4.649 E6.38238
G1 X-33.693 Y-4.649 E6.49339
G1 X-33.693 Y-2.341 E6.6044
G1 X-33.693 Y3.113 E6.86672
;TYPE:Overhang perimeter
;WIDTH:0.4
;HEIGHT:0.4
G1 F3600
G1 X-33.693 Y3.165 E6.86944
G1 X-43.243 Y3.165 E7.36838
G1 X-43.243 Y3.113 E7.3711
;TYPE:External perimeter
;WIDTH:0.45
;HEIGHT:0.3
G1 F1800
G1 X-43.243 Y-4.649 E7.74443
G1 X-40.936 Y-4.649 E7.85539
G1 X-40.816 Y-4.69 E7.86149
G1 X-40.743 Y-4.841 E7.86956
G1 X-40.743 Y-12.633 E8.24433
;TYPE:Overhang perimeter
;WIDTH:0.4
;HEIGHT:0.4
G1 F3600
G1 X-40.743 Y-12.708 E8.24825
G1 X-36.193 Y-12.708 E8.48596
G1 X-36.193 Y-12.633 E8.48988
;TYPE:External perimeter
;WIDTH:0.45
;HEIGHT:0.3
G1 F1800
G1 X-36.193 Y-4.841 E8.86465
G1 X-36.162 Y-4.767 E8.86851
G1 X-35.778 Y-4.655 F7800
G1 E6.86851 F2400
G92 E0
G1 X-34.578 Y-1.294 F7800
G1 E2 F2400
;TYPE:Top solid infill
;WIDTH:0.405761
G1 F900
G1 X-35.117 Y-1.833 E2.03246
G1 X-35.6 Y-1.833 E2.05303
G1 X-34.729 Y-.962 E2.10548
G1 X-34.729 Y-.479 E2.12605
G1 X-36.083 Y-1.833 E2.20758
G1 X-36.566 Y-1.833 E2.22815
G1 X-34.729 Y.004 E2.33877
G1 X-34.729 Y.487 E2.35934
G1 X-37.049 Y-1.833 E2.49904
G1 X-37.531 Y-1.833 E2.51956
G1 X-34.729 Y.969 E2.68828
G1 X-34.729 Y1.452 E2.70885
G1 X-38.014 Y-1.833 E2.90666
G1 X-38.497 Y-1.833 E2.92723
G1 X-34.729 Y1.935 E3.15412
G1 X-34.729 Y2.086 E3.16055
G1 X-35.06 Y2.086 E3.17464
G1 X-38.98 Y-1.833 E3.41065
G1 X-39.463 Y-1.833 E3.43122
G1 X-35.543 Y2.086 E3.66723
G1 X-36.026 Y2.086 E3.6878
G1 X-39.945 Y-1.833 E3.92378
G1 X-40.428 Y-1.833 E3.94435
G1 X-36.509 Y2.086 E4.18033
G1 X-36.992 Y2.086 E4.2009
G1 X-40.911 Y-1.833 E4.43688
G1 X-41.394 Y-1.833 E4.45745
G1 X-37.474 Y2.086 E4.69346
G1 X-37.957 Y2.086 E4.71403
G1 X-41.876 Y-1.833 E4.95001
G1 X-42.208 Y-1.833 E4.96415
G1 X-42.208 Y-1.682 E4.97058
G1 X-38.44 Y2.086 E5.19747
G1 X-38.923 Y2.086 E5.21804
G1 X-42.208 Y-1.199 E5.41585
G1 X-42.208 Y-.716 E5.43642
G1 X-39.406 Y2.086 E5.60514
G1 X-39.888 Y2.086 E5.62566
G1 X-42.208 Y-.234 E5.76536
G1 X-42.208 Y.249 E5.78593
G1 X-40.371 Y2.086 E5.89655
G1 X-40.854 Y2.086 E5.91712
G1 X-42.208 Y.732 E5.99865
G1 X-42.208 Y1.215 E6.01922
G1 X-41.337 Y2.086 E6.07167
G1 X-41.819 Y2.086 E6.09219
G1 X-42.359 Y1.547 E6.12468
G1 E4.12468 F2400
G92 E0
G1 X-42.359 Y1.547 F7800
G1 X-42.183 Y-2.194
G1 E2 F2400
;TYPE:Solid infill
;WIDTH:0.45
G1 F1200
G1 X-42.183 Y-3.588 E2.06705
G1 X-40.942 Y-3.588 E2.12674
G1 X-40.453 Y-3.69 E2.15077
G1 X-40.176 Y-3.847 E2.16608
G1 X-39.841 Y-4.242 E2.19099
G1 X-39.728 Y-4.515 E2.2052
G1 X-39.705 Y-4.784 E2.21819
G1 X-37.115 Y-2.194 E2.39436
G1 X-41.99 Y-2.194 E2.62883
G1 X-41.738 Y-2.639 E2.65343
;WIDTH:0.568714
G1 X-41.738 Y-3.143 E2.68513
G1 X-40.808 Y-3.16 E2.74364
;WIDTH:0.564188
G1 X-40.602 Y-3.235 E2.75731
;WIDTH:0.526125
G1 X-40.397 Y-3.31 E2.76988
;WIDTH:0.488062
G1 X-40.191 Y-3.385 E2.78146
;WIDTH:0.45
G1 X-39.829 Y-3.646 E2.80292
G1 X-39.514 Y-4.047 E2.82745
G1 X-38.046 Y-2.579 E2.9273
G1 X-40.293 Y-2.579 E3.03537
;WIDTH:0.489571
G1 X-40.509 Y-2.599 E3.04687
;WIDTH:0.529142
G1 X-40.726 Y-2.619 E3.0595
;WIDTH:0.568714
G1 X-40.942 Y-2.639 E3.07315
G1 X-41.545 Y-2.639 E3.11108
G1 X-41.545 Y-2.639 F7800
G1 X-40.189 Y-2.971
;WIDTH:0.460899
G1 F1200
G1 X-39.769 Y-3.186 E3.13441
G1 X-39.478 Y-3.458 E3.15411
G1 X-38.99 Y-2.971 E3.18821
G1 X-39.997 Y-2.971 E3.23801
G1 E1.23801 F2400
G92 E0
G1 X-39.997 Y-2.971 F7800
G1 X-39.683 Y-5.307
G1 E2 F2400
;WIDTH:0.45
G1 F1200
G1 X-36.57 Y-2.194 E2.21174
G1 X-36.024 Y-2.194 E2.238
G1 X-39.683 Y-5.852 E2.48685
G1 X-39.683 Y-6.398 E2.51311
G1 X-35.479 Y-2.194 E2.79906
G1 X-35.217 Y-2.122 E2.81213
;WIDTH:0.404381
G1 X-35.236 Y-2.051 E2.81525
G1 X-35.165 Y-2.07 E2.81837
G1 X-35.176 Y-2.111 E2.82017
G1 E.82017 F2400
G92 E0
G1 X-35.176 Y-2.111 F7800
G1 X-36.67 Y-3.859
G1 E2 F2400
G1 F1200
G1 X-36.985 Y-4.169 E2.01874
;WIDTH:0.45
G1 X-37.182 Y-4.442 E2.03493
G1 X-39.683 Y-6.943 E2.20504
G1 X-39.683 Y-7.488 E2.23125
G1 X-37.254 Y-5.059 E2.39647
G1 E.39647 F2400
G92 E0
G1 X-37.254 Y-5.059 F7800
