; generated by PrusaSlicer 2.9.0 on 2025-03-12 at 17:09:20 UTC

; 

; external perimeters extrusion width = 0.45mm
; perimeters extrusion width = 0.45mm
; infill extrusion width = 0.45mm
; solid infill extrusion width = 0.45mm
; top infill extrusion width = 0.40mm
; first layer extrusion width = 0.42mm

M190 S60 ; set bed temperature and wait for it to be reached
M104 S215 ; set temperature
;TYPE:Custom
G28 ; home all axes
G1 Z5 F5000 ; lift nozzle
M109 S215 ; set temperature and wait for it to be reached
G21 ; set units to millimeters
G90 ; use absolute coordinates
M82 ; use absolute distances for extrusion
G92 E0
; Filament gcode
M107
;LAYER_CHANGE
;Z:0.35
;HEIGHT:0.35
G1 E-2 F2400
G1 Z.35 F7800
G1 X0 Y-25.161
G1 E.00001 F2400
;TYPE:Skirt/Brim
;WIDTH:0.42
G1 F1800
G1 X-7.5 Y-25.161 E.37639
G1 X-9.677 Y-25.558 E.48745
G1 X-11.575 Y-26.697 E.59854
G1 X-12.948 Y-28.433 E.70962
G1 X-13.672 Y-31.334 E.85967
G1 X-13.672 Y-38.968 E1.24279
G1 X-13.276 Y-41.145 E1.35384
G1 X-12.136 Y-43.042 E1.46491
G1 X-10.401 Y-44.416 E1.57598
G1 X-7.5 Y-45.14 E1.72603
G1 X7.5 Y-45.14 E2.47882
G1 X9.677 Y-44.743 E2.58988
G1 X11.575 Y-43.604 E2.70097
G1 X12.948 Y-41.869 E2.81201
G1 X13.672 Y-38.967 E2.96211
G1 X13.672 Y-31.334 E3.34518
G1 X13.276 Y-29.156 E3.45628
G1 X12.136 Y-27.259 E3.56735
G1 X10.401 Y-25.886 E3.67839
G1 X7.5 Y-25.161 E3.82846
G1 X.06 Y-25.161 E4.20184
G1 E2.20184 F2400
G92 E0
G1 X.06 Y-25.161 F7800
G92 E0
G1 X6.6 Y-38.068
G1 E2 F2400
;TYPE:Perimeter
;WIDTH:0.42
G1 F1800
G1 X6.6 Y-35.151 E2.14639
G1 X6.6 Y-32.233 E2.29283
G1 X-6.6 Y-32.233 E2.95528
G1 X-6.6 Y-38.068 E3.24811
G1 X6.54 Y-38.068 E3.90755
G1 X6.54 Y-38.068 F7800
G1 X6.945 Y-38.413
G1 F1800
G1 X6.945 Y-35.151 E4.07126
G1 X6.945 Y-31.889 E4.23497
G1 X-6.945 Y-31.889 E4.93205
G1 X-6.945 Y-38.413 E5.25946
G1 X6.885 Y-38.413 E5.95353
G1 X6.885 Y-38.413 F7800
G1 X7.29 Y-38.757
;TYPE:External perimeter
G1 F1800
G1 X7.29 Y-35.151 E6.1345
G1 X7.29 Y-31.544 E6.31552
G1 X-7.29 Y-31.544 E7.04723
G1 X-7.29 Y-38.757 E7.40922
G1 X7.23 Y-38.757 E8.13792
G1 X7.289 Y-38.362 F7800
G1 X6.497 Y-37.261
;TYPE:Solid infill
;WIDTH:0.422891
G1 F1800
G1 X5.949 Y-37.809 E8.17714
G1 X5.457 Y-37.809 E8.20204
G1 X6.342 Y-36.924 E8.26538
G1 X6.342 Y-36.432 E8.29028
G1 X4.965 Y-37.809 E8.38883
G1 X4.473 Y-37.809 E8.41373
G1 X6.342 Y-35.941 E8.54746
G1 X6.342 Y-35.449 E8.57236
G1 X3.981 Y-37.809 E8.7413
G1 X3.489 Y-37.809 E8.7662
G1 X6.342 Y-34.957 E8.97035
G1 X6.342 Y-34.465 E8.99525
G1 X2.998 Y-37.809 E9.23457
G1 X2.506 Y-37.809 E9.25947
G1 X6.342 Y-33.973 E9.53401
G1 X6.342 Y-33.481 E9.55891
G1 X2.014 Y-37.809 E9.86866
G1 X1.522 Y-37.809 E9.89356
G1 X6.342 Y-32.99 E10.23848
G1 X6.342 Y-32.498 E10.26338
G1 X1.03 Y-37.809 E10.64352
G1 X.538 Y-37.809 E10.66842
G1 X5.855 Y-32.492 E11.04895
G1 X5.363 Y-32.492 E11.07385
G1 X.047 Y-37.809 E11.45434
G1 X-.445 Y-37.809 E11.47924
G1 X4.872 Y-32.492 E11.85977
G1 X4.38 Y-32.492 E11.88467
G1 X-.937 Y-37.809 E12.2652
G1 X-1.429 Y-37.809 E12.2901
G1 X3.888 Y-32.492 E12.67063
G1 X3.396 Y-32.492 E12.69553
G1 X-1.921 Y-37.809 E13.07606
G1 X-2.413 Y-37.809 E13.10096
G1 X2.904 Y-32.492 E13.48149
G1 X2.412 Y-32.492 E13.50639
G1 X-2.904 Y-37.809 E13.88688
G1 X-3.396 Y-37.809 E13.91178
G1 X1.921 Y-32.492 E14.29231
G1 X1.429 Y-32.492 E14.31721
G1 X-3.888 Y-37.809 E14.69774
G1 X-4.38 Y-37.809 E14.72264
G1 X.937 Y-32.492 E15.10317
G1 X.445 Y-32.492 E15.12807
G1 X-4.872 Y-37.809 E15.5086
G1 X-5.364 Y-37.809 E15.5335
G1 X-.047 Y-32.492 E15.91403
G1 X-.539 Y-32.492 E15.93893
G1 X-5.855 Y-37.809 E16.31942
G1 X-6.342 Y-37.809 E16.34407
G1 X-1.03 Y-32.492 E16.72442
G1 X-1.522 Y-32.492 E16.74932
G1 X-6.342 Y-37.312 E17.09428
G1 X-6.342 Y-36.82 E17.11918
G1 X-2.014 Y-32.492 E17.42893
G1 X-2.506 Y-32.492 E17.45383
G1 X-6.342 Y-36.328 E17.72837
G1 X-6.342 Y-35.836 E17.75327
G1 X-2.998 Y-32.492 E17.99259
G1 X-3.49 Y-32.492 E18.01749
G1 X-6.342 Y-35.344 E18.2216
G1 X-6.342 Y-34.852 E18.2465
G1 X-3.981 Y-32.492 E18.41544
G1 X-4.473 Y-32.492 E18.44034
G1 X-6.342 Y-34.36 E18.57407
G1 X-6.342 Y-33.869 E18.59892
G1 X-4.965 Y-32.492 E18.69747
G1 X-5.457 Y-32.492 E18.72237
G1 X-6.342 Y-33.377 E18.78571
G1 X-6.342 Y-32.885 E18.81061
G1 X-5.794 Y-32.337 E18.84983
M106 S127.5
;LAYER_CHANGE
;Z:0.65
;HEIGHT:0.3
G1 Z.65 F7800
M104 S210 ; set temperature
G1 E16.84983 F2400
G92 E0
G1 X-5.794 Y-32.337 F7800
G1 X6.504 Y-32.522
G1 E2 F2400
;TYPE:Perimeter
;WIDTH:0.45
G1 F900
G1 X6.504 Y-31.825 E2.03352
G1 X-6.504 Y-31.825 E2.65916
G1 X-6.504 Y-38.476 E2.97905
G1 X6.504 Y-38.476 E3.60469
G1 X6.504 Y-35.151 E3.76461
G1 X6.504 Y-32.582 E3.88817
G1 X6.504 Y-32.582 F7800
G1 X6.889 Y-32.522
G1 F3600
G1 X6.889 Y-31.439 E3.94026
G1 X-6.889 Y-31.439 E4.60293
G1 X-6.889 Y-38.862 E4.95995
G1 X6.889 Y-38.862 E5.62262
G1 X6.889 Y-35.151 E5.80111
G1 X6.889 Y-32.582 E5.92467
G1 X6.889 Y-32.582 F7800
G1 X7.275 Y-32.522
;TYPE:External perimeter
G1 F1800
G1 X7.275 Y-31.134 E5.99143
;TYPE:Overhang perimeter
;WIDTH:0.4
;HEIGHT:0.4
G1 F3600
G1 X7.275 Y-31.054 E5.99561
G1 X-7.275 Y-31.054 E6.75577
G1 X-7.275 Y-31.134 E6.75995
;TYPE:External perimeter
;WIDTH:0.45
;HEIGHT:0.3
G1 F1800
G1 X-7.275 Y-39.167 E7.14631
;TYPE:Overhang perimeter
;WIDTH:0.4
;HEIGHT:0.4
G1 F3600
G1 X-7.275 Y-39.247 E7.15049
G1 X7.275 Y-39.247 E7.91065
G1 X7.275 Y-39.167 E7.91483
;TYPE:External perimeter
;WIDTH:0.45
;HEIGHT:0.3
G1 F1800
G1 X7.275 Y-35.151 E8.10799
G1 X7.275 Y-32.582 E8.23155
G1 X7.275 Y-32.182 F7800
G1 E6.23155 F2400
G92 E0
G1 X-6.11 Y-38.156 F7800
G1 E2 F2400
;TYPE:Solid infill
;WIDTH:0.543559
G1 F1200
G1 X-6.152 Y-38.198 E2.00355
G1 X-6.21 Y-38.183 E2.00713
G1 X-6.226 Y-38.125 E2.01073
G1 X-6.183 Y-38.082 E2.01436
G1 X-6.125 Y-38.098 E2.01796
;WIDTH:0.45
G1 X-6.215 Y-37.482 E2.0479
G1 X-5.509 Y-38.187 E2.09589
G1 X-5.331 Y-38.322 E2.10663
;WIDTH:0.404381
G1 X-5.372 Y-38.311 E2.10843
G1 X-5.391 Y-38.382 E2.11155
G1 X-5.32 Y-38.363 E2.11467
;WIDTH:0.45
G1 X-4.964 Y-38.187 E2.13377
G1 X-6.215 Y-36.937 E2.21883
G1 X-6.215 Y-36.391 E2.24509
G1 X-4.419 Y-38.187 E2.36725
G1 X-3.873 Y-38.187 E2.39351
G1 X-6.215 Y-35.846 E2.55278
G1 X-6.215 Y-35.301 E2.57899
G1 X-3.328 Y-38.187 E2.77533
G1 X-2.783 Y-38.187 E2.80154
G1 X-6.215 Y-34.755 E3.03498
G1 X-6.215 Y-34.21 E3.06119
G1 X-2.237 Y-38.187 E3.33173
G1 X-1.692 Y-38.187 E3.35794
G1 X-6.215 Y-33.665 E3.66555
G1 X-6.215 Y-33.119 E3.69181
G1 X-1.147 Y-38.187 E4.03653
G1 X-.601 Y-38.187 E4.06279
G1 X-6.215 Y-32.574 E4.44461
G1 X-6.308 Y-31.961 E4.47443
;WIDTH:0.404381
G1 X-6.349 Y-31.95 E4.47623
G1 X-6.368 Y-32.021 E4.47935
G1 X-6.297 Y-32.002 E4.48247
;WIDTH:0.45
G1 X-6.129 Y-32.114 E4.49218
G1 X-.056 Y-38.187 E4.90526
G1 X.489 Y-38.187 E4.93147
G1 X-5.584 Y-32.114 E5.34455
G1 X-5.038 Y-32.114 E5.37081
G1 X1.035 Y-38.187 E5.78389
G1 X1.58 Y-38.187 E5.8101
G1 X-4.493 Y-32.114 E6.22318
G1 X-3.947 Y-32.114 E6.24944
G1 X2.125 Y-38.187 E6.66248
G1 X2.671 Y-38.187 E6.68874
G1 X-3.402 Y-32.114 E7.10182
G1 X-2.857 Y-32.114 E7.12803
G1 X3.216 Y-38.187 E7.54111
G1 X3.761 Y-38.187 E7.56732
G1 X-2.311 Y-32.114 E7.98036
G1 X-1.766 Y-32.114 E8.00657
G1 X4.307 Y-38.187 E8.41965
G1 X4.852 Y-38.187 E8.44586
G1 X-1.221 Y-32.114 E8.85894
G1 X-.675 Y-32.114 E8.8852
G1 X5.397 Y-38.187 E9.29824
G1 X5.397 Y-38.187 F7800
G1 X6.335 Y-38.278
;WIDTH:0.404381
G1 F1200
G1 X6.264 Y-38.297 E9.30136
G1 X6.283 Y-38.226 E9.30448
G1 X6.324 Y-38.237 E9.30628
;WIDTH:0.45
G1 X5.943 Y-38.187 E9.32476
G1 X-.13 Y-32.114 E9.73784
G1 X.415 Y-32.114 E9.76405
G1 X6.215 Y-37.913 E10.15852
G1 X6.215 Y-37.368 E10.18473
G1 X.961 Y-32.114 E10.5421
G1 X1.506 Y-32.114 E10.56831
G1 X6.215 Y-36.823 E10.88861
G1 X6.215 Y-36.277 E10.91487
G1 X2.051 Y-32.114 E11.19807
G1 X2.597 Y-32.114 E11.22433
G1 X6.215 Y-35.732 E11.47042
G1 X6.215 Y-35.187 E11.49663
G1 X3.142 Y-32.114 E11.70565
G1 X3.687 Y-32.114 E11.73186
G1 X6.215 Y-34.641 E11.90378
G1 X6.215 Y-34.096 E11.92999
G1 X4.233 Y-32.114 E12.0648
G1 E10.0648 F2400
G92 E0
G1 X4.233 Y-32.114 F7800
G1 X6.078 Y-33.414
G1 E2 F2400
G1 F1200
G1 X4.778 Y-32.114 E2.08842
G1 X6.215 Y-32.114 E2.15753
G1 X6.215 Y-33.551 E2.22664
G1 X6.215 Y-33.551 F7800
G1 X5.849 Y-32.55
;WIDTH:0.520211
G1 F1200
G1 X5.809 Y-32.59 E2.22986
G1 X5.754 Y-32.575 E2.2331
G1 X5.739 Y-32.52 E2.23634
G1 X5.779 Y-32.48 E2.23956
G1 X5.834 Y-32.495 E2.2428
M106 S255
;LAYER_CHANGE
;Z:0.95
;HEIGHT:0.3
G1 Z.95 F7800
G1 X6.504 Y-31.547
;TYPE:Perimeter
;WIDTH:0.45
G1 F900
G1 X-6.504 Y-31.547 E2.86844
G1 X-6.504 Y-38.754 E3.21507
G1 X6.504 Y-38.754 E3.84071
G1 X6.504 Y-35.151 E4.014
G1 X6.504 Y-31.607 E4.18445
G1 X6.504 Y-31.607 F7800
G1 X6.889 Y-31.162
G1 F3600
G1 X-6.889 Y-31.162 E4.84712
G1 X-6.889 Y-39.14 E5.23083
G1 X6.889 Y-39.14 E5.8935
G1 X6.889 Y-35.151 E6.08536
G1 X6.889 Y-31.222 E6.27433
G1 X6.889 Y-31.222 F7800
G1 X7.275 Y-30.776
;TYPE:External perimeter
G1 F1800
G1 X-7.275 Y-30.776 E6.97413
G1 X-7.275 Y-39.525 E7.39493
G1 X7.275 Y-39.525 E8.09473
G1 X7.275 Y-35.151 E8.3051
G1 X7.275 Y-30.836 E8.51264
G1 X6.879 Y-30.777 F7800
G1 E6.51264 F2400
G92 E0
G1 X-6.183 Y-31.941 F7800
G1 E2 F2400
;TYPE:Solid infill
;WIDTH:0.543559
G1 F1200
G1 X-6.226 Y-31.899 E2.00359
G1 X-6.21 Y-31.841 E2.00719
G1 X-6.152 Y-31.825 E2.01079
G1 X-6.11 Y-31.868 E2.01438
G1 X-6.125 Y-31.926 E2.01796
;WIDTH:0.45
G1 X-6.215 Y-32.542 E2.0479
G1 X-5.372 Y-31.713 E2.10477
;WIDTH:0.404381
G1 X-5.391 Y-31.642 E2.10789
G1 X-5.32 Y-31.661 E2.11101
G1 X-5.331 Y-31.702 E2.11281
;WIDTH:0.45
G1 X-4.964 Y-31.836 E2.1316
G1 X-6.215 Y-33.087 E2.21669
G1 X-6.215 Y-33.632 E2.2429
G1 X-4.419 Y-31.836 E2.36506
G1 X-3.873 Y-31.836 E2.39132
G1 X-6.215 Y-34.178 E2.55062
G1 X-6.215 Y-34.723 E2.57683
G1 X-3.328 Y-31.836 E2.7732
G1 X-2.783 Y-31.836 E2.79941
G1 X-6.215 Y-35.268 E3.03285
G1 X-6.215 Y-35.814 E3.05911
G1 X-2.237 Y-31.836 E3.32969
G1 X-1.692 Y-31.836 E3.3559
G1 X-6.215 Y-36.359 E3.66355
G1 X-6.215 Y-36.904 E3.68976
G1 X-1.147 Y-31.836 E4.03448
G1 X-.601 Y-31.836 E4.06074
G1 X-6.215 Y-37.45 E4.4426
G1 X-6.215 Y-37.995 E4.46881
G1 X-.056 Y-31.836 E4.88774
G1 X.489 Y-31.836 E4.91395
G1 X-6.139 Y-38.465 E5.36481
G1 X-6.342 Y-38.593 E5.37635
;WIDTH:0.404381
G1 X-6.357 Y-38.414 E5.38397
;WIDTH:0.45
G1 X-5.594 Y-38.465 E5.42075
G1 X1.035 Y-31.836 E5.87165
G1 X1.58 Y-31.836 E5.89786
G1 X-5.048 Y-38.465 E6.34872
G1 X-4.503 Y-38.465 E6.37493
G1 X2.125 Y-31.836 E6.82579
G1 X2.671 Y-31.836 E6.85205
G1 X-3.958 Y-38.465 E7.30295
G1 X-3.412 Y-38.465 E7.32921
G1 X3.216 Y-31.836 E7.78007
G1 X3.761 Y-31.836 E7.80628
G1 X-2.867 Y-38.465 E8.25714
G1 X-2.322 Y-38.465 E8.28335
G1 X4.307 Y-31.836 E8.73425
G1 X4.852 Y-31.836 E8.76046
G1 X-1.776 Y-38.465 E9.21132
G1 X-1.231 Y-38.465 E9.23753
G1 X5.397 Y-31.836 E9.68839
G1 X5.397 Y-31.836 F7800
G1 X6.324 Y-31.787
;WIDTH:0.404381
G1 F1200
G1 X6.335 Y-31.746 E9.69019
G1 X6.264 Y-31.727 E9.69331
G1 X6.283 Y-31.798 E9.69643
;WIDTH:0.45
G1 X5.943 Y-31.836 E9.71288
G1 X-.686 Y-38.465 E10.16378
G1 X-.14 Y-38.465 E10.19004
G1 X6.215 Y-32.11 E10.6223
G1 X6.215 Y-32.655 E10.64851
G1 X.405 Y-38.465 E11.0437
G1 X.951 Y-38.465 E11.06996
G1 X6.215 Y-33.201 E11.42801
G1 X6.215 Y-33.746 E11.45422
G1 X1.496 Y-38.465 E11.7752
G1 X2.041 Y-38.465 E11.80141
G1 X6.215 Y-34.291 E12.08532
G1 X6.215 Y-34.837 E12.11158
G1 X2.587 Y-38.465 E12.35835
G1 X3.132 Y-38.465 E12.38456
G1 X6.215 Y-35.382 E12.59426
G1 X6.215 Y-35.927 E12.62047
G1 X3.677 Y-38.465 E12.7931
G1 X4.223 Y-38.465 E12.81936
G1 X6.215 Y-36.473 E12.95485
G1 X6.368 Y-36.366 E12.96383
;WIDTH:0.404381
G1 X6.349 Y-36.295 E12.96695
G1 X6.42 Y-36.314 E12.97007
G1 X6.409 Y-36.355 E12.97187
G1 E10.97187 F2400
G92 E0
G1 X6.409 Y-36.355 F7800
G1 X4.904 Y-38.328
G1 E2 F2400
;WIDTH:0.45
G1 F1200
G1 X6.215 Y-37.018 E2.08914
G1 X6.215 Y-38.465 E2.15874
G1 X4.768 Y-38.465 E2.22834
G1 X4.768 Y-38.465 F7800
G1 X5.776 Y-38.097
;WIDTH:0.526141
G1 F1200
G1 X5.735 Y-38.056 E2.23168
G1 X5.75 Y-38 E2.23502
G1 X5.806 Y-37.985 E2.23836
G1 X5.847 Y-38.026 E2.2417
G1 X5.832 Y-38.082 E2.24504
;LAYER_CHANGE
;Z:1.25
;HEIGHT:0.3
G1 Z1.25 F7800
G1 E.24504 F2400
G92 E0
G1 X5.832 Y-38.082 F7800
G1 X6.504 Y-31.362
G1 E2 F2400
;TYPE:Perimeter
;WIDTH:0.45
G1 F1369
G1 X-6.504 Y-31.362 E2.62564
G1 X-6.504 Y-38.94 E2.99012
G1 X6.504 Y-38.94 E3.61576
G1 X6.504 Y-35.151 E3.798
G1 X6.504 Y-31.422 E3.97735
G1 X6.504 Y-31.422 F7800
G1 X6.889 Y-30.976
G1 F1369
G1 X-6.889 Y-30.976 E4.64002
G1 X-6.889 Y-39.325 E5.04158
G1 X6.889 Y-39.325 E5.70425
G1 X6.889 Y-35.151 E5.905
G1 X6.889 Y-31.036 E6.10292
G1 X6.889 Y-31.036 F7800
G1 X7.275 Y-30.59
;TYPE:External perimeter
G1 F1369
G1 X-7.275 Y-30.59 E6.80272
G1 X-7.275 Y-39.711 E7.24141
G1 X7.275 Y-39.711 E7.94121
G1 X7.275 Y-35.151 E8.16053
G1 X7.275 Y-30.65 E8.37701
G1 X6.879 Y-30.591 F7800
G1 E6.37701 F2400
G92 E0
G1 X5.527 Y-32.195 F7800
G1 E2 F2400
;TYPE:Internal infill
;WIDTH:0.45
G1 F1369
G1 X6.215 Y-32.195 E2.03309
G1 X6.215 Y-33.822 E2.11134
G1 X.145 Y-32.195 E2.41359
G1 X-.792 Y-32.195 E2.45866
G1 X.792 Y-38.106 E2.75299
G1 X-.145 Y-38.106 E2.79806
G1 X-6.215 Y-36.48 E3.1003
G1 X-6.215 Y-38.106 E3.17851
G1 X-5.527 Y-38.106 E3.2116
G1 X-5.527 Y-38.106 F7800
G1 X-6.135 Y-38.571
;TYPE:Solid infill
;WIDTH:0.608779
G1 F1200
G1 X6.135 Y-38.571 E4.04474
G1 E2.04474 F2400
G92 E0
G1 X6.135 Y-38.571 F7800
G1 X2.911 Y-38.106
G1 E2 F2400
;TYPE:Internal infill
;WIDTH:0.45
G1 F1369
G1 X5.225 Y-38.106 E2.1113
G1 X6.215 Y-37.116 E2.17864
G1 X6.215 Y-35.995 E2.23256
G1 X5.196 Y-32.195 E2.42178
G1 X2.955 Y-32.195 E2.52956
G1 X-2.955 Y-38.106 E2.93159
G1 X-5.196 Y-38.106 E3.03937
G1 X-6.215 Y-34.306 E3.22859
G1 X-6.215 Y-33.185 E3.28251
G1 X-5.225 Y-32.195 E3.34985
G1 X-2.911 Y-32.195 E3.46115
G1 E1.46115 F2400
G92 E0
G1 X-2.911 Y-32.195 F7800
G1 X-6.135 Y-31.73
G1 E2 F2400
;TYPE:Solid infill
;WIDTH:0.608779
G1 F1200
G1 X6.135 Y-31.73 E2.83314
;LAYER_CHANGE
;Z:1.55
;HEIGHT:0.3
G1 Z1.55 F7800
G1 X6.504 Y-31.24
;TYPE:Perimeter
;WIDTH:0.45
G1 F1359
G1 X-6.504 Y-31.24 E3.45878
G1 X-6.504 Y-39.062 E3.83499
G1 X6.504 Y-39.062 E4.46063
G1 X6.504 Y-35.151 E4.64874
G1 X6.504 Y-31.3 E4.83396
G1 X6.504 Y-31.3 F7800
G1 X6.889 Y-30.854
G1 F1359
G1 X-6.889 Y-30.854 E5.49663
G1 X-6.889 Y-39.447 E5.90992
G1 X6.889 Y-39.447 E6.57259
G1 X6.889 Y-35.151 E6.77921
G1 X6.889 Y-30.914 E6.98299
G1 X6.889 Y-30.914 F7800
G1 X7.275 Y-30.468
;TYPE:External perimeter
G1 F1359
G1 X-7.275 Y-30.468 E7.68279
G1 X-7.275 Y-39.833 E8.13321
G1 X7.275 Y-39.833 E8.83301
G1 X7.275 Y-35.151 E9.0582
G1 X7.275 Y-30.528 E9.28055
G1 X6.879 Y-30.469 F7800
G1 X5.805 Y-31.917
;TYPE:Internal infill
;WIDTH:0.45
G1 F1359
G1 X6.215 Y-31.917 E9.30027
G1 X6.215 Y-33.822 E9.39189
G1 X-.892 Y-31.917 E9.74578
G1 X.892 Y-38.384 E10.06844
G1 X-6.215 Y-36.48 E10.42232
G1 X-6.215 Y-38.384 E10.5139
G1 X-5.805 Y-38.384 E10.53362
G1 X-5.805 Y-38.384 F7800
G1 X-6.213 Y-38.771
;TYPE:Solid infill
;WIDTH:0.452923
G1 F1200
G1 X6.213 Y-38.771 E11.1358
G1 E9.1358 F2400
G92 E0
G1 X6.213 Y-38.771 F7800
G1 X2.633 Y-38.384
G1 E2 F2400
;TYPE:Internal infill
;WIDTH:0.45
G1 F1359
G1 X4.947 Y-38.384 E2.1113
G1 X6.215 Y-37.116 E2.19755
G1 X6.215 Y-35.995 E2.25147
G1 X5.122 Y-31.917 E2.45453
G1 X3.233 Y-31.917 E2.54538
G1 X-3.233 Y-38.384 E2.98522
G1 X-5.122 Y-38.384 E3.07607
G1 X-6.215 Y-34.306 E3.27913
G1 X-6.215 Y-33.185 E3.33305
G1 X-4.947 Y-31.917 E3.4193
G1 X-2.633 Y-31.917 E3.5306
G1 E1.5306 F2400
G92 E0
G1 X-2.633 Y-31.917 F7800
G1 X-6.213 Y-31.53
G1 E2 F2400
;TYPE:Solid infill
;WIDTH:0.452921
G1 F1200
G1 X6.213 Y-31.53 E2.60217
;LAYER_CHANGE
;Z:1.85
;HEIGHT:0.3
G1 Z1.85 F7800
G1 X6.504 Y-31.17
;TYPE:Perimeter
;WIDTH:0.45
G1 F1240
G1 X-6.504 Y-31.17 E3.22781
G1 X-6.504 Y-39.131 E3.61071
G1 X6.504 Y-39.131 E4.23635
G1 X6.504 Y-35.151 E4.42777
G1 X6.504 Y-31.23 E4.61636
G1 X6.504 Y-31.23 F7800
G1 X6.889 Y-30.784
G1 F1240
G1 X-6.889 Y-30.784 E5.27903
G1 X-6.889 Y-39.517 E5.69906
G1 X6.889 Y-39.517 E6.36173
G1 X6.889 Y-35.151 E6.57172
G1 X6.889 Y-30.844 E6.77887
G1 X6.889 Y-30.844 F7800
G1 X7.275 Y-30.399
;TYPE:External perimeter
G1 F1240
G1 X-7.275 Y-30.399 E7.47867
G1 X-7.275 Y-39.902 E7.93573
G1 X7.275 Y-39.902 E8.63553
G1 X7.275 Y-35.151 E8.86404
G1 X7.275 Y-30.459 E9.08971
G1 X6.879 Y-30.399 F7800
G1 X6.215 Y-31.508
;TYPE:Internal infill
;WIDTH:0.45
G1 F1240
