; generated by PrusaSlicer 2.9.0 on 2025-03-12 at 17:49:00 UTC

; 

; external perimeters extrusion width = 0.45mm
; perimeters extrusion width = 0.45mm
; infill extrusion width = 0.45mm
; solid infill extrusion width = 0.45mm
; top infill extrusion width = 0.40mm
; support material extrusion width = 0.35mm
; first layer extrusion width = 0.42mm

M190 S60 ; set bed temperature and wait for it to be reached
M104 S215 ; set temperature
;TYPE:Custom
G28 ; home all axes
G1 Z5 F5000 ; lift nozzle
M109 S215 ; set temperature and wait for it to be reached
G21 ; set units to millimeters
G90 ; use absolute coordinates
M82 ; use absolute distances for extrusion
G92 E0
; Filament gcode
M107
;LAYER_CHANGE
;Z:0.35
;HEIGHT:0.35
G1 E-2 F2400
G1 Z.35 F7800
G1 X24.27 Y-13.248
G1 E.00001 F2400
;TYPE:Skirt/Brim
;WIDTH:0.42
G1 F1800
G1 X18.463 Y-23.887 E.60828
G1 X17.945 Y-25.152 E.67688
G1 X17.613 Y-26.316 E.73763
G1 X17.377 Y-28.011 E.82352
G1 X17.377 Y-29.223 E.88435
G1 X17.615 Y-30.917 E.9702
G1 X17.948 Y-32.081 E1.03096
G1 X18.64 Y-33.642 E1.11665
G1 X19.277 Y-34.668 E1.17726
G1 X20.365 Y-35.975 E1.26261
G1 X21.84 Y-37.256 E1.36065
G1 X26.573 Y-40.601 E1.65151
G1 X29.434 Y-41.684 E1.80503
G1 X31.049 Y-41.864 E1.88658
G1 X40.165 Y-41.928 E2.34409
G1 X42.372 Y-41.527 E2.45666
G1 X43.846 Y-40.968 E2.53577
G1 X46.07 Y-39.512 E2.66917
G1 X49.029 Y-36.465 E2.88233
G1 X49.776 Y-35.585 E2.94026
G1 X50.702 Y-34.119 E3.02728
G1 X51.359 Y-32.617 E3.10956
G1 X52.378 Y-29.833 E3.25834
G1 X52.706 Y-28.475 E3.32845
G1 X52.85 Y-27.322 E3.38676
G1 X52.851 Y-25.801 E3.46309
G1 X52.709 Y-24.651 E3.52124
G1 X50.139 Y-13.615 E4.08991
G1 X49.89 Y-12.811 E4.13215
G1 X49.475 Y-11.737 E4.18993
G1 X48.787 Y-10.44 E4.26361
G1 X47.995 Y-9.325 E4.33225
G1 X47.047 Y-8.302 E4.40225
G1 X46.185 Y-7.562 E4.45926
G1 X44.922 Y-6.721 E4.53541
G1 X43.905 Y-6.213 E4.59246
G1 X42.593 Y-5.733 E4.66257
G1 X41.538 Y-5.489 E4.71691
G1 X40.469 Y-5.322 E4.77121
G1 X38.141 Y-5.137 E4.88841
G1 X33.689 Y-5.121 E5.11184
G1 X31.011 Y-5.732 E5.24969
G1 X29.63 Y-6.397 E5.32661
G1 X27.483 Y-8.109 E5.46442
G1 X26.527 Y-9.308 E5.54138
G1 X25.935 Y-10.199 E5.59507
G1 X24.299 Y-13.196 E5.76643
G1 E3.76643 F2400
G92 E0
G1 X24.299 Y-13.196 F7800
G92 E0
G1 X41.657 Y-35.197
G1 E2 F2400
;TYPE:Support material
G1 F1800
G1 X42.723 Y-34 E2.08044
G1 X42.899 Y-33.287 E2.1173
G1 X43.28 Y-33.168 E2.13733
G1 X44.324 Y-32.469 E2.20038
G1 X45.072 Y-31.589 E2.25834
G1 X45.563 Y-30.496 E2.31847
G1 X45.715 Y-29.422 E2.37291
G1 X46.16 Y-28.796 E2.41146
G1 X46.581 Y-27.712 E2.46982
G1 X46.725 Y-26.559 E2.52813
G1 X46.583 Y-25.409 E2.58628
G1 X46.151 Y-24.306 E2.64573
G1 X45.488 Y-23.372 E2.70321
G1 X44.616 Y-22.627 E2.76077
G1 X44.125 Y-22.377 E2.78842
G1 X44.289 Y-21.083 E2.85388
G1 X44.15 Y-19.932 E2.91206
G1 X43.737 Y-18.856 E2.9699
G1 X43.574 Y-18.62 E2.98429
G1 X44.129 Y-17.346 E3.05403
G1 X44.274 Y-16.185 E3.11275
G1 X44.132 Y-15.034 E3.17095
G1 X43.717 Y-13.96 E3.22873
G1 X43.022 Y-12.982 E3.28894
G1 X42.161 Y-12.242 E3.34592
G1 X41.144 Y-11.733 E3.40299
G1 X39.924 Y-11.471 E3.46561
G1 X38.622 Y-11.558 E3.5311
G1 X38.105 Y-11.309 E3.5599
G1 X36.573 Y-11.309 E3.63678
G1 X35.914 Y-11.626 E3.67348
G1 X35.222 Y-11.293 E3.71202
G1 X33.689 Y-11.293 E3.78896
G1 X32.308 Y-11.958 E3.86588
G1 X31.353 Y-13.156 E3.94277
G1 X31.012 Y-14.65 E4.01968
G1 X31.124 Y-15.141 E4.04495
G1 X31.116 Y-15.821 E4.07908
G1 X31.824 Y-17.202 E4.15696
G1 X31.824 Y-16.711 E4.1816
G1 X32.079 Y-16.456 E4.1997
G1 X37.439 Y-16.456 E4.4687
G1 X37.694 Y-16.711 E4.4868
G1 X37.694 Y-23.196 E4.81226
G1 X39.939 Y-23.196 E4.92493
G1 X40.194 Y-23.451 E4.94303
G1 X40.194 Y-30.806 E5.31215
G1 X39.939 Y-31.061 E5.33025
G1 X29.579 Y-31.061 E5.85018
G1 X29.324 Y-30.806 E5.86828
G1 X29.324 Y-24.522 E6.18365
G1 X28.842 Y-24.343 E6.20945
G1 X27.656 Y-24.244 E6.26918
G1 X26.482 Y-24.469 E6.32917
G1 X25.409 Y-25.006 E6.38939
G1 X24.518 Y-25.817 E6.44986
G1 X23.881 Y-26.844 E6.51051
G1 X23.549 Y-28.009 E6.5713
G1 X23.55 Y-29.22 E6.63208
G1 X23.883 Y-30.384 E6.69284
G1 X24.52 Y-31.41 E6.75345
G1 X25.41 Y-32.221 E6.81388
G1 X26.483 Y-32.756 E6.87405
G1 X27.658 Y-32.982 E6.9341
G1 X28.051 Y-32.949 E6.95389
G1 X28.048 Y-33.18 E6.96548
G1 X28.782 Y-34.611 E7.04619
G1 X30.119 Y-35.549 E7.12815
G1 X31.734 Y-35.729 E7.2097
G1 X32.659 Y-35.379 E7.25933
G1 X32.902 Y-35.549 E7.27421
G1 X34.517 Y-35.729 E7.35576
G1 X35.442 Y-35.379 E7.40539
G1 X35.685 Y-35.549 E7.42027
G1 X37.3 Y-35.729 E7.50182
G1 X38.266 Y-35.363 E7.55366
G1 X38.569 Y-35.575 E7.57222
G1 X40.184 Y-35.755 E7.65377
G1 X41.609 Y-35.215 E7.73025
G1 X41.609 Y-35.215 F7800
G1 X46.255 Y-24.99
G1 F1800
G1 X46.255 Y-27.694 E7.86595
G1 X45.872 Y-28.665 E7.91833
G1 X45.872 Y-24.449 E8.12991
G1 X45.489 Y-23.909 E8.16313
G1 X45.489 Y-29.204 E8.42886
G1 X45.418 Y-29.303 E8.43497
G1 X45.262 Y-30.409 E8.49103
G1 X45.106 Y-30.756 E8.51012
G1 X45.106 Y-23.453 E8.87663
G1 X44.722 Y-23.126 E8.90194
G1 X44.722 Y-31.52 E9.3232
G1 X44.339 Y-31.972 E9.35293
G1 X44.339 Y-22.66 E9.82026
G1 E7.82026 F2400
G92 E0
G1 X44.339 Y-22.66 F7800
G1 X43.956 Y-15.01
G1 E2 F2400
G1 F1800
G1 X43.956 Y-16.226 E2.06103
G1 X43.826 Y-17.269 E2.11378
G1 X43.573 Y-17.924 E2.14902
G1 X43.573 Y-14.448 E2.32347
G1 X43.19 Y-13.745 E2.36365
G1 X43.19 Y-32.857 E3.3228
G1 X42.806 Y-32.991 E3.34321
G1 X42.806 Y-13.213 E4.33579
G1 X42.423 Y-12.877 E4.36136
G1 X42.423 Y-33.87 E5.41491
G1 X42.04 Y-34.3 E5.44381
G1 X42.04 Y-12.547 E6.5355
G1 X41.657 Y-12.336 E6.55745
G1 X41.657 Y-34.73 E7.68131
G1 X41.476 Y-34.933 E7.69496
G1 X41.274 Y-35.01 E7.70581
G1 X41.274 Y-12.145 E8.85331
G1 X40.89 Y-11.991 E8.87407
G1 X40.89 Y-35.155 E10.03658
G1 X40.507 Y-35.301 E10.05715
G1 X40.507 Y-11.898 E11.23165
G1 X40.124 Y-11.822 E11.25125
G1 X40.124 Y-22.942 E11.80932
G1 X39.741 Y-22.885 E11.82875
G1 X39.741 Y-11.787 E12.38571
G1 X39.357 Y-11.798 E12.40499
G1 X39.357 Y-22.885 E12.9614
G1 X38.974 Y-22.885 E12.98062
G1 X38.974 Y-11.81 E13.53643
G1 X38.591 Y-11.888 E13.55605
G1 X38.591 Y-22.885 E14.10794
G1 X38.208 Y-22.885 E14.12716
G1 X38.208 Y-11.703 E14.68834
G1 X37.825 Y-11.62 E14.70801
G1 X37.825 Y-16.403 E14.94805
G1 X37.568 Y-16.146 E14.96629
G1 X37.441 Y-16.146 E14.97266
G1 X37.441 Y-11.62 E15.1998
G1 X37.058 Y-11.62 E15.21902
G1 X37.058 Y-16.146 E15.44616
G1 X36.675 Y-16.146 E15.46538
G1 X36.675 Y-11.62 E15.69252
G1 X36.292 Y-11.789 E15.71353
G1 X36.292 Y-16.146 E15.93219
G1 X35.909 Y-16.146 E15.95141
G1 X35.909 Y-11.968 E16.16109
G1 X35.525 Y-11.784 E16.18246
G1 X35.525 Y-16.146 E16.40137
G1 X35.142 Y-16.146 E16.42059
G1 X35.142 Y-11.603 E16.64858
G1 X34.759 Y-11.603 E16.6678
G1 X34.759 Y-16.146 E16.89579
G1 X34.376 Y-16.146 E16.91501
G1 X34.376 Y-11.603 E17.143
G1 X33.993 Y-11.603 E17.16222
G1 X33.993 Y-16.146 E17.39021
G1 X33.609 Y-16.146 E17.40948
G1 X33.609 Y-11.676 E17.63381
G1 X33.226 Y-11.861 E17.65516
G1 X33.226 Y-16.146 E17.87021
G1 X32.843 Y-16.146 E17.88943
G1 X32.843 Y-12.045 E18.09524
G1 X32.46 Y-12.266 E18.11743
G1 X32.46 Y-16.146 E18.31215
G1 X32.077 Y-16.146 E18.33137
G1 X32.077 Y-12.747 E18.50195
G1 X31.693 Y-13.227 E18.5328
G1 X31.693 Y-16.607 E18.70243
G1 E16.70243 F2400
G92 E0
G1 X31.693 Y-16.607 F7800
G1 X43.956 Y-19.86
G1 E2 F2400
G1 F1800
G1 X43.956 Y-32.349 E2.62677
G1 X43.573 Y-32.611 E2.65006
G1 X43.573 Y-18.892 E3.33856
G1 X43.573 Y-18.892 F7800
G1 X40.124 Y-31.095
G1 F1800
G1 X40.124 Y-35.436 E3.55642
G1 X39.741 Y-35.394 E3.57576
G1 X39.741 Y-31.371 E3.77766
G1 X39.357 Y-31.371 E3.79693
G1 X39.357 Y-35.351 E3.99667
G1 X38.974 Y-35.308 E4.01601
G1 X38.974 Y-31.371 E4.21359
G1 X38.591 Y-31.371 E4.23281
G1 X38.591 Y-35.212 E4.42557
G1 X38.31 Y-35.015 E4.44279
G1 X38.208 Y-35.053 E4.44825
G1 X38.208 Y-31.371 E4.63303
G1 X37.825 Y-31.371 E4.65225
G1 X37.825 Y-35.199 E4.84436
G1 X37.441 Y-35.344 E4.86496
G1 X37.441 Y-31.371 E5.06435
G1 X37.058 Y-31.371 E5.08357
G1 X37.058 Y-35.39 E5.28527
G1 X36.675 Y-35.347 E5.30461
G1 X36.675 Y-31.371 E5.50415
G1 X36.292 Y-31.371 E5.52337
G1 X36.292 Y-35.305 E5.7208
G1 X35.909 Y-35.262 E5.74014
G1 X35.909 Y-31.371 E5.93541
G1 X35.525 Y-31.371 E5.95468
G1 X35.525 Y-35.058 E6.13972
G1 X35.142 Y-35.16 E6.15961
G1 X35.142 Y-31.371 E6.34976
G1 X34.759 Y-31.371 E6.36898
G1 X34.759 Y-35.306 E6.56646
G1 X34.477 Y-35.413 E6.5816
G1 X34.376 Y-35.401 E6.5867
G1 X34.376 Y-31.371 E6.78895
G1 X33.993 Y-31.371 E6.80817
G1 X33.993 Y-35.359 E7.00831
G1 X33.609 Y-35.316 E7.0277
G1 X33.609 Y-31.371 E7.22568
G1 X33.226 Y-31.371 E7.2449
G1 X33.226 Y-35.273 E7.44073
G1 X33.015 Y-35.25 E7.45138
G1 X32.843 Y-35.129 E7.46193
G1 X32.843 Y-31.371 E7.65053
G1 X32.46 Y-31.371 E7.66975
G1 X32.46 Y-35.122 E7.858
G1 X32.077 Y-35.267 E7.87855
G1 X32.077 Y-31.371 E8.07407
G1 X31.693 Y-31.371 E8.09334
G1 X31.693 Y-35.413 E8.29619
G1 X31.31 Y-35.37 E8.31553
G1 X31.31 Y-31.371 E8.51622
G1 X30.927 Y-31.371 E8.53544
G1 X30.927 Y-35.327 E8.73398
G1 X30.544 Y-35.284 E8.75332
G1 X30.544 Y-31.371 E8.9497
G1 X30.16 Y-31.371 E8.96897
G1 X30.16 Y-35.199 E9.16108
G1 X29.777 Y-34.93 E9.18457
G1 X29.777 Y-31.371 E9.36318
G1 X29.394 Y-31.315 E9.38261
G1 X29.394 Y-34.661 E9.55053
G1 X29.011 Y-34.377 E9.57446
G1 X29.011 Y-24.737 E10.05825
G1 X28.628 Y-24.637 E10.07812
G1 X28.628 Y-33.629 E10.52939
G1 X28.36 Y-33.106 E10.55888
G1 X28.365 Y-32.611 E10.58372
G1 X28.244 Y-32.621 E10.58981
G1 X28.244 Y-24.605 E10.9921
G1 X27.861 Y-24.573 E11.01139
G1 X27.861 Y-32.653 E11.41689
G1 X27.478 Y-32.631 E11.43614
G1 X27.478 Y-24.594 E11.83948
G1 X27.095 Y-24.668 E11.85906
G1 X27.095 Y-32.558 E12.25503
G1 X26.712 Y-32.484 E12.27461
G1 X26.712 Y-24.741 E12.6632
G1 X26.328 Y-24.893 E12.68393
G1 X26.328 Y-32.332 E13.05726
G1 X25.945 Y-32.141 E13.07874
G1 X25.945 Y-25.085 E13.43285
G1 X25.562 Y-25.286 E13.45456
G1 X25.562 Y-31.939 E13.78845
G1 X25.179 Y-31.59 E13.81445
G1 X25.179 Y-25.635 E14.11331
G1 X24.796 Y-25.985 E14.13935
G1 X24.796 Y-31.241 E14.40313
G1 X24.412 Y-30.649 E14.43854
G1 X24.412 Y-26.577 E14.6429
G1 X24.168 Y-26.971 E14.66616
G1 X24.029 Y-27.458 E14.69158
G1 X24.029 Y-30.326 E14.83551
G1 E12.83551 F2400
G92 E0
G1 X36.617 Y-24.276 F7800
G1 E2 F2400
;TYPE:Perimeter
;WIDTH:0.42
G1 F1800
G1 X36.587 Y-24.252 E2.00193
G1 X36.397 Y-23.921 E2.02108
G1 X36.359 Y-23.668 E2.03392
G1 X36.359 Y-17.791 E2.32886
G1 X33.159 Y-17.791 E2.48945
G1 X33.159 Y-23.668 E2.78439
G1 X33.121 Y-23.921 E2.79723
G1 X33.031 Y-24.119 E2.80815
G1 X32.841 Y-24.337 E2.82266
G1 X32.549 Y-24.493 E2.83927
G1 X32.297 Y-24.531 E2.85206
G1 X30.659 Y-24.531 E2.93426
G1 X30.659 Y-29.726 E3.19498
G1 X38.859 Y-29.726 E3.6065
G1 X38.859 Y-27.05 E3.7408
G1 X38.859 Y-24.531 E3.86722
G1 X37.221 Y-24.531 E3.94942
G1 X36.968 Y-24.493 E3.96226
G1 X36.812 Y-24.427 E3.97076
G1 X36.665 Y-24.313 E3.9801
G1 X36.665 Y-24.313 F7800
G1 X36.868 Y-24.022
G1 F1800
G1 X36.78 Y-23.939 E3.98617
G1 X36.704 Y-23.668 E4.0003
G1 X36.704 Y-17.446 E4.31256
G1 X32.814 Y-17.446 E4.50778
G1 X32.814 Y-23.668 E4.82004
G1 X32.737 Y-23.939 E4.83418
G1 X32.542 Y-24.123 E4.84764
G1 X32.297 Y-24.186 E4.86034
G1 X30.314 Y-24.186 E4.95986
G1 X30.314 Y-30.071 E5.2552
G1 X39.204 Y-30.071 E5.70135
G1 X39.204 Y-27.05 E5.85296
G1 X39.204 Y-24.186 E5.99669
G1 X37.221 Y-24.186 E6.09621
G1 X36.975 Y-24.123 E6.10895
G1 X36.912 Y-24.063 E6.11332
G1 X36.912 Y-24.063 F7800
G1 X37.103 Y-23.781
;TYPE:External perimeter
G1 F1800
G1 X37.049 Y-23.668 E6.11961
G1 X37.049 Y-17.101 E6.44918
G1 X32.469 Y-17.101 E6.67903
G1 X32.469 Y-23.668 E7.0086
G1 X32.423 Y-23.785 E7.01491
G1 X32.297 Y-23.841 E7.02183
G1 X29.969 Y-23.841 E7.13866
G1 X29.969 Y-30.416 E7.46863
G1 X39.549 Y-30.416 E7.94941
G1 X39.549 Y-27.05 E8.11834
G1 X39.549 Y-23.841 E8.27939
G1 X37.221 Y-23.841 E8.39622
G1 X37.148 Y-23.814 E8.40013
G1 X37.056 Y-23.425 F7800
G1 E6.40013 F2400
G92 E0
G1 X38.049 Y-29.623 F7800
G1 E2 F2400
;TYPE:Solid infill
;WIDTH:0.424433
G1 F1800
G1 X38.601 Y-29.071 E2.03968
G1 X38.601 Y-28.577 E2.06479
G1 X37.71 Y-29.467 E2.1288
G1 X37.216 Y-29.467 E2.15391
G1 X38.601 Y-28.083 E2.25344
G1 X38.601 Y-27.589 E2.27855
G1 X36.722 Y-29.467 E2.41359
G1 X36.228 Y-29.467 E2.4387
G1 X38.601 Y-27.095 E2.60925
G1 X38.601 Y-26.601 E2.63436
G1 X35.734 Y-29.467 E2.84042
G1 X35.24 Y-29.467 E2.86553
G1 X38.601 Y-26.107 E3.1071
G1 X38.601 Y-25.613 E3.13221
G1 X34.746 Y-29.467 E3.40929
G1 X34.252 Y-29.467 E3.4344
G1 X38.601 Y-25.119 E3.747
G1 X38.601 Y-24.789 E3.76377
G1 X38.436 Y-24.789 E3.77216
G1 X33.758 Y-29.467 E4.10844
G1 X33.264 Y-29.467 E4.13355
G1 X37.942 Y-24.789 E4.46983
G1 X37.448 Y-24.789 E4.49494
G1 X32.77 Y-29.467 E4.83122
G1 X32.276 Y-29.467 E4.85633
G1 X36.988 Y-24.755 E5.19506
G1 X36.895 Y-24.741 E5.19984
G1 X36.632 Y-24.617 E5.21462
G1 X31.782 Y-29.467 E5.56327
G1 X31.288 Y-29.467 E5.58838
G1 X36.367 Y-24.389 E5.95345
G1 X36.265 Y-24.254 E5.96205
G1 X36.185 Y-24.076 E5.97197
G1 X30.917 Y-29.344 E6.35066
G1 X30.917 Y-28.85 E6.37577
G1 X36.101 Y-23.667 E6.74839
G1 X36.101 Y-23.173 E6.7735
G1 X30.917 Y-28.356 E7.14612
G1 X30.917 Y-27.862 E7.17123
G1 X36.101 Y-22.679 E7.54385
G1 X36.101 Y-22.185 E7.56896
G1 X30.917 Y-27.368 E7.94158
G1 X30.917 Y-26.874 E7.96669
G1 X36.101 Y-21.691 E8.33931
G1 X36.101 Y-21.197 E8.36442
G1 X33.381 Y-23.916 E8.55991
G1 X33.369 Y-23.996 E8.56402
G1 X33.253 Y-24.254 E8.5784
G1 X33.122 Y-24.427 E8.58943
G1 X33.004 Y-24.538 E8.59766
G1 X32.829 Y-24.655 E8.60836
G1 X32.623 Y-24.741 E8.61971
G1 X32.544 Y-24.753 E8.62377
G1 X30.917 Y-26.38 E8.74073
G1 X30.917 Y-25.886 E8.76584
G1 X32.014 Y-24.789 E8.8447
G1 X31.52 Y-24.789 E8.86981
G1 X30.917 Y-25.392 E8.91316
G1 X30.917 Y-24.898 E8.93827
G1 X31.181 Y-24.634 E8.95725
G1 E6.95725 F2400
G92 E0
G1 X31.181 Y-24.634 F7800
G1 X33.262 Y-23.541
G1 E2 F2400
G1 F1800
G1 X36.101 Y-20.703 E2.20405
G1 X36.101 Y-20.209 E2.22916
G1 X33.417 Y-22.892 E2.42207
G1 X33.417 Y-22.398 E2.44718
G1 X36.101 Y-19.715 E2.64009
G1 X36.101 Y-19.221 E2.6652
G1 X33.417 Y-21.904 E2.85811
G1 X33.417 Y-21.41 E2.88322
G1 X36.101 Y-18.727 E3.07613
G1 X36.101 Y-18.233 E3.10124
G1 X33.417 Y-20.916 E3.29415
G1 X33.417 Y-20.422 E3.31926
G1 X35.79 Y-18.05 E3.48981
G1 X35.296 Y-18.05 E3.51492
G1 X33.417 Y-19.928 E3.64996
G1 X33.417 Y-19.434 E3.67507
G1 X34.802 Y-18.05 E3.7746
G1 X34.308 Y-18.05 E3.79971
G1 X33.417 Y-18.94 E3.86372
G1 X33.417 Y-18.446 E3.88883
G1 X33.969 Y-17.894 E3.92851
M106 S127.5
;LAYER_CHANGE
;Z:0.65
;HEIGHT:0.3
G1 Z.65 F7800
M104 S210 ; set temperature
G1 E1.92851 F2400
G92 E0
G1 X33.969 Y-17.894 F7800
G1 X34.455 Y-14.653
G1 E2 F2400
;TYPE:Support material
;WIDTH:0.35
G1 F3600
G1 X34.478 Y-15.273 E2.0221
G1 X34.816 Y-14.65 E2.04735
G1 X34.68 Y-14.369 E2.05847
G1 X34.536 Y-14.299 E2.06417
G1 X34.231 Y-14.369 E2.07532
G1 X34.095 Y-14.65 E2.08644
G1 X34.169 Y-15.184 E2.10565
G1 X34.437 Y-15.284 E2.11584
G1 E.11584 F2400
G92 E0
G1 X34.437 Y-15.284 F7800
G1 X37.338 Y-14.669
G1 E2 F2400
G1 F3600
G1 X37.364 Y-15.273 E2.02154
G1 X37.699 Y-14.667 E2.04621
G1 X37.563 Y-14.385 E2.05736
G1 X37.419 Y-14.316 E2.06305
G1 X37.114 Y-14.385 E2.07419
G1 X36.979 Y-14.667 E2.08533
G1 X37.052 Y-15.184 E2.10393
G1 X37.322 Y-15.284 E2.11419
G1 X37.322 Y-15.284 F7800
G1 X38.581 Y-16.442
G1 F3600
G1 X38.714 Y-16.748 E2.12608
G1 X38.904 Y-16.954 E2.13606
G1 X39.347 Y-17.16 E2.15346
G1 X39.602 Y-17.175 E2.16256
G1 X39.664 Y-17.52 E2.17505
G1 X40.253 Y-17.319 E2.19722
G1 X40.708 Y-16.832 E2.22096
G1 X40.862 Y-16.277 E2.24148
G1 X40.831 Y-15.854 E2.25659
G1 X40.513 Y-15.271 E2.28025
G1 X39.939 Y-14.905 E2.3045
G1 X39.288 Y-14.865 E2.32773
G1 X38.678 Y-15.146 E2.35166
G1 X38.274 Y-15.711 E2.3764
G1 X38.198 Y-16.362 E2.39975
G1 X38.428 Y-16.953 E2.42234
G1 X38.961 Y-17.404 E2.44721
G1 X39.622 Y-17.528 E2.47117
G1 X39.622 Y-17.528 F7800
G1 X39.97 Y-17.821
G1 F3600
G1 X40.443 Y-17.616 E2.48953
G1 X40.769 Y-17.345 E2.50463
G1 X41.017 Y-17.001 E2.51974
G1 X41.209 Y-16.321 E2.54491
G1 X41.173 Y-15.767 E2.56469
G1 X40.944 Y-15.267 E2.58428
G1 X40.444 Y-14.757 E2.60972
G1 X39.965 Y-14.551 E2.6283
G1 X39.219 Y-14.519 E2.6549
G1 X38.754 Y-14.68 E2.67243
G1 X38.161 Y-15.185 E2.70018
G1 X37.945 Y-15.584 E2.71634
G1 X37.845 Y-15.988 E2.73117
G1 X37.848 Y-16.408 E2.74613
G1 X38.141 Y-17.159 E2.77485
G1 X38.452 Y-17.496 E2.79119
