; generated by PrusaSlicer 2.9.0 on 2025-03-13 at 15:19:15 UTC

; 

; external perimeters extrusion width = 0.45mm
; perimeters extrusion width = 0.45mm
; infill extrusion width = 0.45mm
; solid infill extrusion width = 0.45mm
; top infill extrusion width = 0.40mm
; support material extrusion width = 0.35mm
; first layer extrusion width = 0.42mm

M190 S60 ; set bed temperature and wait for it to be reached
M104 S215 ; set temperature
;TYPE:Custom
G28 ; home all axes
G1 Z5 F5000 ; lift nozzle
M109 S215 ; set temperature and wait for it to be reached
G21 ; set units to millimeters
G90 ; use absolute coordinates
M82 ; use absolute distances for extrusion
G92 E0
; Filament gcode
M107
;LAYER_CHANGE
;Z:0.35
;HEIGHT:0.35
G1 E-2 F2400
G1 Z.35 F7800
G1 X-4.842 Y23.033
G1 E.00001 F2400
;TYPE:Skirt/Brim
;WIDTH:0.42
G1 F1800
G1 X-3.769 Y23.36 E.05629
G1 X-2.707 Y23.794 E.11387
G1 X-1.711 Y24.31 E.17016
G1 X-.744 Y24.929 E.22778
G1 X.142 Y25.618 E.28411
G1 X.98 Y26.401 E.34167
G1 X1.727 Y27.239 E.39801
G1 X2.41 Y28.161 E.45559
G1 X7.471 Y35.878 E.91873
G1 X8.253 Y37.248 E.9979
G1 X8.749 Y38.399 E1.0608
G1 X9.229 Y39.998 E1.14458
G1 X10.497 Y45.677 E1.4366
G1 X10.724 Y47.604 E1.53398
G1 X10.723 Y48.726 E1.59029
G1 X10.619 Y49.865 E1.64769
G1 X10.422 Y50.947 E1.70288
G1 X10.095 Y52.113 E1.76365
G1 X9.702 Y53.135 E1.8186
G1 X9.2 Y54.16 E1.87588
G1 X8.616 Y55.12 E1.93227
G1 X7.932 Y56.042 E1.98988
G1 X7.184 Y56.88 E2.04625
G1 X6.358 Y57.651 E2.10296
G1 X1.214 Y61.925 E2.4386
G1 X.061 Y62.662 E2.50728
G1 X-1.902 Y63.555 E2.61551
G1 X-2.975 Y63.882 E2.6718
G1 X-4.099 Y64.115 E2.72941
G1 X-5.214 Y64.243 E2.78573
G1 X-6.706 Y64.267 E2.86062
G1 X-13.477 Y64.042 E3.20062
G1 X-15.382 Y63.787 E3.29708
G1 X-16.47 Y63.509 E3.35344
G1 X-17.551 Y63.125 E3.41101
G1 X-18.571 Y62.655 E3.46737
G1 X-19.526 Y62.105 E3.52268
G1 X-20.785 Y61.189 E3.60082
G1 X-21.544 Y60.516 E3.65173
G1 X-22.866 Y59 E3.75268
G1 X-29.298 Y49.697 E4.32028
G1 X-30.191 Y48.113 E4.41154
G1 X-30.657 Y46.993 E4.47242
G1 X-30.989 Y45.903 E4.5296
G1 X-31.227 Y44.712 E4.59055
G1 X-31.34 Y43.579 E4.64769
G1 X-31.34 Y42.365 E4.70862
G1 X-31.228 Y41.231 E4.76581
G1 X-30.991 Y40.04 E4.82675
G1 X-30.429 Y38.319 E4.91761
G1 X-26.859 Y29.972 E5.37322
G1 X-26.072 Y28.476 E5.45805
G1 X-25.446 Y27.545 E5.51435
G1 X-24.721 Y26.655 E5.57196
G1 X-23.937 Y25.853 E5.62825
G1 X-23.063 Y25.11 E5.68582
G1 X-22.146 Y24.463 E5.74214
G1 X-21.152 Y23.889 E5.79974
G1 X-20.133 Y23.419 E5.85606
G1 X-19.052 Y23.035 E5.91363
G1 X-17.965 Y22.757 E5.96994
G1 X-16.864 Y22.581 E6.0259
G1 X-15.287 Y22.503 E6.10514
G1 X-7.531 Y22.654 E6.49446
G1 X-5.936 Y22.805 E6.57486
G1 X-4.901 Y23.02 E6.62791
G1 E4.62791 F2400
G92 E0
G1 X-4.901 Y23.02 F7800
G92 E0
G1 X-15.287 Y28.675
G1 E2 F2400
;TYPE:Support material
G1 F1800
G1 X-14.676 Y28.703 E2.0307
G1 X-13.583 Y28.93 E2.08672
G1 X-12.52 Y29.363 E2.14432
G1 X-11.591 Y29.958 E2.19969
G1 X-10.585 Y29.379 E2.25794
G1 X-9.504 Y28.996 E2.3155
G1 X-8.403 Y28.819 E2.37146
G1 X-7.195 Y28.847 E2.4321
G1 X-6.101 Y29.075 E2.48818
G1 X-5.039 Y29.509 E2.54576
G1 X-4.073 Y30.127 E2.60331
G1 X-3.234 Y30.911 E2.66094
G1 X-2.551 Y31.833 E2.71852
G1 X-2.047 Y32.864 E2.77611
G1 X-1.738 Y33.969 E2.83369
G1 X-1.633 Y35.112 E2.89129
G1 X-1.738 Y36.255 E2.94889
G1 X-1.918 Y36.9 E2.9825
G1 X-1.472 Y36.92 E3.00491
G1 X-.367 Y37.202 E3.06214
G1 X.658 Y37.7 E3.11933
G1 X1.561 Y38.394 E3.17649
G1 X2.306 Y39.258 E3.23374
G1 X2.862 Y40.254 E3.29099
G1 X3.205 Y41.343 E3.34829
G1 X3.321 Y42.478 E3.40555
G1 X3.205 Y43.614 E3.46286
G1 X3.06 Y44.077 E3.48721
G1 X3.651 Y44.875 E3.53705
G1 X4.165 Y45.924 E3.59568
G1 X4.472 Y47.021 E3.65285
G1 X4.577 Y48.164 E3.71045
G1 X4.473 Y49.303 E3.76785
G1 X4.159 Y50.419 E3.82603
G1 X3.657 Y51.445 E3.88335
G1 X2.973 Y52.368 E3.941
G1 X2.147 Y53.138 E3.99767
G1 X1.143 Y53.779 E4.05745
G1 X.099 Y54.203 E4.114
G1 X-.287 Y54.283 E4.13378
G1 X-.678 Y55.081 E4.17838
G1 X-1.361 Y56.004 E4.236
G1 X-2.186 Y56.773 E4.2926
G1 X-3.187 Y57.413 E4.35223
G1 X-4.23 Y57.838 E4.40875
G1 X-5.354 Y58.072 E4.46637
G1 X-6.502 Y58.098 E4.524
G1 X-7.635 Y57.916 E4.58159
G1 X-8.716 Y57.531 E4.63918
G1 X-9.648 Y56.993 E4.69319
G1 X-10.977 Y57.603 E4.76658
G1 X-12.154 Y57.847 E4.8269
G1 X-13.273 Y57.873 E4.88307
G1 X-14.406 Y57.692 E4.94065
G1 X-15.487 Y57.308 E4.99822
G1 X-16.443 Y56.757 E5.0536
G1 X-17.386 Y55.954 E5.11576
G1 X-18.08 Y55.102 E5.17091
G1 X-18.605 Y54.144 E5.22573
G1 X-18.984 Y53.004 E5.28602
G1 X-19.14 Y51.869 E5.34352
G1 X-19.088 Y50.724 E5.40104
G1 X-18.83 Y49.608 E5.45852
G1 X-18.413 Y48.657 E5.51063
G1 X-19.386 Y48.757 E5.55972
G1 X-20.516 Y48.65 E5.61668
G1 X-21.604 Y48.325 E5.67367
G1 X-22.609 Y47.792 E5.73076
G1 X-23.49 Y47.074 E5.7878
G1 X-24.214 Y46.196 E5.84491
G1 X-24.753 Y45.193 E5.90205
G1 X-25.085 Y44.103 E5.95923
G1 X-25.197 Y42.97 E6.01637
G1 X-25.086 Y41.836 E6.07355
G1 X-24.754 Y40.747 E6.13069
G1 X-24.216 Y39.743 E6.18785
G1 X-23.492 Y38.865 E6.24496
G1 X-22.61 Y38.145 E6.3021
G1 X-21.605 Y37.612 E6.35919
G1 X-21.201 Y37.491 E6.38035
G1 X-21.563 Y36.395 E6.43828
G1 X-21.719 Y35.26 E6.49578
G1 X-21.719 Y34.674 E6.52519
G1 X-21.563 Y33.539 E6.58269
G1 X-21.409 Y32.999 E6.61087
G1 X-21.184 Y32.399 E6.64303
G1 X-20.659 Y31.442 E6.69781
G1 X-19.935 Y30.553 E6.75535
G1 X-19.062 Y29.809 E6.81291
G1 X-18.068 Y29.236 E6.87049
G1 X-16.987 Y28.852 E6.92806
G1 X-15.885 Y28.675 E6.98407
G1 X-15.339 Y28.675 E7.01147
G1 X-15.339 Y28.675 F7800
G1 X-15.993 Y40.773
G1 F1800
G1 X-5.633 Y40.773 E7.5314
G1 X-5.378 Y41.028 E7.5495
G1 X-5.378 Y45.719 E7.78492
G1 X-5.633 Y45.974 E7.80302
G1 X-15.993 Y45.974 E8.32295
G1 X-16.248 Y45.719 E8.34105
G1 X-16.248 Y41.028 E8.57647
G1 X-16.03 Y40.81 E8.59194
G1 E6.59194 F2400
G92 E0
G1 X-16.03 Y40.81 F7800
G1 X4.132 Y49.948
G1 E2 F2400
G1 F1800
G1 X4.132 Y46.958 E2.15006
G1 X3.749 Y45.776 E2.21242
G1 X3.749 Y50.551 E2.45206
G1 X3.366 Y51.316 E2.495
G1 X3.366 Y45.011 E2.81142
G1 X2.983 Y44.494 E2.84371
G1 X2.983 Y51.833 E3.21202
G1 X2.599 Y52.292 E3.24205
G1 X2.599 Y40.453 E3.8362
G1 X2.216 Y39.733 E3.87713
G1 X2.216 Y52.649 E4.52533
G1 X1.833 Y52.973 E4.55051
G1 X1.833 Y39.184 E5.24252
G1 X1.45 Y38.74 E5.27195
G1 X1.45 Y53.225 E5.99889
G1 X1.067 Y53.461 E6.02147
G1 X1.067 Y38.405 E6.77707
G1 X.683 Y38.111 E6.80134
G1 X.683 Y53.631 E7.58023
G1 X.3 Y53.786 E7.60097
G1 X.3 Y37.871 E8.39968
G1 X-.083 Y37.685 E8.42105
G1 X-.083 Y53.924 E9.23602
G1 X-.466 Y54.003 E9.25565
G1 X-.466 Y37.499 E10.08392
G1 X-.85 Y37.399 E10.10383
G1 X-.85 Y54.725 E10.97335
G1 X-1.233 Y55.308 E11.00836
G1 X-1.233 Y37.302 E11.91201
G1 X-1.616 Y37.225 E11.93162
G1 X-1.616 Y55.816 E12.86463
G1 X-1.999 Y56.174 E12.89094
G1 X-1.999 Y37.207 E13.84282
G1 X-2.323 Y37.193 E13.8591
G1 X-2.044 Y36.199 E13.91091
G1 X-1.999 Y34.519 E13.99525
G1 X-2.044 Y34.026 E14.02009
G1 X-2.382 Y32.885 E14.07981
G1 X-2.382 Y56.531 E15.26651
G1 X-2.766 Y56.784 E15.28959
G1 X-2.766 Y32.102 E16.52828
G1 X-3.149 Y31.548 E16.56208
G1 X-3.149 Y57.025 E17.84067
G1 X-3.532 Y57.219 E17.86222
G1 X-3.532 Y31.058 E19.17513
G1 X-3.915 Y30.699 E19.20147
G1 X-3.915 Y57.375 E20.54023
G1 X-4.298 Y57.531 E20.56098
G1 X-4.298 Y30.351 E21.92503
G1 X-4.682 Y30.106 E21.94789
G1 X-4.682 Y57.615 E23.32845
G1 X-5.065 Y57.695 E23.34809
G1 X-5.065 Y29.861 E24.74496
G1 X-5.448 Y29.677 E24.76628
G1 X-5.448 Y40.519 E25.3104
G1 X-5.831 Y40.463 E25.32983
G1 X-5.831 Y29.521 E25.87896
G1 X-6.214 Y29.369 E25.89964
G1 X-6.214 Y40.463 E26.4564
G1 X-6.598 Y40.463 E26.47567
G1 X-6.598 Y29.289 E27.03645
G1 X-6.981 Y29.209 E27.05609
G1 X-6.981 Y40.463 E27.62088
G1 X-7.364 Y40.463 E27.6401
G1 X-7.364 Y29.15 E28.20785
G1 X-7.747 Y29.133 E28.22709
G1 X-7.747 Y40.463 E28.7957
G1 X-8.13 Y40.463 E28.81492
G1 X-8.13 Y29.13 E29.38368
G1 X-8.514 Y29.151 E29.40298
G1 X-8.514 Y40.463 E29.97068
G1 X-8.897 Y40.463 E29.9899
G1 X-8.897 Y29.213 E30.55449
G1 X-9.28 Y29.274 E30.57395
G1 X-9.28 Y40.463 E31.13548
G1 X-9.663 Y40.463 E31.1547
G1 X-9.663 Y29.381 E31.71086
G1 X-10.047 Y29.517 E31.7313
G1 X-10.047 Y40.463 E32.28064
G1 X-10.43 Y40.463 E32.29986
G1 X-10.43 Y29.653 E32.84237
G1 X-10.813 Y29.868 E32.86441
G1 X-10.813 Y40.463 E33.39613
G1 X-11.196 Y40.463 E33.41535
G1 X-11.196 Y30.089 E33.93598
G1 X-11.579 Y30.31 E33.95817
G1 X-11.579 Y40.463 E34.46771
G1 X-11.963 Y40.463 E34.48698
G1 X-11.963 Y30.088 E35.00766
G1 X-12.346 Y29.843 E35.03048
G1 X-12.346 Y40.463 E35.56345
G1 X-12.729 Y40.463 E35.58267
G1 X-12.729 Y29.613 E36.12719
G1 X-13.112 Y29.457 E36.14794
G1 X-13.112 Y40.463 E36.70029
G1 X-13.495 Y40.463 E36.71951
G1 X-13.495 Y29.301 E37.27969
G1 X-13.879 Y29.186 E37.29981
G1 X-13.879 Y40.463 E37.86576
G1 X-14.262 Y40.463 E37.88498
G1 X-14.262 Y29.106 E38.45494
G1 X-14.645 Y29.026 E38.47458
G1 X-14.645 Y40.463 E39.04856
G1 X-15.028 Y40.463 E39.06778
G1 X-15.028 Y28.998 E39.64316
G1 X-15.411 Y28.986 E39.66239
G1 X-15.411 Y40.463 E40.23837
G1 X-15.795 Y40.463 E40.25764
G1 X-15.795 Y28.986 E40.83362
G1 X-16.178 Y29.037 E40.85301
G1 X-16.178 Y40.519 E41.42924
G1 X-16.558 Y40.899 E41.45621
G1 X-16.558 Y45.847 E41.70453
G1 X-16.178 Y46.228 E41.73154
G1 X-16.178 Y56.552 E42.24966
G1 X-15.795 Y56.773 E42.27185
G1 X-15.795 Y46.284 E42.79825
G1 X-15.411 Y46.284 E42.81752
G1 X-15.411 Y56.994 E43.35501
G1 X-15.028 Y57.142 E43.37562
G1 X-15.028 Y46.284 E43.92054
G1 X-14.645 Y46.284 E43.93976
G1 X-14.645 Y57.278 E44.4915
G1 X-14.262 Y57.401 E44.51169
G1 X-14.262 Y46.284 E45.06961
G1 X-13.879 Y46.284 E45.08883
G1 X-13.879 Y57.462 E45.64981
G1 X-13.495 Y57.523 E45.66932
G1 X-13.495 Y46.284 E46.23336
G1 X-13.112 Y46.284 E46.25258
G1 X-13.112 Y57.559 E46.81843
G1 X-12.729 Y57.55 E46.83766
G1 X-12.729 Y46.284 E47.40305
G1 X-12.346 Y46.284 E47.42227
G1 X-12.346 Y57.541 E47.98721
G1 X-11.963 Y57.496 E48.00656
G1 X-11.963 Y46.284 E48.56924
G1 X-11.579 Y46.284 E48.58851
G1 X-11.579 Y57.422 E49.14748
G1 X-11.196 Y57.334 E49.1672
G1 X-11.196 Y46.284 E49.72175
G1 X-10.813 Y46.284 E49.74097
G1 X-10.813 Y57.2 E50.2888
G1 X-10.43 Y57.044 E50.30955
G1 X-10.43 Y46.284 E50.84955
G1 X-10.047 Y46.284 E50.86877
G1 X-10.047 Y56.879 E51.40049
G1 X-9.663 Y56.634 E51.42335
G1 X-9.663 Y46.284 E51.94277
G1 X-9.28 Y46.284 E51.96199
G1 X-9.28 Y56.847 E52.4921
G1 X-8.897 Y57.068 E52.51429
G1 X-8.897 Y46.284 E53.05549
G1 X-8.514 Y46.284 E53.07471
G1 X-8.514 Y57.274 E53.62625
G1 X-8.13 Y57.41 E53.64669
G1 X-8.13 Y46.284 E54.20506
G1 X-7.747 Y46.284 E54.22428
G1 X-7.747 Y57.546 E54.78947
G1 X-7.364 Y57.645 E54.80932
G1 X-7.364 Y46.284 E55.37948
G1 X-6.981 Y46.284 E55.3987
G1 X-6.981 Y57.706 E55.97192
G1 X-6.598 Y57.768 E55.99139
G1 X-6.598 Y46.284 E56.56773
G1 X-6.214 Y46.284 E56.587
G1 X-6.214 Y57.781 E57.16399
G1 X-5.831 Y57.772 E57.18322
G1 X-5.831 Y46.284 E57.75976
G1 X-5.448 Y46.228 E57.77919
G1 X-5.448 Y57.919 E58.36591
G1 X-5.448 Y57.919 F7800
G1 X2.983 Y43.805
G1 F1800
G1 X2.983 Y41.153 E58.499
G1 X2.983 Y41.153 F7800
G1 X-16.561 Y56.464
G1 F1800
G1 X-16.561 Y29.098 E59.87239
G1 X-16.944 Y29.166 E59.89191
G1 X-16.944 Y55.936 E61.23539
G1 X-17.328 Y55.534 E61.26329
G1 X-17.328 Y29.302 E62.57977
G1 X-17.711 Y29.438 E62.60017
G1 X-17.711 Y55.064 E63.88623
G1 X-18.094 Y54.431 E63.92336
G1 X-18.094 Y29.609 E65.16907
G1 X-18.477 Y29.83 E65.19126
G1 X-18.477 Y48.352 E66.1208
G1 X-18.86 Y48.391 E66.14012
G1 X-18.86 Y30.051 E67.06053
G1 X-19.244 Y30.372 E67.08565
G1 X-19.244 Y48.431 E67.99196
G1 X-19.627 Y48.423 E68.01119
G1 X-19.627 Y30.698 E68.90074
G1 X-20.01 Y31.136 E68.92994
G1 X-20.01 Y48.386 E69.79565
G1 X-20.393 Y48.35 E69.81496
G1 X-20.393 Y31.607 E70.65522
G1 X-20.776 Y32.302 E70.69504
G1 X-20.776 Y48.248 E71.4953
G1 X-21.16 Y48.134 E71.5154
G1 X-21.16 Y37.803 E72.03387
G1 X-21.543 Y37.93 E72.05412
G1 X-21.543 Y48.006 E72.55979
G1 X-21.926 Y47.803 E72.58154
G1 X-21.926 Y38.134 E73.06679
G1 X-22.309 Y38.337 E73.08854
G1 X-22.309 Y47.6 E73.55341
G1 X-22.692 Y47.323 E73.57713
G1 X-22.692 Y38.613 E74.01425
G1 X-23.076 Y38.926 E74.03911
G1 X-23.076 Y47.011 E74.44486
G1 X-23.459 Y46.624 E74.47219
G1 X-23.459 Y39.313 E74.8391
G1 X-23.842 Y39.778 E74.86933
G1 X-23.842 Y46.159 E75.18957
G1 X-24.225 Y45.519 E75.227
G1 X-24.225 Y40.417 E75.48305
G1 X-24.609 Y41.334 E75.53294
G1 X-24.609 Y45.134 E75.72365
G1 E73.72365 F2400
G92 E0
G1 X-24.609 Y45.134 F7800
G1 X-18.477 Y54.043
G1 E2 F2400
G1 F1800
G1 X-18.477 Y49.109 E2.24762
G1 X-18.477 Y49.109 F7800
G1 X-21.16 Y37.158
G1 F1800
G1 X-21.16 Y32.776 E2.46753
G1 E.46753 F2400
G92 E0
G1 X-21.16 Y32.776 F7800
G1 X-14.913 Y42.108
G1 E2 F2400
;TYPE:Perimeter
;WIDTH:0.42
G1 F1800
G1 X-6.713 Y42.108 E2.41152
G1 X-6.713 Y43.373 E2.47501
G1 X-6.713 Y44.639 E2.53855
G1 X-14.913 Y44.639 E2.95007
G1 X-14.913 Y42.168 E3.07408
G1 X-14.913 Y42.168 F7800
G1 X-15.258 Y41.763
G1 F1800
G1 X-6.368 Y41.763 E3.52023
G1 X-6.368 Y43.373 E3.60103
G1 X-6.368 Y44.984 E3.68188
G1 X-15.258 Y44.984 E4.12803
G1 X-15.258 Y41.823 E4.28667
G1 X-15.603 Y41.418 F7800
;TYPE:External perimeter
G1 F1800
G1 X-6.023 Y41.418 E4.76745
G1 X-6.023 Y43.373 E4.86556
G1 X-6.023 Y45.329 E4.96372
G1 X-15.603 Y45.329 E5.4445
G1 X-15.603 Y41.478 E5.63777
G1 X-15.207 Y41.419 F7800
G1 E3.63777 F2400
G92 E0
G1 X-6.816 Y42.919 F7800
G1 E2 F2400
;TYPE:Solid infill
;WIDTH:0.42484
G1 F1800
G1 X-7.368 Y42.367 E2.03973
G1 X-7.863 Y42.367 E2.06492
G1 X-6.971 Y43.258 E2.12908
G1 X-6.971 Y43.753 E2.15427
G1 X-8.358 Y42.367 E2.25406
G1 X-8.852 Y42.367 E2.2792
G1 X-6.971 Y44.247 E2.41454
G1 X-6.971 Y44.38 E2.42131
G1 X-7.333 Y44.38 E2.43973
G1 X-9.347 Y42.367 E2.58464
G1 X-9.841 Y42.367 E2.60978
G1 X-7.828 Y44.38 E2.75465
G1 X-8.322 Y44.38 E2.77979
G1 X-10.336 Y42.367 E2.9247
G1 X-10.831 Y42.367 E2.94989
G1 X-8.817 Y44.38 E3.0948
G1 X-9.312 Y44.38 E3.11999
G1 X-11.325 Y42.367 E3.26486
G1 X-11.82 Y42.367 E3.29005
G1 X-9.806 Y44.38 E3.43496
G1 X-10.301 Y44.38 E3.46015
G1 X-12.314 Y42.367 E3.60502
G1 X-12.809 Y42.367 E3.63021
G1 X-10.795 Y44.38 E3.77512
G1 X-11.29 Y44.38 E3.80031
G1 X-13.304 Y42.367 E3.94522
G1 X-13.798 Y42.367 E3.97036
G1 X-11.785 Y44.38 E4.11523
G1 X-12.279 Y44.38 E4.14037
G1 X-14.293 Y42.367 E4.28528
G1 X-14.655 Y42.367 E4.3037
G1 X-14.655 Y42.499 E4.31042
G1 X-12.774 Y44.38 E4.44579
G1 X-13.268 Y44.38 E4.47093
G1 X-14.655 Y42.994 E4.57072
G1 X-14.655 Y43.489 E4.59591
G1 X-13.763 Y44.38 E4.66007
G1 X-14.258 Y44.38 E4.68526
G1 X-14.81 Y43.828 E4.72499
M106 S127.5
;LAYER_CHANGE
;Z:0.65
;HEIGHT:0.3
G1 Z.65 F7800
M104 S210 ; set temperature
G1 E2.72499 F2400
G92 E0
G1 X-14.81 Y43.828 F7800
G1 X-3.619 Y41.135
G1 E2 F2400
;TYPE:Support material
;WIDTH:0.35
G1 F3600
G1 X-3.142 Y40.785 E2.02108
G1 X-2.401 Y40.591 E2.04837
G1 X-2.385 Y40.241 E2.06085
G1 X-1.974 Y40.26 E2.07551
G1 X-1.125 Y40.57 E2.10771
G1 X-.764 Y40.847 E2.12392
G1 X-.243 Y41.59 E2.15625
G1 X-.06 Y42.478 E2.18855
G1 X-.106 Y42.932 E2.20481
G1 X-.465 Y43.765 E2.23712
G1 X-1.104 Y44.371 E2.26849
G1 X-1.019 Y44.956 E2.28955
G1 X-.628 Y45.445 E2.31185
G1 X.044 Y45.823 E2.33932
G1 X.444 Y46.19 E2.35866
G1 X1.007 Y47.106 E2.39696
G1 X1.155 Y47.626 E2.41622
G1 X1.204 Y48.164 E2.43547
G1 X1.13 Y48.792 E2.458
G1 X.767 Y49.707 E2.49307
G1 X.442 Y50.139 E2.51233
G1 X-.023 Y50.55 E2.53444
G1 X-.92 Y50.989 E2.57002
G1 X-1.452 Y51.091 E2.58932
G1 X-2.386 Y51.028 E2.62267
G1 X-2.728 Y51.233 E2.63687
G1 X-3.119 Y51.691 E2.65832
G1 X-3.179 Y52.34 E2.68154
G1 X-3.567 Y53.344 E2.71988
G1 X-4.294 Y54.146 E2.75844
G1 X-5.25 Y54.626 E2.79655
G1 X-6.321 Y54.732 E2.83489
G1 X-6.848 Y54.638 E2.85396
G1 X-7.818 Y54.168 E2.89236
G1 X-8.553 Y53.379 E2.93077
G1 X-8.799 Y52.899 E2.94998
G1 X-9.074 Y51.98 E2.98415
G1 X-9.816 Y51.943 E3.01062
G1 X-10.341 Y53.118 E3.05647
G1 X-10.665 Y53.55 E3.07571
G1 X-11.113 Y53.95 E3.09711
G1 X-12.023 Y54.4 E3.13327
G1 X-12.618 Y54.507 E3.15481
G1 X-13.625 Y54.412 E3.19084
G1 X-14.126 Y54.224 E3.2099
G1 X-14.67 Y53.881 E3.23281
G1 X-15.327 Y53.156 E3.26766
G1 X-15.574 Y52.675 E3.28692
G1 X-15.786 Y51.62 E3.32525
G1 X-15.744 Y51.082 E3.34447
G1 X-15.605 Y50.56 E3.36371
G1 X-15.056 Y49.638 E3.40194
G1 X-14.59 Y49.208 E3.42453
G1 X-14.132 Y48.93 E3.44362
G1 X-13.626 Y48.74 E3.46287
G1 X-12.615 Y48.645 E3.49904
G1 X-12.024 Y48.751 E3.52043
G1 X-11.52 Y48.95 E3.53973
G1 X-11.068 Y49.231 E3.55869
