; generated by PrusaSlicer 2.9.0 on 2025-03-13 at 12:27:01 UTC

; 

; external perimeters extrusion width = 0.45mm
; perimeters extrusion width = 0.45mm
; infill extrusion width = 0.45mm
; solid infill extrusion width = 0.45mm
; top infill extrusion width = 0.40mm
; first layer extrusion width = 0.42mm

M190 S60 ; set bed temperature and wait for it to be reached
M104 S215 ; set temperature
;TYPE:Custom
G28 ; home all axes
G1 Z5 F5000 ; lift nozzle
M109 S215 ; set temperature and wait for it to be reached
G21 ; set units to millimeters
G90 ; use absolute coordinates
M82 ; use absolute distances for extrusion
G92 E0
; Filament gcode
M107
;LAYER_CHANGE
;Z:0.35
;HEIGHT:0.35
G1 E-2 F2400
G1 Z.35 F7800
G1 X15.029 Y-4.466
G1 E.00001 F2400
;TYPE:Skirt/Brim
;WIDTH:0.42
G1 F1800
G1 X14.305 Y-7.367 E.15005
G1 X14.305 Y-10.847 E.3247
G1 X14.702 Y-13.024 E.43576
G1 X15.841 Y-14.921 E.54681
G1 X17.576 Y-16.295 E.65788
G1 X20.477 Y-17.019 E.80793
G1 X50.477 Y-17.019 E2.31351
G1 X52.655 Y-16.622 E2.42462
G1 X54.552 Y-15.483 E2.53567
G1 X55.926 Y-13.748 E2.64674
G1 X56.65 Y-10.847 E2.79679
G1 X56.65 Y-7.367 E2.97144
G1 X56.253 Y-5.19 E3.0825
G1 X55.114 Y-3.293 E3.19355
G1 X53.378 Y-1.919 E3.30466
G1 X50.477 Y-1.195 E3.45471
G1 X20.477 Y-1.195 E4.96029
G1 X18.3 Y-1.592 E5.07135
G1 X16.403 Y-2.731 E5.1824
G1 X15.066 Y-4.419 E5.29047
G1 E3.29047 F2400
G92 E0
G1 X15.066 Y-4.419 F7800
G92 E0
G1 X49.578 Y-9.927
G1 E2 F2400
;TYPE:Perimeter
;WIDTH:0.42
G1 F1800
G1 X49.578 Y-9.107 E2.04115
G1 X49.578 Y-8.267 E2.08331
G1 X21.377 Y-8.267 E3.4986
G1 X21.377 Y-9.947 E3.58291
G1 X49.537 Y-9.947 E4.99614
G1 X49.537 Y-9.947 F7800
G1 X49.923 Y-10.272
G1 F1800
G1 X49.923 Y-9.107 E5.05461
G1 X49.923 Y-7.922 E5.11408
G1 X21.032 Y-7.922 E6.564
G1 X21.032 Y-10.292 E6.68294
G1 X49.882 Y-10.292 E8.1308
G1 X49.882 Y-10.292 F7800
G1 X50.267 Y-10.616
;TYPE:External perimeter
G1 F1800
G1 X50.267 Y-9.107 E8.20653
G1 X50.267 Y-7.577 E8.28331
G1 X20.687 Y-7.577 E9.76781
G1 X20.687 Y-10.637 E9.92138
G1 X50.228 Y-10.637 E11.40392
G1 X50.265 Y-10.238 F7800
G1 X49.474 Y-9.14
;TYPE:Solid infill
;WIDTH:0.423187
G1 F1800
G1 X48.925 Y-9.688 E11.44321
G1 X48.433 Y-9.688 E11.46813
G1 X49.319 Y-8.802 E11.53159
G1 X49.319 Y-8.526 E11.54557
G1 X49.103 Y-8.526 E11.55651
G1 X47.941 Y-9.688 E11.63974
G1 X47.449 Y-9.688 E11.66466
G1 X48.611 Y-8.526 E11.74789
G1 X48.119 Y-8.526 E11.77281
G1 X46.956 Y-9.688 E11.85608
G1 X46.464 Y-9.688 E11.881
G1 X47.626 Y-8.526 E11.96423
G1 X47.134 Y-8.526 E11.98915
G1 X45.972 Y-9.688 E12.07238
G1 X45.48 Y-9.688 E12.0973
G1 X46.642 Y-8.526 E12.18053
G1 X46.15 Y-8.526 E12.20545
G1 X44.987 Y-9.688 E12.28872
G1 X44.495 Y-9.688 E12.31364
G1 X45.657 Y-8.526 E12.39687
G1 X45.165 Y-8.526 E12.42179
G1 X44.003 Y-9.688 E12.50502
G1 X43.511 Y-9.688 E12.52994
G1 X44.673 Y-8.526 E12.61317
G1 X44.181 Y-8.526 E12.63809
G1 X43.018 Y-9.688 E12.72136
G1 X42.526 Y-9.688 E12.74628
G1 X43.688 Y-8.526 E12.82951
G1 X43.196 Y-8.526 E12.85443
G1 X42.034 Y-9.688 E12.93766
G1 X41.542 Y-9.688 E12.96258
G1 X42.704 Y-8.526 E13.04581
G1 X42.212 Y-8.526 E13.07073
G1 X41.049 Y-9.688 E13.154
G1 X40.557 Y-9.688 E13.17892
G1 X41.719 Y-8.526 E13.26215
G1 X41.227 Y-8.526 E13.28707
G1 X40.065 Y-9.688 E13.3703
G1 X39.573 Y-9.688 E13.39522
G1 X40.735 Y-8.526 E13.47845
G1 X40.243 Y-8.526 E13.50337
G1 X39.08 Y-9.688 E13.58664
G1 X38.588 Y-9.688 E13.61156
G1 X39.75 Y-8.526 E13.69479
G1 X39.258 Y-8.526 E13.71971
G1 X38.096 Y-9.688 E13.80294
G1 X37.604 Y-9.688 E13.82786
G1 X38.766 Y-8.526 E13.91109
G1 X38.274 Y-8.526 E13.93601
G1 X37.111 Y-9.688 E14.01928
G1 X36.619 Y-9.688 E14.0442
G1 X37.781 Y-8.526 E14.12743
G1 X37.289 Y-8.526 E14.15235
G1 X36.127 Y-9.688 E14.23558
G1 X35.635 Y-9.688 E14.2605
G1 X36.797 Y-8.526 E14.34373
G1 X36.305 Y-8.526 E14.36865
G1 X35.142 Y-9.688 E14.45192
G1 X34.65 Y-9.688 E14.47684
G1 X35.812 Y-8.526 E14.56007
G1 X35.32 Y-8.526 E14.58499
G1 X34.158 Y-9.688 E14.66822
G1 X33.666 Y-9.688 E14.69314
G1 X34.828 Y-8.526 E14.77637
G1 X34.336 Y-8.526 E14.80129
G1 X33.173 Y-9.688 E14.88456
G1 X32.681 Y-9.688 E14.90948
G1 X33.843 Y-8.526 E14.99271
G1 X33.351 Y-8.526 E15.01763
G1 X32.189 Y-9.688 E15.10086
G1 X31.697 Y-9.688 E15.12578
G1 X32.859 Y-8.526 E15.20901
G1 X32.367 Y-8.526 E15.23393
G1 X31.204 Y-9.688 E15.3172
G1 X30.712 Y-9.688 E15.34212
G1 X31.874 Y-8.526 E15.42535
G1 X31.382 Y-8.526 E15.45027
G1 X30.22 Y-9.688 E15.5335
G1 X29.727 Y-9.688 E15.55847
G1 X30.89 Y-8.526 E15.64174
G1 X30.398 Y-8.526 E15.66666
G1 X29.235 Y-9.688 E15.74993
G1 X28.743 Y-9.688 E15.77485
G1 X29.905 Y-8.526 E15.85808
G1 X29.413 Y-8.526 E15.883
G1 X28.251 Y-9.688 E15.96623
G1 X27.758 Y-9.688 E15.9912
G1 X28.921 Y-8.526 E16.07447
G1 X28.429 Y-8.526 E16.09939
G1 X27.266 Y-9.688 E16.18266
G1 X26.774 Y-9.688 E16.20758
G1 X27.936 Y-8.526 E16.29081
G1 X27.444 Y-8.526 E16.31573
G1 X26.282 Y-9.688 E16.39896
G1 X25.789 Y-9.688 E16.42393
G1 X26.952 Y-8.526 E16.5072
G1 X26.46 Y-8.526 E16.53212
G1 X25.297 Y-9.688 E16.61539
G1 X24.805 Y-9.688 E16.64031
G1 X25.967 Y-8.526 E16.72354
G1 X25.475 Y-8.526 E16.74846
G1 X24.313 Y-9.688 E16.83169
G1 X23.82 Y-9.688 E16.85666
G1 X24.983 Y-8.526 E16.93993
G1 X24.491 Y-8.526 E16.96485
G1 X23.328 Y-9.688 E17.04812
G1 X22.836 Y-9.688 E17.07304
G1 X23.998 Y-8.526 E17.15627
G1 X23.506 Y-8.526 E17.18119
G1 X22.344 Y-9.688 E17.26442
G1 X21.851 Y-9.688 E17.28939
G1 X23.014 Y-8.526 E17.37266
G1 X22.522 Y-8.526 E17.39758
G1 X21.636 Y-9.412 E17.46104
G1 X21.636 Y-8.919 E17.48601
G1 X22.184 Y-8.371 E17.52526
M106 S127.5
;LAYER_CHANGE
;Z:0.65
;HEIGHT:0.3
G1 Z.65 F7800
M104 S210 ; set temperature
G1 E15.52526 F2400
G92 E0
G1 X22.184 Y-8.371 F7800
G1 X49.481 Y-10.67
G1 E2 F2400
;TYPE:Perimeter
;WIDTH:0.45
G1 F3600
G1 X49.481 Y-9.107 E2.07517
G1 X49.481 Y-7.544 E2.15034
G1 X21.474 Y-7.544 E3.49738
G1 X21.474 Y-10.67 E3.64773
G1 X49.421 Y-10.67 E4.99188
G1 X49.421 Y-10.67 F7800
G1 X49.867 Y-10.701
G1 F3600
G1 X49.867 Y-9.107 E5.06855
G1 X49.867 Y-7.167 E5.16186
;TYPE:Overhang perimeter
;WIDTH:0.4
;HEIGHT:0.4
G1 X21.088 Y-7.167 E6.66542
;TYPE:Perimeter
;WIDTH:0.45
;HEIGHT:0.3
G1 X21.088 Y-11.047 E6.85203
;TYPE:Overhang perimeter
;WIDTH:0.4
;HEIGHT:0.4
G1 X49.867 Y-11.047 E8.35559
;TYPE:Perimeter
;WIDTH:0.45
;HEIGHT:0.3
G1 X49.867 Y-10.761 E8.36935
G1 X49.867 Y-10.761 F7800
G1 X50.252 Y-10.701
;TYPE:External perimeter
G1 F1800
G1 X50.252 Y-9.107 E8.44602
G1 X50.252 Y-7.167 E8.53933
;TYPE:Overhang perimeter
;WIDTH:0.4
;HEIGHT:0.4
G1 F3600
G1 X50.252 Y-6.773 E8.55991
G1 X20.702 Y-6.773 E10.10375
G1 X20.702 Y-7.167 E10.12433
;TYPE:External perimeter
;WIDTH:0.45
;HEIGHT:0.3
G1 F1800
G1 X20.702 Y-11.047 E10.31094
;TYPE:Overhang perimeter
;WIDTH:0.4
;HEIGHT:0.4
G1 F3600
G1 X20.702 Y-11.441 E10.33152
G1 X50.252 Y-11.441 E11.87536
G1 X50.252 Y-11.047 E11.89594
;TYPE:External perimeter
;WIDTH:0.45
;HEIGHT:0.3
G1 F1800
G1 X50.252 Y-10.761 E11.9097
G1 X50.252 Y-10.361 F7800
G1 X48.999 Y-10.381
;TYPE:Solid infill
G1 F1200
G1 X21.763 Y-10.381 E13.21966
G1 X21.763 Y-7.833 E13.34221
G1 X49.192 Y-7.833 E14.66145
G1 X49.192 Y-10.381 E14.784
G1 X48.806 Y-9.995 E14.81026
G1 X48.806 Y-8.219 E14.89568
G1 X22.148 Y-8.219 E16.17784
G1 X22.148 Y-9.995 E16.26326
G1 X48.614 Y-9.995 E17.53618
G1 X48.421 Y-9.609 E17.55694
G1 X48.421 Y-8.605 E17.60523
G1 X22.534 Y-8.605 E18.8503
G1 X22.534 Y-9.609 E18.89859
G1 X48.228 Y-9.609 E20.13438
G1 X48.073 Y-9.262 E20.15266
;WIDTH:0.373932
G1 X48.073 Y-8.952 E20.16463
G1 X22.882 Y-8.952 E21.13723
G1 X22.882 Y-9.262 E21.1492
G1 X47.88 Y-9.262 E22.11435
M106 S255
;LAYER_CHANGE
;Z:0.95
;HEIGHT:0.3
G1 Z.95 F7800
G1 E20.11435 F2400
G92 E0
G1 X47.88 Y-9.262 F7800
G1 X49.283 Y-11.17
G1 E2 F2400
;TYPE:Perimeter
;WIDTH:0.45
G1 F3600
G1 X49.481 Y-11.17 E2.00952
G1 X49.481 Y-9.107 E2.10874
G1 X49.481 Y-7.044 E2.20796
G1 X21.474 Y-7.044 E3.555
G1 X21.474 Y-11.17 E3.75345
G1 X49.223 Y-11.17 E5.08808
G1 X49.223 Y-11.17 F7800
G1 X49.808 Y-11.556
G1 F3600
G1 X49.867 Y-11.556 E5.09092
G1 X49.867 Y-9.107 E5.20871
G1 X49.867 Y-6.658 E5.3265
G1 X21.088 Y-6.658 E6.71067
G1 X21.088 Y-11.556 E6.94625
G1 X49.748 Y-11.556 E8.3247
G1 X49.748 Y-11.556 F7800
G1 X50.252 Y-11.829
;TYPE:External perimeter
G1 F1800
G1 X50.252 Y-9.107 E8.45562
G1 X50.252 Y-6.348 E8.58832
;TYPE:Overhang perimeter
;WIDTH:0.4
;HEIGHT:0.4
G1 F3600
G1 X50.252 Y-6.273 E8.59224
G1 X20.702 Y-6.273 E10.13608
G1 X20.702 Y-6.348 E10.14
;TYPE:External perimeter
;WIDTH:0.45
;HEIGHT:0.3
G1 F1800
G1 X20.702 Y-11.866 E10.4054
;TYPE:Overhang perimeter
;WIDTH:0.4
;HEIGHT:0.4
G1 F3600
G1 X20.702 Y-11.942 E10.40937
G1 X50.252 Y-11.942 E11.95321
G1 X50.252 Y-11.889 E11.95598
G1 X50.252 Y-11.489 F7800
G1 E9.95598 F2400
G92 E0
G1 X21.794 Y-7.438 F7800
G1 E2 F2400
;TYPE:Solid infill
;WIDTH:0.543559
;HEIGHT:0.3
G1 F1200
G1 X21.752 Y-7.395 E2.00359
G1 X21.767 Y-7.337 E2.00717
G1 X21.825 Y-7.322 E2.01075
G1 X21.867 Y-7.364 E2.0143
G1 X21.852 Y-7.422 E2.01788
;WIDTH:0.45
G1 X21.763 Y-8.038 E2.04782
G1 X22.468 Y-7.333 E2.09577
G1 X23.013 Y-7.333 E2.12198
G1 X21.763 Y-8.583 E2.207
G1 X21.763 Y-9.129 E2.23326
G1 X23.559 Y-7.333 E2.35542
G1 X24.104 Y-7.333 E2.38163
G1 X21.763 Y-9.674 E2.54086
G1 X21.763 Y-10.219 E2.56707
G1 X24.649 Y-7.333 E2.76337
G1 X25.195 Y-7.333 E2.78963
G1 X21.763 Y-10.765 E3.02307
G1 X22.192 Y-10.881 E3.04444
G1 X25.74 Y-7.333 E3.28577
G1 X26.285 Y-7.333 E3.31198
G1 X22.737 Y-10.881 E3.55331
G1 X23.282 Y-10.881 E3.57952
G1 X26.831 Y-7.333 E3.82088
G1 X27.376 Y-7.333 E3.84709
G1 X23.828 Y-10.881 E4.08842
G1 X24.373 Y-10.881 E4.11463
G1 X27.921 Y-7.333 E4.35596
G1 X28.467 Y-7.333 E4.38222
G1 X24.918 Y-10.881 E4.62358
G1 X25.464 Y-10.881 E4.64984
G1 X29.012 Y-7.333 E4.89117
G1 X29.557 Y-7.333 E4.91738
G1 X26.009 Y-10.881 E5.15871
G1 X26.555 Y-10.881 E5.18497
G1 X30.103 Y-7.333 E5.4263
G1 X30.648 Y-7.333 E5.45251
G1 X27.1 Y-10.881 E5.69384
G1 X27.645 Y-10.881 E5.72005
G1 X31.193 Y-7.333 E5.96138
G1 X31.739 Y-7.333 E5.98764
G1 X28.191 Y-10.881 E6.22897
G1 X28.736 Y-10.881 E6.25518
G1 X32.284 Y-7.333 E6.49651
G1 X32.83 Y-7.333 E6.52277
G1 X29.281 Y-10.881 E6.76413
G1 X29.827 Y-10.881 E6.79039
G1 X33.375 Y-7.333 E7.03172
G1 X33.92 Y-7.333 E7.05793
G1 X30.372 Y-10.881 E7.29926
G1 X30.917 Y-10.881 E7.32547
G1 X34.466 Y-7.333 E7.56683
G1 X35.011 Y-7.333 E7.59304
G1 X31.463 Y-10.881 E7.83437
G1 X32.008 Y-10.881 E7.86058
G1 X35.556 Y-7.333 E8.10191
G1 X36.102 Y-7.333 E8.12817
G1 X32.553 Y-10.881 E8.36953
G1 X33.099 Y-10.881 E8.39579
G1 X36.647 Y-7.333 E8.63712
G1 X37.192 Y-7.333 E8.66333
G1 X33.644 Y-10.881 E8.90466
G1 X34.189 Y-10.881 E8.93087
G1 X37.738 Y-7.333 E9.17223
G1 X38.283 Y-7.333 E9.19844
G1 X34.735 Y-10.881 E9.43977
G1 X35.28 Y-10.881 E9.46598
G1 X38.828 Y-7.333 E9.70731
G1 X39.374 Y-7.333 E9.73357
G1 X35.825 Y-10.881 E9.97493
G1 X36.371 Y-10.881 E10.00119
G1 X39.919 Y-7.333 E10.24252
G1 X40.464 Y-7.333 E10.26873
G1 X36.916 Y-10.881 E10.51006
G1 X37.461 Y-10.881 E10.53627
G1 X41.01 Y-7.333 E10.77763
G1 X41.555 Y-7.333 E10.80384
G1 X38.007 Y-10.881 E11.04517
G1 X38.552 Y-10.881 E11.07138
G1 X42.1 Y-7.333 E11.31271
G1 X42.646 Y-7.333 E11.33897
G1 X39.098 Y-10.881 E11.5803
G1 X39.643 Y-10.881 E11.60651
G1 X43.191 Y-7.333 E11.84784
G1 X43.736 Y-7.333 E11.87405
G1 X40.188 Y-10.881 E12.11538
G1 X40.734 Y-10.881 E12.14164
G1 X44.282 Y-7.333 E12.38297
G1 X44.827 Y-7.333 E12.40918
G1 X41.279 Y-10.881 E12.65051
G1 X41.824 Y-10.881 E12.67672
G1 X45.373 Y-7.333 E12.91808
G1 X45.918 Y-7.333 E12.94429
G1 X42.37 Y-10.881 E13.18562
G1 X42.915 Y-10.881 E13.21183
G1 X46.463 Y-7.333 E13.45316
G1 X47.009 Y-7.333 E13.47942
G1 X43.46 Y-10.881 E13.72078
G1 X44.006 Y-10.881 E13.74704
G1 X47.554 Y-7.333 E13.98837
G1 X48.099 Y-7.333 E14.01458
G1 X44.551 Y-10.881 E14.25591
G1 X45.096 Y-10.881 E14.28212
G1 X48.645 Y-7.333 E14.52348
G1 X49.19 Y-7.333 E14.54969
G1 X45.642 Y-10.881 E14.79102
G1 X46.187 Y-10.881 E14.81723
G1 X49.192 Y-7.876 E15.02163
G1 X49.192 Y-8.422 E15.04789
G1 X46.732 Y-10.881 E15.21518
G1 X47.278 Y-10.881 E15.24144
G1 X49.192 Y-8.967 E15.37163
G1 E13.37163 F2400
G92 E0
G1 X47.959 Y-10.745 F7800
G1 E2 F2400
G1 F1200
G1 X49.192 Y-9.512 E2.08387
G1 X49.192 Y-10.881 E2.14971
G1 X47.823 Y-10.881 E2.21555
G1 X47.823 Y-10.881 F7800
G1 X48.778 Y-10.531
;WIDTH:0.480621
G1 F1200
G1 X48.741 Y-10.494 E2.21827
G1 X48.754 Y-10.444 E2.22095
G1 X48.804 Y-10.43 E2.22365
G1 X48.841 Y-10.467 E2.22637
G1 X48.828 Y-10.517 E2.22905
;LAYER_CHANGE
;Z:1.25
;HEIGHT:0.3
G1 Z1.25 F7800
G1 X49.481 Y-11.557
;TYPE:Perimeter
;WIDTH:0.45
G1 F3600
G1 X49.481 Y-9.107 E2.34689
G1 X49.481 Y-6.657 E2.46473
G1 X21.474 Y-6.657 E3.81177
G1 X21.474 Y-11.557 E4.04744
G1 X49.421 Y-11.557 E5.39159
G1 X49.421 Y-11.557 F7800
G1 X49.867 Y-11.943
G1 F3600
G1 X49.867 Y-9.107 E5.52799
G1 X49.867 Y-6.271 E5.66439
G1 X21.088 Y-6.271 E7.04856
G1 X21.088 Y-11.943 E7.32136
G1 X49.807 Y-11.943 E8.70264
G1 X49.807 Y-11.943 F7800
G1 X50.252 Y-12.328
;TYPE:External perimeter
G1 F1800
G1 X50.252 Y-9.107 E8.85756
G1 X50.252 Y-5.886 E9.01248
G1 X20.702 Y-5.886 E10.43373
G1 X20.702 Y-12.328 E10.74357
G1 X50.192 Y-12.328 E12.16194
G1 X50.252 Y-11.933 F7800
G1 X49.143 Y-11.219
;TYPE:Solid infill
;WIDTH:0.548543
G1 F1200
G1 X49.143 Y-10.735 E12.19117
G1 X21.812 Y-10.735 E13.84162
G1 X21.812 Y-11.219 E13.87085
G1 X48.95 Y-11.219 E15.50964
G1 E13.50964 F2400
G92 E0
G1 X48.95 Y-11.219 F7800
G1 X49.192 Y-8.171
G1 E2 F2400
;TYPE:Internal infill
;WIDTH:0.45
G1 F4800
G1 X49.192 Y-7.914 E2.01236
G1 X47.135 Y-7.914 E2.11129
G1 X47.774 Y-10.3 E2.23009
G1 X49.192 Y-10.3 E2.29829
G1 X49.192 Y-9.788 E2.32292
G1 X42.201 Y-7.914 E2.67103
G1 X41.146 Y-7.914 E2.72177
G1 X41.785 Y-10.3 E2.84057
G1 X42.465 Y-10.3 E2.87328
G1 X44.85 Y-7.914 E3.03554
G1 X46.942 Y-7.914 E3.13616
G1 E1.13616 F2400
G92 E0
G1 X46.942 Y-7.914 F7800
G1 X49.143 Y-7.48
G1 E2 F2400
;TYPE:Solid infill
;WIDTH:0.548544
G1 F1200
G1 X49.143 Y-6.995 E2.02929
G1 X21.812 Y-6.995 E3.67974
G1 X21.812 Y-7.48 E3.70903
G1 X48.95 Y-7.48 E5.34783
G1 E3.34783 F2400
G92 E0
G1 X48.95 Y-7.48 F7800
G1 X38.984 Y-7.914
G1 E2 F2400
;TYPE:Internal infill
;WIDTH:0.45
G1 F4800
G1 X36.67 Y-7.914 E2.1113
G1 X34.285 Y-10.3 E2.27356
G1 X35.797 Y-10.3 E2.34628
G1 X35.158 Y-7.914 E2.46508
G1 X32.844 Y-7.914 E2.57638
G1 E.57638 F2400
G92 E0
G1 X32.844 Y-7.914 F7800
G1 X24.013 Y-10.3
G1 E2 F2400
G1 F4800
G1 X26.105 Y-10.3 E2.10062
G1 X28.49 Y-7.914 E2.26288
G1 X29.17 Y-7.914 E2.29559
G1 X29.809 Y-10.3 E2.41439
G1 X28.754 Y-10.3 E2.46513
G1 X21.763 Y-8.426 E2.81324
G1 X21.763 Y-7.914 E2.83787
G1 X23.181 Y-7.914 E2.90607
G1 X23.82 Y-10.3 E3.02487
G1 X21.763 Y-10.3 E3.1238
G1 X21.763 Y-10.043 E3.13616
;LAYER_CHANGE
;Z:1.55
;HEIGHT:0.3
G1 Z1.55 F7800
G1 E1.13616 F2400
G92 E0
G1 X21.763 Y-10.043 F7800
G1 X49.481 Y-11.872
G1 E2 F2400
;TYPE:Perimeter
;WIDTH:0.45
G1 F3600
G1 X49.481 Y-9.107 E2.13299
G1 X49.481 Y-6.342 E2.26598
G1 X21.474 Y-6.342 E3.61302
G1 X21.474 Y-11.872 E3.87899
G1 X49.421 Y-11.872 E5.22314
G1 X49.421 Y-11.872 F7800
G1 X49.867 Y-12.258
G1 F3600
G1 X49.867 Y-9.107 E5.37469
G1 X49.867 Y-5.956 E5.52624
G1 X21.088 Y-5.956 E6.91041
G1 X21.088 Y-12.258 E7.21351
G1 X49.807 Y-12.258 E8.59479
G1 X49.807 Y-12.258 F7800
G1 X50.252 Y-12.644
;TYPE:External perimeter
G1 F1800
G1 X50.252 Y-9.107 E8.76491
G1 X50.252 Y-5.57 E8.93503
G1 X20.702 Y-5.57 E10.35628
G1 X20.702 Y-12.644 E10.69651
G1 X50.192 Y-12.644 E12.11488
G1 X50.252 Y-12.248 F7800
G1 E10.11488 F2400
G92 E0
G1 X41.012 Y-7.414 F7800
G1 E2 F2400
;TYPE:Internal infill
;WIDTH:0.45
G1 F4800
G1 X41.919 Y-10.8 E2.1686
G1 X45.351 Y-7.414 E2.40048
G1 X47 Y-7.414 E2.47979
G1 X47.908 Y-10.8 E2.6484
G1 X49.192 Y-10.8 E2.71016
G1 X49.192 Y-9.788 E2.75883
G1 X40.333 Y-7.414 E3.19995
G1 X37.171 Y-7.414 E3.35203
G1 X33.784 Y-10.8 E3.58238
G1 X35.931 Y-10.8 E3.68564
G1 X35.024 Y-7.414 E3.85424
G1 X32.71 Y-7.414 E3.96554
G1 E1.96554 F2400
G92 E0
G1 X32.936 Y-10.8 F7800
G1 E2 F2400
G1 F4800
G1 X30.622 Y-10.8 E2.1113
G1 X21.763 Y-8.426 E2.55242
G1 X21.763 Y-7.414 E2.60109
G1 X23.047 Y-7.414 E2.66285
G1 X23.954 Y-10.8 E2.83145
G1 X25.604 Y-10.8 E2.91081
G1 X29.035 Y-7.414 E3.14266
G1 X29.943 Y-10.8 E3.31127
G1 E1.31127 F2400
G92 E0
G1 X29.943 Y-10.8 F7800
G1 X21.766 Y-11.58
G1 E2 F2400
;TYPE:Solid infill
;WIDTH:0.4559
